(.../pcb-gcode-3.6.2.4/pcb-gcode.ulp)
(Copyright 2005 - 2012 by John Johnson)
(See readme.txt for licensing terms.)
(This file generated from the board:)
(.../ELECTRONICS/e-garden/e-garden1/G1-6.brd)
(Current profile is .../pcb-gcode-3.6.2.4/profiles/generic.pp  )
(This file generated 1/14/17 3:00 PM)
(Settings from pcb-machine.h)
(spindle on time = 3.0000)
(spindle speed = 20000.0000)
(tool change at 0.0000 0.0000 20.4000 )
(feed rate xy = F0.00  )
(feed rate z  = F100.00 )
(Z Axis Settings)
(  High     Up        Down     Drill)
(12.0000 	3.0000 	-0.1100 	-2.0000 )
(Settings from pcb-defaults.h)
(isolate min = 0.0254)
(isolate max = 0.5080)
(isolate step = 0.1270)
(Generated top outlines, top drill, )
(Unit of measure: mm)
( Tool|       Size       |  Min Sub |  Max Sub |   Count )
( T01  0.700mm 0.0276in 0.0000in 0.0000in )
( T02  0.800mm 0.0315in 0.0000in 0.0000in )
( T03  0.813mm 0.0320in 0.0000in 0.0000in )
( T04  0.900mm 0.0354in 0.0000in 0.0000in )
( T05  1.000mm 0.0394in 0.0000in 0.0000in )
( T06  1.016mm 0.0400in 0.0000in 0.0000in )
( T07  3.200mm 0.1260in 0.0000in 0.0000in )
( T08  3.302mm 0.1300in 0.0000in 0.0000in )
(Metric Mode)
G21
(Absolute Coordinates)
G90
S20000
G00 Z12.0000 
G00 X0.0000 Y0.0000 
M03
G04 P3.000000
M05
G00 Z20.4000 
M06 T01  ; 0.7000 
G01 Z0.0000 F100.00 
M06 
G00 Z3.0000 
M03
G04 P3.000000
G00 Z3.000000
G00 X9.0000 Y33.2300 
G01 Z-2.0000 F100.00 
G01 Z3.000000
(R3.0000  P1.000000)
G00 X9.0000 Y35.7700 
G01 Z-2.000000
G01 Z3.000000
G00 X9.0000 Y38.6300 
G01 Z-2.000000
G01 Z3.000000
G00 X9.0000 Y41.1700 
G01 Z-2.000000
G01 Z3.000000
G00 X13.5300 Y23.3000 
G01 Z-2.000000
G01 Z3.000000
G00 X16.0700 Y23.3000 
G01 Z-2.000000
G01 Z3.000000
M05
G00 Z20.4000 
G00 X0.0000 Y0.0000 
M06 T02  ; 0.8000 
G01 Z0.0000 F100.00 
M06 
G00 Z3.0000 
M03
G04 P3.000000
G00 Z3.000000
G00 X31.1750 Y45.8225 
G01 Z-2.0000 F100.00 
G01 Z3.000000
(R3.0000  P1.000000)
G00 X31.1750 Y48.3625 
G01 Z-2.000000
G01 Z3.000000
G00 X33.7150 Y48.3625 
G01 Z-2.000000
G01 Z3.000000
G00 X33.7150 Y45.8225 
G01 Z-2.000000
G01 Z3.000000
G00 X36.2550 Y45.8225 
G01 Z-2.000000
G01 Z3.000000
G00 X36.2550 Y48.3625 
G01 Z-2.000000
G01 Z3.000000
G00 X38.7950 Y48.3625 
G01 Z-2.000000
G01 Z3.000000
G00 X38.7950 Y45.8225 
G01 Z-2.000000
G01 Z3.000000
M05
G00 Z20.4000 
G00 X0.0000 Y0.0000 
M06 T03  ; 0.8128 
G01 Z0.0000 F100.00 
M06 
G00 Z3.0000 
M03
G04 P3.000000
G00 Z3.000000
G00 X25.1300 Y26.7900 
G01 Z-2.0000 F100.00 
G01 Z3.000000
(R3.0000  P1.000000)
G00 X27.6700 Y26.7900 
G01 Z-2.000000
G01 Z3.000000
G00 X30.2100 Y26.7900 
G01 Z-2.000000
G01 Z3.000000
G00 X26.0700 Y30.0600 
G01 Z-2.000000
G01 Z3.000000
G00 X26.0700 Y32.6000 
G01 Z-2.000000
G01 Z3.000000
G00 X26.0700 Y35.1400 
G01 Z-2.000000
G01 Z3.000000
G00 X26.0300 Y39.4600 
G01 Z-2.000000
G01 Z3.000000
G00 X26.0300 Y42.0000 
G01 Z-2.000000
G01 Z3.000000
G00 X26.0300 Y44.5400 
G01 Z-2.000000
G01 Z3.000000
M05
G00 Z20.4000 
G00 X0.0000 Y0.0000 
M06 T04  ; 0.9000 
G01 Z0.0000 F100.00 
M06 
G00 Z3.0000 
M03
G04 P3.000000
G00 Z3.000000
G00 X15.0900 Y26.8000 
G01 Z-2.0000 F100.00 
G01 Z3.000000
(R3.0000  P1.000000)
G00 X15.0900 Y30.6000 
G01 Z-2.000000
G01 Z3.000000
G00 X22.7100 Y30.6000 
G01 Z-2.000000
G01 Z3.000000
G00 X22.7100 Y26.8000 
G01 Z-2.000000
G01 Z3.000000
G00 X28.2500 Y18.5000 
G01 Z-2.000000
G01 Z3.000000
G00 X34.7500 Y18.5000 
G01 Z-2.000000
G01 Z3.000000
G00 X33.8200 Y25.9000 
G01 Z-2.000000
G01 Z3.000000
G00 X33.8200 Y28.6000 
G01 Z-2.000000
G01 Z3.000000
G00 X33.8200 Y33.3000 
G01 Z-2.000000
G01 Z3.000000
G00 X43.9800 Y33.3000 
G01 Z-2.000000
G01 Z3.000000
G00 X43.9800 Y28.6000 
G01 Z-2.000000
G01 Z3.000000
G00 X43.9800 Y25.9000 
G01 Z-2.000000
G01 Z3.000000
G00 X47.5000 Y48.4200 
G01 Z-2.000000
G01 Z3.000000
G00 X47.5000 Y58.5800 
G01 Z-2.000000
G01 Z3.000000
G00 X22.9100 Y43.5000 
G01 Z-2.000000
G01 Z3.000000
G00 X15.2900 Y43.5000 
G01 Z-2.000000
G01 Z3.000000
M05
G00 Z20.4000 
G00 X0.0000 Y0.0000 
M06 T05  ; 1.0000 
G01 Z0.0000 F100.00 
M06 
G00 Z3.0000 
M03
G04 P3.000000
G00 Z3.000000
G00 X3.2400 Y5.6000 
G01 Z-2.0000 F100.00 
G01 Z3.000000
(R3.0000  P1.000000)
G00 X3.2400 Y8.1400 
G01 Z-2.000000
G01 Z3.000000
G00 X3.2400 Y10.6800 
G01 Z-2.000000
G01 Z3.000000
G00 X3.2400 Y13.2200 
G01 Z-2.000000
G01 Z3.000000
G00 X3.2400 Y15.7600 
G01 Z-2.000000
G01 Z3.000000
G00 X3.2400 Y18.3000 
G01 Z-2.000000
G01 Z3.000000
G00 X3.2400 Y23.3800 
G01 Z-2.000000
G01 Z3.000000
G00 X3.2400 Y25.9200 
G01 Z-2.000000
G01 Z3.000000
G00 X3.2400 Y28.4600 
G01 Z-2.000000
G01 Z3.000000
G00 X3.2400 Y31.0000 
G01 Z-2.000000
G01 Z3.000000
G00 X3.2400 Y33.5400 
G01 Z-2.000000
G01 Z3.000000
G00 X3.2400 Y36.0800 
G01 Z-2.000000
G01 Z3.000000
G00 X51.5000 Y35.0640 
G01 Z-2.000000
G01 Z3.000000
G00 X51.5000 Y32.5240 
G01 Z-2.000000
G01 Z3.000000
G00 X51.5000 Y29.9840 
G01 Z-2.000000
G01 Z3.000000
G00 X51.5000 Y27.4440 
G01 Z-2.000000
G01 Z3.000000
G00 X51.5000 Y23.3800 
G01 Z-2.000000
G01 Z3.000000
G00 X51.5000 Y20.8400 
G01 Z-2.000000
G01 Z3.000000
G00 X51.5000 Y18.3000 
G01 Z-2.000000
G01 Z3.000000
G00 X51.5000 Y15.7600 
G01 Z-2.000000
G01 Z3.000000
G00 X51.5000 Y13.2200 
G01 Z-2.000000
G01 Z3.000000
G00 X51.5000 Y10.6800 
G01 Z-2.000000
G01 Z3.000000
G00 X51.5000 Y8.1400 
G01 Z-2.000000
G01 Z3.000000
G00 X51.5000 Y5.6000 
G01 Z-2.000000
G01 Z3.000000
G00 X51.5000 Y37.6040 
G01 Z-2.000000
G01 Z3.000000
G00 X51.5000 Y40.1440 
G01 Z-2.000000
G01 Z3.000000
G00 X51.5000 Y42.6840 
G01 Z-2.000000
G01 Z3.000000
G00 X51.5000 Y45.2240 
G01 Z-2.000000
G01 Z3.000000
M05
G00 Z20.4000 
G00 X0.0000 Y0.0000 
M06 T06  ; 1.0160 
G01 Z0.0000 F100.00 
M06 
G00 Z3.0000 
M03
G04 P3.000000
G00 Z3.000000
G00 X6.9000 Y17.3600 
G01 Z-2.0000 F100.00 
G01 Z3.000000
(R3.0000  P1.000000)
G00 X6.9000 Y19.9000 
G01 Z-2.000000
G01 Z3.000000
G00 X6.9000 Y22.4400 
G01 Z-2.000000
G01 Z3.000000
G00 X10.9000 Y18.5000 
G01 Z-2.000000
G01 Z3.000000
G00 X13.4400 Y18.5000 
G01 Z-2.000000
G01 Z3.000000
G00 X15.9800 Y18.5000 
G01 Z-2.000000
G01 Z3.000000
G00 X18.5200 Y18.5000 
G01 Z-2.000000
G01 Z3.000000
G00 X21.1500 Y9.5000 
G01 Z-2.000000
G01 Z3.000000
G00 X23.6900 Y9.5000 
G01 Z-2.000000
G01 Z3.000000
G00 X26.2300 Y9.5000 
G01 Z-2.000000
G01 Z3.000000
G00 X28.7700 Y9.5000 
G01 Z-2.000000
G01 Z3.000000
G00 X31.3100 Y9.5000 
G01 Z-2.000000
G01 Z3.000000
G00 X33.8500 Y9.5000 
G01 Z-2.000000
G01 Z3.000000
G00 X40.4600 Y16.5000 
G01 Z-2.000000
G01 Z3.000000
G00 X43.0000 Y16.5000 
G01 Z-2.000000
G01 Z3.000000
G00 X45.5400 Y16.5000 
G01 Z-2.000000
G01 Z3.000000
G00 X45.5400 Y22.0000 
G01 Z-2.000000
G01 Z3.000000
G00 X43.0000 Y22.0000 
G01 Z-2.000000
G01 Z3.000000
G00 X40.4600 Y22.0000 
G01 Z-2.000000
G01 Z3.000000
G00 X44.0000 Y43.0030 
G01 Z-2.000000
G01 Z3.000000
G00 X44.0000 Y45.7970 
G01 Z-2.000000
G01 Z3.000000
G00 X47.5000 Y64.5000 
G01 Z-2.000000
G01 Z3.000000
G00 X50.0400 Y64.5000 
G01 Z-2.000000
G01 Z3.000000
G00 X23.5400 Y64.3100 
G01 Z-2.000000
G01 Z3.000000
G00 X21.0000 Y64.3100 
G01 Z-2.000000
G01 Z3.000000
G00 X18.4600 Y64.3100 
G01 Z-2.000000
G01 Z3.000000
G00 X15.2000 Y41.1400 
G01 Z-2.000000
G01 Z3.000000
G00 X15.2000 Y38.6000 
G01 Z-2.000000
G01 Z3.000000
G00 X15.1000 Y35.8000 
G01 Z-2.000000
G01 Z3.000000
G00 X15.1000 Y33.2600 
G01 Z-2.000000
G01 Z3.000000
G00 X14.9600 Y5.5000 
G01 Z-2.000000
G01 Z3.000000
G00 X17.5000 Y5.5000 
G01 Z-2.000000
G01 Z3.000000
G00 X12.4200 Y5.5000 
G01 Z-2.000000
G01 Z3.000000
G00 X9.8800 Y5.5000 
G01 Z-2.000000
G01 Z3.000000
M05
G00 Z20.4000 
G00 X0.0000 Y0.0000 
M06 T07  ; 3.2000 
G01 Z0.0000 F100.00 
M06 
G00 Z3.0000 
M03
G04 P3.000000
G00 Z3.000000
G00 X3.2400 Y55.1300 
G01 Z-2.0000 F100.00 
G01 Z3.000000
(R3.0000  P1.000000)
G00 X51.5000 Y53.8600 
G01 Z-2.000000
G01 Z3.000000
G00 X36.2600 Y3.0600 
G01 Z-2.000000
G01 Z3.000000
M05
G00 Z20.4000 
G00 X0.0000 Y0.0000 
M06 T08  ; 3.3020 
G01 Z0.0000 F100.00 
M06 
G00 Z3.0000 
M03
G04 P3.000000
G00 Z3.000000
G00 X21.0000 Y49.3240 
G01 Z-2.0000 F100.00 
G01 Z3.000000
(R3.0000  P1.000000)
T01 
G00 Z12.0000 
M05
M02
