(.../pcb-gcode-3.6.2.4/pcb-gcode.ulp)
(Copyright 2005 - 2012 by John Johnson)
(See readme.txt for licensing terms.)
(This file generated from the board:)
(.../ELECTRONICS/e-garden/e-garden1/G1-6.brd)
(Current profile is .../pcb-gcode-3.6.2.4/profiles/generic.pp  )
(This file generated 1/14/17 2:59 PM)
(Settings from pcb-machine.h)
(spindle on time = 3.0000)
(  Tool Size)
(0.1000 )
(spindle speed = 30000.0000)
(tool change at 0.0000 0.0000 20.4000 )
(feed rate xy = F500.00 )
(feed rate z  = F500.00 )
(Z Axis Settings)
(  High     Up        Down     Drill)
(12.0000 	3.0000 	-0.1100 	-2.0000 )
(Settings from pcb-defaults.h)
(isolate min = 0.0254)
(isolate max = 0.5080)
(isolate step = 0.1270)
(Generated top outlines, top drill, )
(Unit of measure: mm)
(Metric Mode)
G21
(Absolute Coordinates)
G90
S30000
G00 Z12.0000 
G00 X0.0000 Y0.0000 
M03
G04 P3.000000
G00 Z3.0000 
G00 X0.6329 Y2.1816 
G01 Z-0.1100 F500.00 
G01 X0.6248 Y2.1938 F500.00 
G01 X0.6145 Y2.2042 
G01 X0.5900 Y2.2466 
G01 X0.5630 Y2.2875 
G01 X0.5584 Y2.3014 
G01 X0.5510 Y2.3140 
G01 X0.5384 Y2.3613 
G01 X0.5229 Y2.4078 
G01 X0.5220 Y2.4224 
G01 X0.5182 Y2.4366 
G01 X0.5182 Y2.4856 
G01 X0.5153 Y2.5345 
G01 X0.5182 Y2.5488 
G01 X0.5182 Y19.4845 
G01 X0.5151 Y19.5323 
G01 X0.5182 Y19.5477 
G01 X0.5182 Y19.5634 
G01 X0.5306 Y19.6097 
G01 X0.5400 Y19.6567 
G01 X0.5470 Y19.6708 
G01 X0.5510 Y19.6860 
G01 X0.5750 Y19.7274 
G01 X0.5962 Y19.7704 
G01 X0.6066 Y19.7822 
G01 X0.6145 Y19.7958 
G01 X0.6484 Y19.8297 
G01 X0.6800 Y19.8657 
G01 X0.6930 Y19.8744 
G01 X0.7042 Y19.8855 
G01 X0.7457 Y19.9095 
G01 X2.1930 Y20.8744 
G01 X2.2042 Y20.8855 
G01 X2.2457 Y20.9095 
G01 X2.2855 Y20.9361 
G01 X2.3004 Y20.9411 
G01 X2.3140 Y20.9490 
G01 X2.3603 Y20.9614 
G01 X2.4057 Y20.9767 
G01 X2.4214 Y20.9777 
G01 X2.4366 Y20.9818 
G01 X2.4845 Y20.9818 
G01 X2.5323 Y20.9849 
G01 X2.5477 Y20.9818 
G01 X4.7604 Y20.9818 
G01 X6.0100 Y22.2314 
G01 X5.9864 Y22.3500 
G01 X5.9864 Y22.5300 
G01 X6.0215 Y22.7065 
G01 X6.0904 Y22.8727 
G01 X6.1904 Y23.0224 
G01 X6.3176 Y23.1496 
G01 X6.4672 Y23.2496 
G01 X6.6335 Y23.3185 
G01 X6.8100 Y23.3536 
G01 X6.9900 Y23.3536 
G01 X7.1665 Y23.3185 
G01 X7.3327 Y23.2496 
G01 X7.4824 Y23.1496 
G01 X7.6096 Y23.0224 
G01 X7.6768 Y22.9218 
G01 X9.5234 Y22.9218 
G01 X9.6460 Y22.8890 
G01 X9.7558 Y22.8255 
G01 X11.0650 Y21.5164 
G01 X12.6291 Y23.0805 
G01 X12.6291 Y23.5195 
G01 X5.6304 Y30.5182 
G01 X4.0502 Y30.5182 
G01 X3.6184 Y30.0864 
G01 X2.8616 Y30.0864 
G01 X2.3264 Y30.6216 
G01 X2.3264 Y31.3784 
G01 X2.8616 Y31.9136 
G01 X3.6184 Y31.9136 
G01 X4.0403 Y31.4917 
G01 X8.0991 Y35.5505 
G01 X8.0991 Y36.6105 
G01 X8.1106 Y36.6382 
G01 X8.1318 Y36.6594 
G01 X8.1595 Y36.6709 
G01 X8.5182 Y36.6709 
G01 X8.5182 Y37.7291 
G01 X8.1595 Y37.7291 
G01 X8.1318 Y37.7406 
G01 X8.1106 Y37.7618 
G01 X8.0991 Y37.7895 
G01 X8.0991 Y39.4705 
G01 X8.1106 Y39.4982 
G01 X8.1318 Y39.5194 
G01 X8.1595 Y39.5309 
G01 X9.8405 Y39.5309 
G01 X9.8682 Y39.5194 
G01 X9.8894 Y39.4982 
G01 X9.9009 Y39.4705 
G01 X9.9009 Y37.7895 
G01 X9.8894 Y37.7618 
G01 X9.8682 Y37.7406 
G01 X9.8405 Y37.7291 
G01 X9.4818 Y37.7291 
G01 X9.4818 Y36.6709 
G01 X9.8405 Y36.6709 
G01 X9.8682 Y36.6594 
G01 X9.8894 Y36.6382 
G01 X9.9009 Y36.6105 
G01 X9.9009 Y36.2818 
G01 X14.2010 Y36.2818 
G01 X14.3114 Y36.4472 
G01 X14.4528 Y36.5886 
G01 X14.6191 Y36.6997 
G01 X14.7182 Y36.7407 
G01 X14.7182 Y37.7010 
G01 X14.5528 Y37.8114 
G01 X14.4114 Y37.9528 
G01 X14.3003 Y38.1191 
G01 X14.2238 Y38.3039 
G01 X14.1848 Y38.5000 
G01 X14.1848 Y38.7000 
G01 X14.2238 Y38.8961 
G01 X14.3003 Y39.0809 
G01 X14.4114 Y39.2471 
G01 X14.5528 Y39.3886 
G01 X14.7191 Y39.4997 
G01 X14.9039 Y39.5762 
G01 X15.1000 Y39.6152 
G01 X15.3000 Y39.6152 
G01 X15.4961 Y39.5762 
G01 X15.6809 Y39.4997 
G01 X15.8471 Y39.3886 
G01 X15.9886 Y39.2471 
G01 X16.0997 Y39.0809 
G01 X16.1762 Y38.8961 
G01 X16.2152 Y38.7000 
G01 X16.2152 Y38.5000 
G01 X16.1762 Y38.3039 
G01 X16.0997 Y38.1191 
G01 X15.9886 Y37.9528 
G01 X15.8471 Y37.8114 
G01 X15.6818 Y37.7010 
G01 X15.6818 Y36.6322 
G01 X15.7471 Y36.5886 
G01 X15.8886 Y36.4472 
G01 X15.9997 Y36.2809 
G01 X16.0407 Y36.1818 
G01 X16.7559 Y36.1818 
G01 X17.6959 Y37.4637 
G01 X17.7145 Y37.4958 
G01 X17.7333 Y37.5146 
G01 X17.7490 Y37.5361 
G01 X17.7779 Y37.5593 
G01 X17.8042 Y37.5855 
G01 X17.8272 Y37.5988 
G01 X17.8479 Y37.6155 
G01 X17.8819 Y37.6304 
G01 X17.9140 Y37.6490 
G01 X17.9397 Y37.6558 
G01 X17.9640 Y37.6666 
G01 X18.0007 Y37.6722 
G01 X18.0366 Y37.6818 
G01 X18.0631 Y37.6818 
G01 X18.0894 Y37.6858 
G01 X18.1263 Y37.6818 
G01 X27.7478 Y37.6818 
G01 X27.7588 Y37.6842 
G01 X27.8111 Y37.6818 
G01 X27.8634 Y37.6818 
G01 X27.8743 Y37.6789 
G01 X27.8856 Y37.6784 
G01 X27.9354 Y37.6625 
G01 X27.9860 Y37.6490 
G01 X27.9957 Y37.6433 
G01 X28.0065 Y37.6399 
G01 X28.0505 Y37.6117 
G01 X28.0958 Y37.5855 
G01 X28.1038 Y37.5776 
G01 X28.1133 Y37.5715 
G01 X28.1485 Y37.5328 
G01 X28.1855 Y37.4958 
G01 X28.1912 Y37.4861 
G01 X34.2127 Y30.8818 
G01 X35.2634 Y30.8818 
G01 X35.3860 Y30.8490 
G01 X35.4958 Y30.7855 
G01 X35.5855 Y30.6958 
G01 X40.8455 Y25.4358 
G01 X40.9090 Y25.3260 
G01 X40.9418 Y25.2034 
G01 X40.9418 Y22.7768 
G01 X41.0424 Y22.7096 
G01 X41.1696 Y22.5824 
G01 X41.2696 Y22.4327 
G01 X41.3385 Y22.2665 
G01 X41.3736 Y22.0900 
G01 X41.3736 Y21.9100 
G01 X41.3385 Y21.7335 
G01 X41.2696 Y21.5672 
G01 X41.1696 Y21.4176 
G01 X41.0424 Y21.2904 
G01 X40.8927 Y21.1904 
G01 X40.7265 Y21.1215 
G01 X40.5500 Y21.0864 
G01 X40.3700 Y21.0864 
G01 X40.1935 Y21.1215 
G01 X40.0272 Y21.1904 
G01 X39.8776 Y21.2904 
G01 X39.7504 Y21.4176 
G01 X39.6832 Y21.5182 
G01 X34.3996 Y21.5182 
G01 X33.4818 Y20.6004 
G01 X33.4818 Y17.9996 
G01 X34.4996 Y16.9818 
G01 X39.6831 Y16.9818 
G01 X39.7504 Y17.0824 
G01 X39.8776 Y17.2096 
G01 X40.0272 Y17.3096 
G01 X40.1935 Y17.3785 
G01 X40.3700 Y17.4136 
G01 X40.5500 Y17.4136 
G01 X40.7265 Y17.3785 
G01 X40.8927 Y17.3096 
G01 X41.0424 Y17.2096 
G01 X41.1696 Y17.0824 
G01 X41.2696 Y16.9327 
G01 X41.3385 Y16.7665 
G01 X41.3736 Y16.5900 
G01 X41.3736 Y16.4100 
G01 X41.3385 Y16.2335 
G01 X41.2696 Y16.0672 
G01 X41.1696 Y15.9176 
G01 X41.0424 Y15.7904 
G01 X40.8927 Y15.6904 
G01 X40.7265 Y15.6215 
G01 X40.5500 Y15.5864 
G01 X40.3700 Y15.5864 
G01 X40.1935 Y15.6215 
G01 X40.0272 Y15.6904 
G01 X39.8776 Y15.7904 
G01 X39.7504 Y15.9176 
G01 X39.6831 Y16.0182 
G01 X34.2366 Y16.0182 
G01 X34.1140 Y16.0510 
G01 X34.0042 Y16.1145 
G01 X33.9145 Y16.2042 
G01 X32.6145 Y17.5042 
G01 X32.5510 Y17.6140 
G01 X32.5182 Y17.7366 
G01 X32.5182 Y20.8634 
G01 X32.5510 Y20.9860 
G01 X32.6145 Y21.0958 
G01 X32.7042 Y21.1855 
G01 X33.9042 Y22.3855 
G01 X34.0140 Y22.4490 
G01 X34.1366 Y22.4818 
G01 X39.6832 Y22.4818 
G01 X39.7504 Y22.5824 
G01 X39.8776 Y22.7096 
G01 X39.9782 Y22.7768 
G01 X39.9782 Y24.9404 
G01 X35.0004 Y29.9182 
G01 X34.0522 Y29.9182 
G01 X34.0412 Y29.9158 
G01 X33.9889 Y29.9182 
G01 X33.9366 Y29.9182 
G01 X33.9257 Y29.9211 
G01 X33.9144 Y29.9216 
G01 X33.8646 Y29.9375 
G01 X33.8140 Y29.9510 
G01 X33.8043 Y29.9567 
G01 X33.7935 Y29.9601 
G01 X33.7495 Y29.9883 
G01 X33.7042 Y30.0145 
G01 X33.6962 Y30.0224 
G01 X33.6867 Y30.0285 
G01 X33.6515 Y30.0672 
G01 X33.6145 Y30.1042 
G01 X33.6088 Y30.1139 
G01 X27.5873 Y36.7182 
G01 X18.3441 Y36.7182 
G01 X17.4041 Y35.4363 
G01 X17.3855 Y35.4042 
G01 X17.3667 Y35.3854 
G01 X17.3510 Y35.3639 
G01 X17.3221 Y35.3407 
G01 X17.2958 Y35.3145 
G01 X17.2728 Y35.3012 
G01 X17.2521 Y35.2845 
G01 X17.2181 Y35.2696 
G01 X17.1860 Y35.2510 
G01 X17.1603 Y35.2442 
G01 X17.1360 Y35.2334 
G01 X17.0993 Y35.2278 
G01 X17.0634 Y35.2182 
G01 X17.0369 Y35.2182 
G01 X17.0106 Y35.2142 
G01 X16.9737 Y35.2182 
G01 X15.9322 Y35.2182 
G01 X15.8886 Y35.1528 
G01 X15.7471 Y35.0114 
G01 X15.5809 Y34.9003 
G01 X15.3961 Y34.8238 
G01 X15.2000 Y34.7848 
G01 X15.0000 Y34.7848 
G01 X14.8039 Y34.8238 
G01 X14.6191 Y34.9003 
G01 X14.4528 Y35.0114 
G01 X14.3114 Y35.1528 
G01 X14.2010 Y35.3182 
G01 X9.9009 Y35.3182 
G01 X9.9009 Y34.9295 
G01 X9.8894 Y34.9018 
G01 X9.8682 Y34.8806 
G01 X9.8405 Y34.8691 
G01 X8.7805 Y34.8691 
G01 X5.3932 Y31.4818 
G01 X5.8934 Y31.4818 
G01 X6.0160 Y31.4490 
G01 X6.1258 Y31.3855 
G01 X13.3105 Y24.2009 
G01 X14.3705 Y24.2009 
G01 X14.3982 Y24.1894 
G01 X14.4194 Y24.1682 
G01 X14.4309 Y24.1405 
G01 X14.4309 Y22.4595 
G01 X14.4194 Y22.4318 
G01 X14.3982 Y22.4106 
G01 X14.3705 Y22.3991 
G01 X13.3105 Y22.3991 
G01 X11.4505 Y20.5392 
G01 X11.3818 Y20.4704 
G01 X11.3818 Y19.3990 
G01 X11.5472 Y19.2886 
G01 X11.6886 Y19.1471 
G01 X11.7997 Y18.9809 
G01 X11.8762 Y18.7961 
G01 X11.9152 Y18.6000 
G01 X11.9152 Y18.4000 
G01 X11.8762 Y18.2039 
G01 X11.7997 Y18.0191 
G01 X11.6886 Y17.8528 
G01 X11.5472 Y17.7114 
G01 X11.3809 Y17.6003 
G01 X11.1961 Y17.5238 
G01 X11.0000 Y17.4848 
G01 X10.8000 Y17.4848 
G01 X10.6039 Y17.5238 
G01 X10.4191 Y17.6003 
G01 X10.2528 Y17.7114 
G01 X10.1114 Y17.8528 
G01 X10.0003 Y18.0191 
G01 X9.9238 Y18.2039 
G01 X9.8848 Y18.4000 
G01 X9.8848 Y18.6000 
G01 X9.9238 Y18.7961 
G01 X10.0003 Y18.9809 
G01 X10.1114 Y19.1471 
G01 X10.2528 Y19.2886 
G01 X10.4182 Y19.3990 
G01 X10.4182 Y20.7334 
G01 X10.4324 Y20.7863 
G01 X9.2604 Y21.9582 
G01 X7.6768 Y21.9582 
G01 X7.6096 Y21.8576 
G01 X7.4824 Y21.7304 
G01 X7.3327 Y21.6304 
G01 X7.1665 Y21.5615 
G01 X6.9900 Y21.5264 
G01 X6.8100 Y21.5264 
G01 X6.6914 Y21.5500 
G01 X5.2558 Y20.1145 
G01 X5.1460 Y20.0510 
G01 X5.0234 Y20.0182 
G01 X2.6459 Y20.0182 
G01 X1.4818 Y19.2421 
G01 X1.4818 Y2.7978 
G01 X2.1137 Y2.4818 
G01 X16.3004 Y2.4818 
G01 X17.0182 Y3.1996 
G01 X17.0182 Y4.6010 
G01 X16.8528 Y4.7114 
G01 X16.7114 Y4.8528 
G01 X16.6003 Y5.0191 
G01 X16.5238 Y5.2039 
G01 X16.4848 Y5.4000 
G01 X16.4848 Y5.6000 
G01 X16.5238 Y5.7961 
G01 X16.6003 Y5.9809 
G01 X16.7114 Y6.1471 
G01 X16.8528 Y6.2886 
G01 X17.0191 Y6.3997 
G01 X17.2039 Y6.4762 
G01 X17.4000 Y6.5152 
G01 X17.6000 Y6.5152 
G01 X17.7961 Y6.4762 
G01 X17.9809 Y6.3997 
G01 X18.1471 Y6.2886 
G01 X18.2886 Y6.1471 
G01 X18.3990 Y5.9818 
G01 X18.8004 Y5.9818 
G01 X20.6682 Y7.8496 
G01 X20.6682 Y8.6179 
G01 X20.1856 Y9.1005 
G01 X20.1856 Y9.8995 
G01 X20.7505 Y10.4644 
G01 X21.5495 Y10.4644 
G01 X22.1144 Y9.8995 
G01 X22.1144 Y9.1005 
G01 X21.6318 Y8.6179 
G01 X21.6318 Y7.5866 
G01 X21.5990 Y7.4640 
G01 X21.5355 Y7.3542 
G01 X21.4458 Y7.2645 
G01 X19.2958 Y5.1145 
G01 X19.1860 Y5.0510 
G01 X19.0634 Y5.0182 
G01 X18.3990 Y5.0182 
G01 X18.2886 Y4.8528 
G01 X18.1471 Y4.7114 
G01 X17.9818 Y4.6010 
G01 X17.9818 Y2.9366 
G01 X17.9490 Y2.8140 
G01 X17.8855 Y2.7042 
G01 X16.8855 Y1.7042 
G01 X16.7958 Y1.6145 
G01 X16.6860 Y1.5510 
G01 X16.5634 Y1.5182 
G01 X2.0144 Y1.5182 
G01 X1.9655 Y1.5153 
G01 X1.9512 Y1.5182 
G01 X1.9366 Y1.5182 
G01 X1.8892 Y1.5309 
G01 X1.8413 Y1.5407 
G01 X1.8282 Y1.5472 
G01 X1.8140 Y1.5510 
G01 X1.7716 Y1.5755 
G01 X0.8282 Y2.0472 
G01 X0.8140 Y2.0510 
G01 X0.7716 Y2.0755 
G01 X0.7278 Y2.0974 
G01 X0.7168 Y2.1071 
G01 X0.7042 Y2.1145 
G01 X0.6695 Y2.1491 
G01 X0.6329 Y2.1816 
G00 Z3.0000 
G00 X1.6238 Y2.8066 
G01 Z-0.1100 F500.00 
G01 X1.6193 Y2.8135 F500.00 
G01 X1.6134 Y2.8193 
G01 X1.5991 Y2.8440 
G01 X1.5834 Y2.8678 
G01 X1.5808 Y2.8756 
G01 X1.5767 Y2.8828 
G01 X1.5692 Y2.9103 
G01 X1.5602 Y2.9374 
G01 X1.5597 Y2.9456 
G01 X1.5576 Y2.9536 
G01 X1.5575 Y2.9821 
G01 X1.5558 Y3.0106 
G01 X1.5575 Y3.0187 
G01 X1.5343 Y18.8903 
G01 X1.5342 Y18.9271 
G01 X1.5341 Y18.9634 
G01 X1.5342 Y19.0560 
G01 X1.5324 Y19.0837 
G01 X1.5342 Y19.0926 
G01 X1.5342 Y19.1017 
G01 X1.5414 Y19.1284 
G01 X1.5468 Y19.1556 
G01 X1.5508 Y19.1638 
G01 X1.5532 Y19.1725 
G01 X1.5670 Y19.1965 
G01 X1.5793 Y19.2214 
G01 X1.5853 Y19.2282 
G01 X1.5899 Y19.2361 
G01 X1.6095 Y19.2557 
G01 X1.6277 Y19.2765 
G01 X1.6353 Y19.2815 
G01 X1.6417 Y19.2879 
G01 X1.6657 Y19.3018 
G01 X2.5686 Y19.9037 
G01 X2.5750 Y19.9101 
G01 X2.5990 Y19.9240 
G01 X2.6221 Y19.9394 
G01 X2.6307 Y19.9423 
G01 X2.6386 Y19.9468 
G01 X2.6653 Y19.9540 
G01 X2.6916 Y19.9629 
G01 X2.7006 Y19.9634 
G01 X2.7094 Y19.9658 
G01 X2.7371 Y19.9658 
G01 X2.7648 Y19.9676 
G01 X2.7737 Y19.9658 
G01 X5.0663 Y19.9658 
G01 X5.2626 Y20.0471 
G01 X5.4325 Y20.2170 
G01 X5.4843 Y20.2689 
G01 X5.5479 Y20.3055 
G01 X5.6005 Y20.3197 
G01 X5.6187 Y20.3245 
G01 X5.6921 Y20.3245 
G01 X5.7629 Y20.3055 
G01 X5.8265 Y20.2689 
G01 X5.8783 Y20.2170 
G01 X5.9150 Y20.1535 
G01 X5.9291 Y20.1008 
G01 X5.9340 Y20.0826 
G01 X5.9340 Y19.7682 
G01 X5.9150 Y19.6973 
G01 X5.8783 Y19.6338 
G01 X5.8265 Y19.5819 
G01 X5.1863 Y18.9417 
G01 X5.1344 Y18.8899 
G01 X5.0709 Y18.8532 
G01 X5.0000 Y18.8342 
G01 X4.1506 Y18.8342 
G01 X4.0798 Y18.8532 
G01 X4.0163 Y18.8899 
G01 X3.6401 Y19.2660 
G01 X2.8399 Y19.2660 
G01 X2.2740 Y18.7001 
G01 X2.2740 Y17.8999 
G01 X2.8399 Y17.3340 
G01 X3.6401 Y17.3340 
G01 X3.9644 Y17.6583 
G01 X4.0163 Y17.7101 
G01 X4.0798 Y17.7468 
G01 X4.1506 Y17.7658 
G01 X5.4063 Y17.7658 
G01 X5.4818 Y17.7971 
G01 X5.4848 Y17.7993 
G01 X5.5157 Y17.8111 
G01 X5.5462 Y17.8238 
G01 X5.5499 Y17.8242 
G01 X5.5533 Y17.8256 
G01 X5.5862 Y17.8290 
G01 X5.6189 Y17.8333 
G01 X5.6226 Y17.8329 
G01 X5.6263 Y17.8332 
G01 X5.6588 Y17.8281 
G01 X5.6916 Y17.8238 
G01 X5.6951 Y17.8223 
G01 X5.6987 Y17.8218 
G01 X5.7289 Y17.8083 
G01 X5.7594 Y17.7957 
G01 X5.7623 Y17.7934 
G01 X5.7657 Y17.7919 
G01 X5.7914 Y17.7711 
G01 X5.8176 Y17.7510 
G01 X5.8199 Y17.7481 
G01 X5.8227 Y17.7458 
G01 X5.8422 Y17.7190 
G01 X5.8623 Y17.6928 
G01 X5.8637 Y17.6894 
G01 X6.0476 Y17.6894 
G01 X6.0904 Y17.7928 
G01 X6.1904 Y17.9424 
G01 X6.3176 Y18.0696 
G01 X6.4672 Y18.1696 
G01 X6.5706 Y18.2124 
G01 X6.5706 Y18.5040 
G01 X6.5453 Y18.5479 
G01 X6.5263 Y18.6187 
G01 X6.5263 Y18.6921 
G01 X6.5453 Y18.7629 
G01 X6.5819 Y18.8265 
G01 X6.6338 Y18.8783 
G01 X6.6973 Y18.9150 
G01 X6.7682 Y18.9340 
G01 X6.9874 Y18.9340 
G01 X7.0093 Y18.9363 
G01 X7.0238 Y18.9340 
G01 X7.0922 Y18.9340 
G01 X7.4472 Y19.0811 
G01 X7.7189 Y19.3528 
G01 X7.8660 Y19.7078 
G01 X7.8660 Y20.0922 
G01 X7.7189 Y20.4472 
G01 X7.4472 Y20.7189 
G01 X7.0922 Y20.8660 
G01 X6.7174 Y20.8660 
G01 X6.6465 Y20.8850 
G01 X6.5830 Y20.9217 
G01 X6.5311 Y20.9735 
G01 X6.4944 Y21.0371 
G01 X6.4755 Y21.1079 
G01 X6.4755 Y21.1813 
G01 X6.4944 Y21.2521 
G01 X6.5311 Y21.3157 
G01 X6.5819 Y21.3665 
G01 X6.6338 Y21.4183 
G01 X6.6973 Y21.4550 
G01 X6.7682 Y21.4740 
G01 X7.0922 Y21.4740 
G01 X7.4472 Y21.6211 
G01 X7.6244 Y21.7983 
G01 X7.6763 Y21.8501 
G01 X7.7398 Y21.8868 
G01 X7.8106 Y21.9058 
G01 X9.1600 Y21.9058 
G01 X9.2309 Y21.8868 
G01 X9.2944 Y21.8501 
G01 X10.2583 Y20.8863 
G01 X10.3101 Y20.8344 
G01 X10.3468 Y20.7709 
G01 X10.3658 Y20.7000 
G01 X10.3658 Y19.5543 
G01 X10.3468 Y19.4835 
G01 X10.3101 Y19.4199 
G01 X9.9949 Y19.1047 
G01 X9.8324 Y18.7124 
G01 X9.8324 Y18.2876 
G01 X9.9949 Y17.8953 
G01 X10.2953 Y17.5949 
G01 X10.6876 Y17.4324 
G01 X11.1124 Y17.4324 
G01 X11.5047 Y17.5949 
G01 X11.8051 Y17.8953 
G01 X11.9266 Y18.1888 
G01 X11.9713 Y18.2470 
G01 X12.0295 Y18.2916 
G01 X12.0973 Y18.3197 
G01 X12.1700 Y18.3293 
G01 X12.2427 Y18.3197 
G01 X12.3105 Y18.2916 
G01 X12.3687 Y18.2470 
G01 X12.4133 Y18.1888 
G01 X12.4414 Y18.1210 
G01 X12.5349 Y17.8953 
G01 X12.8447 Y17.5854 
G01 X12.8583 Y17.5776 
G01 X12.8713 Y17.5646 
G01 X12.8859 Y17.5534 
G01 X12.8971 Y17.5388 
G01 X12.9101 Y17.5258 
G01 X12.9193 Y17.5098 
G01 X12.9306 Y17.4952 
G01 X12.9376 Y17.4782 
G01 X12.9468 Y17.4622 
G01 X12.9516 Y17.4444 
G01 X12.9586 Y17.4274 
G01 X12.9610 Y17.4092 
G01 X12.9658 Y17.3914 
G01 X12.9658 Y17.3730 
G01 X12.9682 Y17.3547 
G01 X12.9658 Y17.3364 
G01 X12.9658 Y16.6000 
G01 X12.9468 Y16.5291 
G01 X12.9101 Y16.4656 
G01 X12.8463 Y16.4017 
G01 X12.7944 Y16.3499 
G01 X12.7309 Y16.3132 
G01 X12.6600 Y16.2942 
G01 X7.9512 Y16.2942 
G01 X7.9366 Y16.2919 
G01 X7.9146 Y16.2942 
G01 X7.8926 Y16.2942 
G01 X7.8783 Y16.2980 
G01 X7.8636 Y16.2996 
G01 X7.8431 Y16.3075 
G01 X7.8217 Y16.3132 
G01 X7.8089 Y16.3206 
G01 X7.7952 Y16.3258 
G01 X7.7773 Y16.3388 
G01 X7.7582 Y16.3499 
G01 X7.7478 Y16.3603 
G01 X7.7358 Y16.3690 
G01 X7.7219 Y16.3861 
G01 X7.7063 Y16.4017 
G01 X7.6989 Y16.4145 
G01 X7.6897 Y16.4260 
G01 X7.6807 Y16.4461 
G01 X7.6696 Y16.4653 
G01 X7.6658 Y16.4795 
G01 X7.6598 Y16.4930 
G01 X7.6564 Y16.5148 
G01 X7.6507 Y16.5361 
G01 X7.6507 Y16.5509 
G01 X7.6483 Y16.5654 
G01 X7.6507 Y16.5874 
G01 X7.6507 Y16.6095 
G01 X7.6545 Y16.6237 
G01 X7.6560 Y16.6384 
G01 X7.6639 Y16.6590 
G01 X7.6696 Y16.6803 
G01 X7.6770 Y16.6931 
G01 X7.6823 Y16.7069 
G01 X7.6953 Y16.7247 
G01 X7.7063 Y16.7439 
G01 X7.7168 Y16.7543 
G01 X7.7696 Y16.8271 
G01 X7.8423 Y16.9697 
G01 X7.8621 Y17.0306 
G01 X7.7524 Y17.0306 
G01 X7.7096 Y16.9272 
G01 X7.6096 Y16.7776 
G01 X7.4824 Y16.6504 
G01 X7.3327 Y16.5504 
G01 X7.1665 Y16.4815 
G01 X6.9900 Y16.4464 
G01 X6.8100 Y16.4464 
G01 X6.6335 Y16.4815 
G01 X6.4672 Y16.5504 
G01 X6.3176 Y16.6504 
G01 X6.1904 Y16.7776 
G01 X6.0904 Y16.9272 
G01 X6.0476 Y17.0306 
G01 X5.9379 Y17.0306 
G01 X5.9577 Y16.9697 
G01 X6.0304 Y16.8271 
G01 X6.0832 Y16.7543 
G01 X6.0937 Y16.7439 
G01 X6.1047 Y16.7247 
G01 X6.1177 Y16.7069 
G01 X6.1230 Y16.6931 
G01 X6.1303 Y16.6803 
G01 X6.1361 Y16.6590 
G01 X6.1440 Y16.6384 
G01 X6.1455 Y16.6237 
G01 X6.1493 Y16.6095 
G01 X6.1493 Y16.5874 
G01 X6.1516 Y16.5654 
G01 X6.1493 Y16.5509 
G01 X6.1493 Y16.5361 
G01 X6.1436 Y16.5148 
G01 X6.1402 Y16.4930 
G01 X6.1342 Y16.4795 
G01 X6.1303 Y16.4653 
G01 X6.1193 Y16.4461 
G01 X6.1103 Y16.4260 
G01 X6.1011 Y16.4145 
G01 X6.0937 Y16.4017 
G01 X6.0781 Y16.3861 
G01 X6.0642 Y16.3690 
G01 X6.0522 Y16.3603 
G01 X6.0418 Y16.3499 
G01 X6.0227 Y16.3388 
G01 X6.0048 Y16.3258 
G01 X5.9911 Y16.3206 
G01 X5.9783 Y16.3132 
G01 X5.9569 Y16.3075 
G01 X5.9363 Y16.2996 
G01 X5.9217 Y16.2980 
G01 X5.9074 Y16.2942 
G01 X5.8853 Y16.2942 
G01 X5.8634 Y16.2919 
G01 X5.8488 Y16.2942 
G01 X4.1506 Y16.2942 
G01 X4.0798 Y16.3132 
G01 X4.0163 Y16.3499 
G01 X3.6401 Y16.7260 
G01 X2.8399 Y16.7260 
G01 X2.2740 Y16.1601 
G01 X2.2740 Y15.3599 
G01 X2.8399 Y14.7940 
G01 X3.6401 Y14.7940 
G01 X3.9644 Y15.1183 
G01 X4.0163 Y15.1701 
G01 X4.0798 Y15.2068 
G01 X4.1506 Y15.2258 
G01 X13.0663 Y15.2258 
G01 X13.2626 Y15.3071 
G01 X13.7375 Y15.7820 
G01 X13.9529 Y15.9974 
G01 X14.0342 Y16.1937 
G01 X14.0342 Y17.5057 
G01 X14.0532 Y17.5765 
G01 X14.0899 Y17.6400 
G01 X14.3451 Y17.8953 
G01 X14.4666 Y18.1888 
G01 X14.5113 Y18.2470 
G01 X14.5695 Y18.2916 
G01 X14.6373 Y18.3197 
G01 X14.7100 Y18.3293 
G01 X14.7827 Y18.3197 
G01 X14.8505 Y18.2916 
G01 X14.9087 Y18.2470 
G01 X14.9534 Y18.1888 
G01 X14.9814 Y18.1210 
G01 X15.0749 Y17.8953 
G01 X15.3753 Y17.5949 
G01 X15.7676 Y17.4324 
G01 X16.1924 Y17.4324 
G01 X16.5847 Y17.5949 
G01 X16.8851 Y17.8953 
G01 X16.9536 Y18.0607 
G01 X16.9559 Y18.0716 
G01 X16.9676 Y18.0945 
G01 X16.9774 Y18.1183 
G01 X16.9842 Y18.1271 
G01 X16.9892 Y18.1369 
G01 X17.0064 Y18.1560 
G01 X17.0221 Y18.1765 
G01 X17.0309 Y18.1832 
G01 X17.0383 Y18.1914 
G01 X17.0599 Y18.2055 
G01 X17.0803 Y18.2211 
G01 X17.0905 Y18.2254 
G01 X17.0998 Y18.2314 
G01 X17.1243 Y18.2393 
G01 X17.1481 Y18.2492 
G01 X17.1591 Y18.2506 
G01 X17.1696 Y18.2541 
G01 X17.1953 Y18.2554 
G01 X17.2208 Y18.2588 
G01 X17.2318 Y18.2573 
G01 X17.2429 Y18.2579 
G01 X17.2680 Y18.2525 
G01 X17.2935 Y18.2492 
G01 X17.3038 Y18.2449 
G01 X17.3146 Y18.2426 
G01 X17.3375 Y18.2310 
G01 X17.3613 Y18.2211 
G01 X17.3701 Y18.2144 
G01 X17.3800 Y18.2093 
G01 X17.3991 Y18.1921 
G01 X17.4195 Y18.1765 
G01 X17.4262 Y18.1677 
G01 X17.4345 Y18.1602 
G01 X17.4485 Y18.1387 
G01 X17.4641 Y18.1183 
G01 X17.4684 Y18.1080 
G01 X17.4744 Y18.0987 
G01 X17.4824 Y18.0743 
G01 X17.4853 Y18.0673 
G01 X17.5635 Y17.9138 
G01 X17.6669 Y17.7714 
G01 X17.7914 Y17.6469 
G01 X17.9338 Y17.5435 
G01 X18.0907 Y17.4635 
G01 X18.1906 Y17.4311 
G01 X18.1906 Y17.5376 
G01 X18.0391 Y17.6003 
G01 X17.8728 Y17.7114 
G01 X17.7314 Y17.8528 
G01 X17.6203 Y18.0191 
G01 X17.5438 Y18.2039 
G01 X17.5048 Y18.4000 
G01 X17.5048 Y18.6000 
G01 X17.5438 Y18.7961 
G01 X17.6203 Y18.9809 
G01 X17.7314 Y19.1471 
G01 X17.8728 Y19.2886 
G01 X18.0391 Y19.3997 
G01 X18.1906 Y19.4624 
G01 X18.1906 Y19.5689 
G01 X18.0907 Y19.5365 
G01 X17.9338 Y19.4565 
G01 X17.7914 Y19.3531 
G01 X17.6669 Y19.2286 
G01 X17.5635 Y19.0862 
G01 X17.4853 Y18.9327 
G01 X17.4824 Y18.9257 
G01 X17.4744 Y18.9013 
G01 X17.4684 Y18.8920 
G01 X17.4641 Y18.8817 
G01 X17.4485 Y18.8613 
G01 X17.4345 Y18.8397 
G01 X17.4262 Y18.8323 
G01 X17.4195 Y18.8235 
G01 X17.3991 Y18.8079 
G01 X17.3800 Y18.7907 
G01 X17.3701 Y18.7856 
G01 X17.3613 Y18.7789 
G01 X17.3375 Y18.7690 
G01 X17.3146 Y18.7574 
G01 X17.3038 Y18.7550 
G01 X17.2935 Y18.7508 
G01 X17.2680 Y18.7475 
G01 X17.2429 Y18.7421 
G01 X17.2318 Y18.7427 
G01 X17.2208 Y18.7412 
G01 X17.1953 Y18.7446 
G01 X17.1696 Y18.7459 
G01 X17.1591 Y18.7494 
G01 X17.1481 Y18.7508 
G01 X17.1243 Y18.7606 
G01 X17.0998 Y18.7686 
G01 X17.0905 Y18.7746 
G01 X17.0803 Y18.7789 
G01 X17.0599 Y18.7945 
G01 X17.0383 Y18.8085 
G01 X17.0309 Y18.8168 
G01 X17.0221 Y18.8235 
G01 X17.0064 Y18.8440 
G01 X16.9892 Y18.8631 
G01 X16.9842 Y18.8729 
G01 X16.9774 Y18.8817 
G01 X16.9676 Y18.9055 
G01 X16.9559 Y18.9284 
G01 X16.9536 Y18.9393 
G01 X16.8851 Y19.1047 
G01 X16.6217 Y19.3681 
G01 X16.5699 Y19.4199 
G01 X16.5332 Y19.4835 
G01 X16.5142 Y19.5543 
G01 X16.5142 Y22.3173 
G01 X16.5332 Y22.3882 
G01 X16.5699 Y22.4517 
G01 X16.8782 Y22.7600 
G01 X17.0233 Y23.1104 
G01 X17.0233 Y23.4896 
G01 X16.8782 Y23.8400 
G01 X16.6100 Y24.1082 
G01 X16.2596 Y24.2533 
G01 X15.9509 Y24.2533 
G01 X15.8800 Y24.2723 
G01 X15.8165 Y24.3090 
G01 X15.7317 Y24.3937 
G01 X15.6799 Y24.4456 
G01 X15.6432 Y24.5091 
G01 X15.6242 Y24.5800 
G01 X15.6242 Y25.7457 
G01 X15.6432 Y25.8165 
G01 X15.6799 Y25.8800 
G01 X15.9951 Y26.1953 
G01 X16.1576 Y26.5876 
G01 X16.1576 Y27.0124 
G01 X15.9951 Y27.4047 
G01 X15.6947 Y27.7051 
G01 X15.3024 Y27.8676 
G01 X14.8776 Y27.8676 
G01 X14.4853 Y27.7051 
G01 X14.1849 Y27.4047 
G01 X14.0224 Y27.0124 
G01 X14.0224 Y26.5876 
G01 X14.1849 Y26.1953 
G01 X14.4483 Y25.9319 
G01 X14.5001 Y25.8800 
G01 X14.5368 Y25.8165 
G01 X14.5558 Y25.7457 
G01 X14.5558 Y24.4952 
G01 X14.5368 Y24.4244 
G01 X14.5001 Y24.3608 
G01 X14.4483 Y24.3090 
G01 X14.3847 Y24.2723 
G01 X14.3139 Y24.2533 
G01 X13.4109 Y24.2533 
G01 X13.3400 Y24.2723 
G01 X13.2773 Y24.3085 
G01 X6.1326 Y31.4529 
G01 X6.0438 Y31.4897 
G01 X6.0260 Y31.4944 
G01 X6.0100 Y31.5036 
G01 X5.9930 Y31.5107 
G01 X5.9784 Y31.5219 
G01 X5.9624 Y31.5311 
G01 X5.9494 Y31.5441 
G01 X5.9348 Y31.5553 
G01 X5.9236 Y31.5699 
G01 X5.9106 Y31.5830 
G01 X5.9014 Y31.5989 
G01 X5.8902 Y31.6135 
G01 X5.8831 Y31.6305 
G01 X5.8739 Y31.6465 
G01 X5.8691 Y31.6643 
G01 X5.8621 Y31.6813 
G01 X5.8597 Y31.6996 
G01 X5.8549 Y31.7174 
G01 X5.8549 Y31.7358 
G01 X5.8525 Y31.7540 
G01 X5.8549 Y31.7723 
G01 X5.8549 Y31.7907 
G01 X5.8597 Y31.8085 
G01 X5.8621 Y31.8268 
G01 X5.8691 Y31.8438 
G01 X5.8739 Y31.8616 
G01 X5.8831 Y31.8775 
G01 X5.8902 Y31.8945 
G01 X5.9014 Y31.9091 
G01 X5.9106 Y31.9251 
G01 X5.9236 Y31.9381 
G01 X5.9348 Y31.9527 
G01 X5.9494 Y31.9639 
G01 X7.5452 Y33.5597 
G01 X7.5970 Y33.6116 
G01 X7.6606 Y33.6482 
G01 X7.7314 Y33.6672 
G01 X7.8048 Y33.6672 
G01 X7.8756 Y33.6482 
G01 X7.9392 Y33.6116 
G01 X7.9910 Y33.5597 
G01 X8.0277 Y33.4962 
G01 X8.0467 Y33.4253 
G01 X8.0467 Y33.0404 
G01 X8.1918 Y32.6900 
G01 X8.3583 Y32.5236 
G01 X8.4101 Y32.4717 
G01 X8.4468 Y32.4082 
G01 X8.4658 Y32.3373 
G01 X8.4658 Y31.3937 
G01 X8.5471 Y31.1974 
G01 X8.7106 Y31.0339 
G01 X9.5974 Y30.1471 
G01 X9.7937 Y30.0658 
G01 X14.0357 Y30.0658 
G01 X14.1065 Y30.0468 
G01 X14.1700 Y30.0101 
G01 X14.4853 Y29.6949 
G01 X14.8776 Y29.5324 
G01 X15.3024 Y29.5324 
G01 X15.6947 Y29.6949 
G01 X15.9951 Y29.9953 
G01 X16.1576 Y30.3876 
G01 X16.1576 Y30.8124 
G01 X15.9951 Y31.2047 
G01 X15.6947 Y31.5051 
G01 X15.2836 Y31.6754 
G01 X15.2614 Y31.6846 
G01 X15.2032 Y31.7292 
G01 X15.1585 Y31.7874 
G01 X15.1304 Y31.8552 
G01 X15.1209 Y31.9279 
G01 X15.1304 Y32.0007 
G01 X15.1585 Y32.0684 
G01 X15.2032 Y32.1266 
G01 X15.2614 Y32.1713 
G01 X15.2932 Y32.1844 
G01 X15.3291 Y32.1994 
G01 X15.7047 Y32.3549 
G01 X16.0051 Y32.6553 
G01 X16.1676 Y33.0476 
G01 X16.1676 Y33.4724 
G01 X16.0051 Y33.8647 
G01 X15.7047 Y34.1651 
G01 X15.4790 Y34.2586 
G01 X15.4112 Y34.2866 
G01 X15.3530 Y34.3313 
G01 X15.3084 Y34.3895 
G01 X15.2803 Y34.4573 
G01 X15.2719 Y34.5212 
G01 X15.2707 Y34.5300 
G01 X15.2803 Y34.6027 
G01 X15.3084 Y34.6705 
G01 X15.3530 Y34.7287 
G01 X15.4112 Y34.7734 
G01 X15.7047 Y34.8949 
G01 X15.8681 Y35.0583 
G01 X15.9199 Y35.1101 
G01 X15.9835 Y35.1468 
G01 X16.0361 Y35.1609 
G01 X16.0543 Y35.1658 
G01 X16.8989 Y35.1658 
G01 X16.9326 Y35.1665 
G01 X16.9356 Y35.1658 
G01 X16.9387 Y35.1658 
G01 X16.9712 Y35.1571 
G01 X16.9762 Y35.1559 
G01 X17.0047 Y35.1602 
G01 X17.0255 Y35.1658 
G01 X17.0408 Y35.1658 
G01 X17.0560 Y35.1681 
G01 X17.0774 Y35.1658 
G01 X17.1063 Y35.1658 
G01 X17.1110 Y35.1678 
G01 X17.1419 Y35.1813 
G01 X17.1449 Y35.1818 
G01 X17.1477 Y35.1830 
G01 X17.1811 Y35.1874 
G01 X17.1863 Y35.1882 
G01 X17.2109 Y35.2032 
G01 X17.2280 Y35.2162 
G01 X17.2422 Y35.2221 
G01 X17.2553 Y35.2301 
G01 X17.2759 Y35.2361 
G01 X17.3026 Y35.2471 
G01 X17.3063 Y35.2508 
G01 X17.3295 Y35.2751 
G01 X17.3322 Y35.2767 
G01 X17.3635 Y35.2957 
G01 X17.3679 Y35.2984 
G01 X17.3850 Y35.3217 
G01 X17.3957 Y35.3403 
G01 X17.4066 Y35.3512 
G01 X17.4157 Y35.3635 
G01 X17.4324 Y35.3770 
G01 X17.4529 Y35.3974 
G01 X17.4549 Y35.4022 
G01 X17.4671 Y35.4336 
G01 X17.4701 Y35.4389 
G01 X17.4905 Y35.4656 
G01 X18.2782 Y36.5397 
G01 X18.2889 Y36.5583 
G01 X18.2998 Y36.5691 
G01 X18.3089 Y36.5815 
G01 X18.3256 Y36.5949 
G01 X18.3408 Y36.6101 
G01 X18.3541 Y36.6178 
G01 X18.3661 Y36.6274 
G01 X18.3857 Y36.6361 
G01 X18.4043 Y36.6468 
G01 X18.4192 Y36.6508 
G01 X18.4333 Y36.6570 
G01 X18.4545 Y36.6602 
G01 X18.4752 Y36.6658 
G01 X18.4906 Y36.6658 
G01 X18.5058 Y36.6681 
G01 X18.5271 Y36.6658 
G01 X27.4110 Y36.6658 
G01 X27.4174 Y36.6672 
G01 X27.4476 Y36.6658 
G01 X27.4778 Y36.6658 
G01 X27.4841 Y36.6641 
G01 X27.4906 Y36.6638 
G01 X27.5195 Y36.6546 
G01 X27.5487 Y36.6468 
G01 X27.5543 Y36.6436 
G01 X27.5605 Y36.6416 
G01 X27.5860 Y36.6253 
G01 X27.6122 Y36.6101 
G01 X27.6168 Y36.6055 
G01 X27.6223 Y36.6020 
G01 X27.6427 Y36.5797 
G01 X27.6641 Y36.5583 
G01 X27.6673 Y36.5526 
G01 X30.4464 Y33.5047 
G01 X30.4558 Y33.4974 
G01 X30.4710 Y33.4776 
G01 X30.4877 Y33.4593 
G01 X30.4932 Y33.4487 
G01 X30.5005 Y33.4392 
G01 X30.5100 Y33.4162 
G01 X30.5214 Y33.3941 
G01 X30.5240 Y33.3825 
G01 X30.5286 Y33.3714 
G01 X30.5318 Y33.3468 
G01 X30.5371 Y33.3225 
G01 X30.5366 Y33.3105 
G01 X30.5381 Y33.2987 
G01 X30.5349 Y33.2740 
G01 X30.5338 Y33.2492 
G01 X30.5301 Y33.2378 
G01 X30.5286 Y33.2260 
G01 X30.5191 Y33.2030 
G01 X30.5115 Y33.1793 
G01 X30.5051 Y33.1692 
G01 X30.5005 Y33.1582 
G01 X30.4854 Y33.1385 
G01 X30.4720 Y33.1175 
G01 X30.4631 Y33.1095 
G01 X30.4558 Y33.1000 
G01 X30.4361 Y33.0848 
G01 X30.4178 Y33.0681 
G01 X30.4071 Y33.0626 
G01 X30.3976 Y33.0553 
G01 X30.3747 Y33.0458 
G01 X30.3526 Y33.0344 
G01 X30.3409 Y33.0318 
G01 X30.3299 Y33.0273 
G01 X30.3052 Y33.0240 
G01 X30.2809 Y33.0187 
G01 X30.2690 Y33.0192 
G01 X30.2571 Y33.0177 
G01 X30.2325 Y33.0209 
G01 X30.2077 Y33.0221 
G01 X30.1963 Y33.0257 
G01 X30.1844 Y33.0273 
G01 X30.1615 Y33.0368 
G01 X30.1378 Y33.0443 
G01 X30.1277 Y33.0508 
G01 X29.9263 Y33.1342 
G01 X27.3896 Y33.1342 
G01 X27.3187 Y33.1532 
G01 X27.2552 Y33.1899 
G01 X27.1769 Y33.2682 
G01 X26.8872 Y33.3882 
G01 X25.2528 Y33.3882 
G01 X24.9631 Y33.2682 
G01 X24.7414 Y33.0465 
G01 X24.6214 Y32.7568 
G01 X24.6214 Y32.4432 
G01 X24.7414 Y32.1535 
G01 X24.9631 Y31.9318 
G01 X25.2528 Y31.8118 
G01 X26.8872 Y31.8118 
G01 X27.1769 Y31.9318 
G01 X27.2033 Y31.9583 
G01 X27.2552 Y32.0101 
G01 X27.3187 Y32.0468 
G01 X27.3896 Y32.0658 
G01 X29.5200 Y32.0658 
G01 X29.5909 Y32.0468 
G01 X29.6544 Y32.0101 
G01 X32.6449 Y29.0197 
G01 X32.6967 Y28.9678 
G01 X32.7334 Y28.9043 
G01 X32.7524 Y28.8334 
G01 X32.7524 Y28.3876 
G01 X32.9149 Y27.9953 
G01 X33.2153 Y27.6949 
G01 X33.6076 Y27.5324 
G01 X34.0324 Y27.5324 
G01 X34.4247 Y27.6949 
G01 X34.7251 Y27.9953 
G01 X34.8876 Y28.3876 
G01 X34.8876 Y28.8124 
G01 X34.7251 Y29.2047 
G01 X34.5656 Y29.3643 
G01 X34.5137 Y29.4161 
G01 X34.4770 Y29.4797 
G01 X34.4629 Y29.5323 
G01 X34.4580 Y29.5505 
G01 X34.4580 Y29.6239 
G01 X34.4770 Y29.6947 
G01 X34.5137 Y29.7583 
G01 X34.5655 Y29.8101 
G01 X34.6291 Y29.8468 
G01 X34.6817 Y29.8609 
G01 X34.6999 Y29.8658 
G01 X34.9000 Y29.8658 
G01 X34.9709 Y29.8468 
G01 X35.0344 Y29.8101 
G01 X39.8701 Y24.9744 
G01 X39.9068 Y24.9109 
G01 X39.9258 Y24.8400 
G01 X39.9258 Y22.9106 
G01 X39.9068 Y22.8398 
G01 X39.8701 Y22.7763 
G01 X39.8183 Y22.7244 
G01 X39.7356 Y22.6417 
G01 X39.6837 Y22.5899 
G01 X39.6202 Y22.5532 
G01 X39.5675 Y22.5391 
G01 X39.5494 Y22.5342 
G01 X34.0937 Y22.5342 
G01 X33.8974 Y22.4529 
G01 X32.7625 Y21.3180 
G01 X32.5471 Y21.1026 
G01 X32.4658 Y20.9063 
G01 X32.4658 Y17.6937 
G01 X32.5471 Y17.4974 
G01 X33.7820 Y16.2625 
G01 X33.9974 Y16.0471 
G01 X34.1937 Y15.9658 
G01 X39.5494 Y15.9658 
G01 X39.5691 Y15.9605 
G01 X39.6202 Y15.9468 
G01 X39.6837 Y15.9101 
G01 X39.7356 Y15.8583 
G01 X39.9128 Y15.6811 
G01 X40.2678 Y15.5340 
G01 X40.6521 Y15.5340 
G01 X41.0072 Y15.6811 
G01 X41.2789 Y15.9528 
G01 X41.4260 Y16.3078 
G01 X41.4260 Y16.6922 
G01 X41.2789 Y17.0472 
G01 X41.0619 Y17.2643 
G01 X41.0100 Y17.3161 
G01 X40.9733 Y17.3797 
G01 X40.9543 Y17.4505 
G01 X40.9543 Y17.5239 
G01 X40.9733 Y17.5947 
G01 X41.0100 Y17.6583 
G01 X41.0619 Y17.7101 
G01 X41.1254 Y17.7468 
G01 X41.1962 Y17.7658 
G01 X42.2638 Y17.7658 
G01 X42.3346 Y17.7468 
G01 X42.3981 Y17.7101 
G01 X42.4492 Y17.6591 
G01 X42.4867 Y17.5947 
G01 X42.4875 Y17.5917 
G01 X42.5057 Y17.5239 
G01 X42.5057 Y17.4505 
G01 X42.4867 Y17.3797 
G01 X42.4500 Y17.3161 
G01 X42.3981 Y17.2643 
G01 X42.1811 Y17.0472 
G01 X42.0340 Y16.6922 
G01 X42.0340 Y16.3078 
G01 X42.1811 Y15.9528 
G01 X42.3583 Y15.7756 
G01 X42.4101 Y15.7237 
G01 X42.4468 Y15.6602 
G01 X42.4609 Y15.6075 
G01 X42.4658 Y15.5894 
G01 X42.4658 Y14.8937 
G01 X42.5471 Y14.6974 
G01 X42.7106 Y14.5339 
G01 X43.1974 Y14.0471 
G01 X43.3937 Y13.9658 
G01 X47.1063 Y13.9658 
G01 X47.3026 Y14.0471 
G01 X47.5180 Y14.2625 
G01 X48.3737 Y15.1183 
G01 X48.4256 Y15.1701 
G01 X48.4891 Y15.2068 
G01 X48.5600 Y15.2258 
G01 X50.5893 Y15.2258 
G01 X50.6602 Y15.2068 
G01 X50.7237 Y15.1701 
G01 X51.0999 Y14.7940 
G01 X51.9001 Y14.7940 
G01 X52.4660 Y15.3599 
G01 X52.4660 Y16.1601 
G01 X51.9001 Y16.7260 
G01 X51.0999 Y16.7260 
G01 X50.7756 Y16.4017 
G01 X50.7237 Y16.3499 
G01 X50.6602 Y16.3132 
G01 X50.5893 Y16.2942 
G01 X48.1537 Y16.2942 
G01 X47.9574 Y16.2129 
G01 X46.8863 Y15.1417 
G01 X46.8344 Y15.0899 
G01 X46.7709 Y15.0532 
G01 X46.7000 Y15.0342 
G01 X46.0926 Y15.0342 
G01 X46.0854 Y15.0327 
G01 X46.0560 Y15.0342 
G01 X46.0267 Y15.0342 
G01 X46.0195 Y15.0361 
G01 X46.0121 Y15.0365 
G01 X45.9842 Y15.0456 
G01 X45.9558 Y15.0532 
G01 X45.9494 Y15.0569 
G01 X45.9424 Y15.0592 
G01 X45.9177 Y15.0752 
G01 X45.8923 Y15.0899 
G01 X45.8870 Y15.0951 
G01 X45.8808 Y15.0991 
G01 X45.8612 Y15.1210 
G01 X45.8404 Y15.1417 
G01 X45.8367 Y15.1481 
G01 X45.8317 Y15.1536 
G01 X45.8184 Y15.1798 
G01 X45.8037 Y15.2053 
G01 X45.8018 Y15.2124 
G01 X45.7985 Y15.2190 
G01 X45.7923 Y15.2477 
G01 X45.7847 Y15.2761 
G01 X45.7847 Y15.2835 
G01 X45.7832 Y15.2908 
G01 X45.7847 Y15.3201 
G01 X45.7847 Y15.3495 
G01 X45.7867 Y15.3566 
G01 X45.7870 Y15.3640 
G01 X45.7961 Y15.3919 
G01 X45.8037 Y15.4203 
G01 X45.8074 Y15.4267 
G01 X45.8097 Y15.4338 
G01 X45.8257 Y15.4584 
G01 X45.8404 Y15.4839 
G01 X45.8456 Y15.4891 
G01 X45.8497 Y15.4953 
G01 X45.8715 Y15.5150 
G01 X45.8923 Y15.5357 
G01 X45.8987 Y15.5394 
G01 X45.9042 Y15.5444 
G01 X45.9303 Y15.5577 
G01 X45.9558 Y15.5724 
G01 X45.9630 Y15.5743 
G01 X46.0729 Y15.6303 
G01 X46.2024 Y15.7244 
G01 X46.3156 Y15.8376 
G01 X46.4096 Y15.9671 
G01 X46.4823 Y16.1097 
G01 X46.5021 Y16.1706 
G01 X46.3924 Y16.1706 
G01 X46.3496 Y16.0672 
G01 X46.2496 Y15.9176 
G01 X46.1224 Y15.7904 
G01 X45.9727 Y15.6904 
G01 X45.8065 Y15.6215 
G01 X45.6300 Y15.5864 
G01 X45.4500 Y15.5864 
G01 X45.2735 Y15.6215 
G01 X45.1072 Y15.6904 
G01 X44.9576 Y15.7904 
G01 X44.8304 Y15.9176 
G01 X44.7304 Y16.0672 
G01 X44.6876 Y16.1706 
G01 X44.5779 Y16.1706 
G01 X44.5977 Y16.1097 
G01 X44.6704 Y15.9671 
G01 X44.7644 Y15.8376 
G01 X44.8776 Y15.7244 
G01 X45.0071 Y15.6303 
G01 X45.1170 Y15.5743 
G01 X45.1242 Y15.5724 
G01 X45.1496 Y15.5577 
G01 X45.1758 Y15.5444 
G01 X45.1813 Y15.5394 
G01 X45.1877 Y15.5357 
G01 X45.2085 Y15.5150 
G01 X45.2303 Y15.4953 
G01 X45.2344 Y15.4891 
G01 X45.2396 Y15.4839 
G01 X45.2543 Y15.4584 
G01 X45.2703 Y15.4338 
G01 X45.2726 Y15.4267 
G01 X45.2763 Y15.4203 
G01 X45.2839 Y15.3919 
G01 X45.2930 Y15.3640 
G01 X45.2933 Y15.3566 
G01 X45.2953 Y15.3495 
G01 X45.2953 Y15.3201 
G01 X45.2968 Y15.2908 
G01 X45.2953 Y15.2835 
G01 X45.2953 Y15.2761 
G01 X45.2876 Y15.2477 
G01 X45.2815 Y15.2190 
G01 X45.2782 Y15.2124 
G01 X45.2763 Y15.2053 
G01 X45.2616 Y15.1798 
G01 X45.2482 Y15.1536 
G01 X45.2433 Y15.1481 
G01 X45.2396 Y15.1417 
G01 X45.2188 Y15.1210 
G01 X45.1992 Y15.0991 
G01 X45.1930 Y15.0951 
G01 X45.1877 Y15.0899 
G01 X45.1623 Y15.0752 
G01 X45.1376 Y15.0592 
G01 X45.1306 Y15.0569 
G01 X45.1242 Y15.0532 
G01 X45.0958 Y15.0456 
G01 X45.0679 Y15.0365 
G01 X45.0605 Y15.0361 
G01 X45.0533 Y15.0342 
G01 X45.0239 Y15.0342 
G01 X44.9946 Y15.0327 
G01 X44.9874 Y15.0342 
G01 X43.8000 Y15.0342 
G01 X43.7291 Y15.0532 
G01 X43.6656 Y15.0899 
G01 X43.6417 Y15.1137 
G01 X43.5899 Y15.1656 
G01 X43.5532 Y15.2291 
G01 X43.5342 Y15.3000 
G01 X43.5342 Y15.5894 
G01 X43.5395 Y15.6091 
G01 X43.5532 Y15.6602 
G01 X43.5899 Y15.7237 
G01 X43.6417 Y15.7756 
G01 X43.8189 Y15.9528 
G01 X43.9660 Y16.3078 
G01 X43.9660 Y16.3761 
G01 X43.9637 Y16.3907 
G01 X43.9660 Y16.4126 
G01 X43.9660 Y16.5874 
G01 X43.9637 Y16.6093 
G01 X43.9660 Y16.6238 
G01 X43.9660 Y16.6922 
G01 X43.8189 Y17.0472 
G01 X43.6019 Y17.2643 
G01 X43.5500 Y17.3161 
G01 X43.5133 Y17.3797 
G01 X43.4943 Y17.4505 
G01 X43.4943 Y17.5239 
G01 X43.5133 Y17.5947 
G01 X43.5500 Y17.6583 
G01 X43.6019 Y17.7101 
G01 X43.6654 Y17.7468 
G01 X43.7362 Y17.7658 
G01 X44.7319 Y17.7658 
G01 X44.7517 Y17.7605 
G01 X44.8028 Y17.7468 
G01 X44.8663 Y17.7101 
G01 X44.9182 Y17.6583 
G01 X44.9548 Y17.5947 
G01 X44.9738 Y17.5239 
G01 X44.9738 Y17.4505 
G01 X44.9685 Y17.4307 
G01 X44.9548 Y17.3797 
G01 X44.9182 Y17.3161 
G01 X44.8663 Y17.2643 
G01 X44.7644 Y17.1624 
G01 X44.6704 Y17.0329 
G01 X44.5977 Y16.8903 
G01 X44.5779 Y16.8294 
G01 X44.6876 Y16.8294 
G01 X44.7304 Y16.9327 
G01 X44.8304 Y17.0824 
G01 X44.9576 Y17.2096 
G01 X45.1072 Y17.3096 
G01 X45.2735 Y17.3785 
G01 X45.4500 Y17.4136 
G01 X45.6300 Y17.4136 
G01 X45.8065 Y17.3785 
G01 X45.9727 Y17.3096 
G01 X46.1224 Y17.2096 
G01 X46.2496 Y17.0824 
G01 X46.3496 Y16.9327 
G01 X46.3924 Y16.8294 
G01 X46.5021 Y16.8294 
G01 X46.4823 Y16.8903 
G01 X46.4096 Y17.0329 
G01 X46.3156 Y17.1624 
G01 X46.2137 Y17.2643 
G01 X46.1618 Y17.3161 
G01 X46.1251 Y17.3797 
G01 X46.1110 Y17.4323 
G01 X46.1062 Y17.4505 
G01 X46.1062 Y17.5239 
G01 X46.1251 Y17.5947 
G01 X46.1618 Y17.6583 
G01 X46.2137 Y17.7101 
G01 X46.2772 Y17.7468 
G01 X46.3299 Y17.7609 
G01 X46.3481 Y17.7658 
G01 X50.5893 Y17.7658 
G01 X50.6602 Y17.7468 
G01 X50.7237 Y17.7101 
G01 X51.0999 Y17.3340 
G01 X51.9001 Y17.3340 
G01 X52.4660 Y17.8999 
G01 X52.4660 Y18.7001 
G01 X51.9001 Y19.2660 
G01 X51.3174 Y19.2660 
G01 X51.2465 Y19.2850 
G01 X51.1830 Y19.3217 
G01 X51.1311 Y19.3735 
G01 X51.0945 Y19.4371 
G01 X51.0755 Y19.5079 
G01 X51.0755 Y19.5813 
G01 X51.0945 Y19.6521 
G01 X51.1311 Y19.7157 
G01 X51.1819 Y19.7665 
G01 X51.2338 Y19.8183 
G01 X51.2973 Y19.8550 
G01 X51.3682 Y19.8740 
G01 X51.9001 Y19.8740 
G01 X52.4660 Y20.4399 
G01 X52.4660 Y21.2401 
G01 X51.9001 Y21.8060 
G01 X51.0999 Y21.8060 
G01 X50.5340 Y21.2401 
G01 X50.5340 Y20.7761 
G01 X50.5150 Y20.7053 
G01 X50.4783 Y20.6417 
G01 X50.4265 Y20.5899 
G01 X50.3629 Y20.5532 
G01 X50.2921 Y20.5342 
G01 X46.0926 Y20.5342 
G01 X46.0854 Y20.5327 
G01 X46.0560 Y20.5342 
G01 X46.0267 Y20.5342 
G01 X46.0195 Y20.5361 
G01 X46.0121 Y20.5365 
G01 X45.9842 Y20.5456 
G01 X45.9558 Y20.5532 
G01 X45.9494 Y20.5569 
G01 X45.9424 Y20.5592 
G01 X45.9177 Y20.5752 
G01 X45.8923 Y20.5899 
G01 X45.8870 Y20.5951 
G01 X45.8808 Y20.5991 
G01 X45.8612 Y20.6210 
G01 X45.8404 Y20.6417 
G01 X45.8367 Y20.6481 
G01 X45.8317 Y20.6536 
G01 X45.8184 Y20.6798 
G01 X45.8037 Y20.7053 
G01 X45.8018 Y20.7124 
G01 X45.7985 Y20.7190 
G01 X45.7923 Y20.7477 
G01 X45.7847 Y20.7761 
G01 X45.7847 Y20.7835 
G01 X45.7832 Y20.7908 
G01 X45.7847 Y20.8201 
G01 X45.7847 Y20.8495 
G01 X45.7867 Y20.8566 
G01 X45.7870 Y20.8640 
G01 X45.7961 Y20.8919 
G01 X45.8037 Y20.9203 
G01 X45.8074 Y20.9267 
G01 X45.8097 Y20.9338 
G01 X45.8257 Y20.9584 
G01 X45.8404 Y20.9839 
G01 X45.8456 Y20.9891 
G01 X45.8497 Y20.9953 
G01 X45.8715 Y21.0150 
G01 X45.8923 Y21.0357 
G01 X45.8987 Y21.0394 
G01 X45.9042 Y21.0444 
G01 X45.9303 Y21.0577 
G01 X45.9558 Y21.0724 
G01 X45.9630 Y21.0743 
G01 X46.0729 Y21.1303 
G01 X46.2024 Y21.2244 
G01 X46.3156 Y21.3376 
G01 X46.4096 Y21.4671 
G01 X46.4823 Y21.6097 
G01 X46.5021 Y21.6706 
G01 X46.3924 Y21.6706 
G01 X46.3496 Y21.5672 
G01 X46.2496 Y21.4176 
G01 X46.1224 Y21.2904 
G01 X45.9727 Y21.1904 
G01 X45.8065 Y21.1215 
G01 X45.6300 Y21.0864 
G01 X45.4500 Y21.0864 
G01 X45.2735 Y21.1215 
G01 X45.1072 Y21.1904 
G01 X44.9576 Y21.2904 
G01 X44.8304 Y21.4176 
G01 X44.7304 Y21.5672 
G01 X44.6876 Y21.6706 
G01 X44.5779 Y21.6706 
G01 X44.5977 Y21.6097 
G01 X44.6704 Y21.4671 
G01 X44.7644 Y21.3376 
G01 X44.8776 Y21.2244 
G01 X45.0071 Y21.1303 
G01 X45.1170 Y21.0743 
G01 X45.1242 Y21.0724 
G01 X45.1496 Y21.0577 
G01 X45.1758 Y21.0444 
G01 X45.1813 Y21.0394 
G01 X45.1877 Y21.0357 
G01 X45.2085 Y21.0150 
G01 X45.2303 Y20.9953 
G01 X45.2344 Y20.9891 
G01 X45.2396 Y20.9839 
G01 X45.2543 Y20.9584 
G01 X45.2703 Y20.9338 
G01 X45.2726 Y20.9267 
G01 X45.2763 Y20.9203 
G01 X45.2839 Y20.8919 
G01 X45.2930 Y20.8640 
G01 X45.2933 Y20.8566 
G01 X45.2953 Y20.8495 
G01 X45.2953 Y20.8201 
G01 X45.2968 Y20.7908 
G01 X45.2953 Y20.7835 
G01 X45.2953 Y20.7761 
G01 X45.2876 Y20.7477 
G01 X45.2815 Y20.7190 
G01 X45.2782 Y20.7124 
G01 X45.2763 Y20.7053 
G01 X45.2616 Y20.6798 
G01 X45.2482 Y20.6536 
G01 X45.2433 Y20.6481 
G01 X45.2396 Y20.6417 
G01 X45.2188 Y20.6210 
G01 X45.1992 Y20.5991 
G01 X45.1930 Y20.5951 
G01 X45.1877 Y20.5899 
G01 X45.1623 Y20.5752 
G01 X45.1376 Y20.5592 
G01 X45.1306 Y20.5569 
G01 X45.1242 Y20.5532 
G01 X45.0958 Y20.5456 
G01 X45.0679 Y20.5365 
G01 X45.0605 Y20.5361 
G01 X45.0533 Y20.5342 
G01 X45.0239 Y20.5342 
G01 X44.9946 Y20.5327 
G01 X44.9874 Y20.5342 
G01 X44.3000 Y20.5342 
G01 X44.2291 Y20.5532 
G01 X44.1656 Y20.5899 
G01 X43.7837 Y20.9717 
G01 X43.7319 Y21.0236 
G01 X43.6952 Y21.0871 
G01 X43.6762 Y21.1580 
G01 X43.6762 Y21.2313 
G01 X43.6952 Y21.3022 
G01 X43.7319 Y21.3657 
G01 X43.8189 Y21.4528 
G01 X43.9660 Y21.8078 
G01 X43.9660 Y21.8761 
G01 X43.9637 Y21.8907 
G01 X43.9660 Y21.9126 
G01 X43.9660 Y22.0874 
G01 X43.9637 Y22.1093 
G01 X43.9660 Y22.1238 
G01 X43.9660 Y22.1922 
G01 X43.8189 Y22.5472 
G01 X43.5472 Y22.8189 
G01 X43.1921 Y22.9660 
G01 X42.8078 Y22.9660 
G01 X42.4528 Y22.8189 
G01 X42.1811 Y22.5472 
G01 X42.0340 Y22.1922 
G01 X42.0340 Y21.8078 
G01 X42.1811 Y21.4528 
G01 X42.4101 Y21.2237 
G01 X42.4468 Y21.1602 
G01 X42.4658 Y21.0893 
G01 X42.4658 Y20.8937 
G01 X42.5471 Y20.6974 
G01 X42.7106 Y20.5339 
G01 X43.6974 Y19.5471 
G01 X43.8937 Y19.4658 
G01 X50.6638 Y19.4658 
G01 X50.7025 Y19.4554 
G01 X50.7346 Y19.4468 
G01 X50.7414 Y19.4429 
G01 X50.7981 Y19.4101 
G01 X50.8492 Y19.3591 
G01 X50.8601 Y19.3407 
G01 X50.8867 Y19.2947 
G01 X50.9057 Y19.2239 
G01 X50.9057 Y19.1505 
G01 X50.8953 Y19.1117 
G01 X50.8867 Y19.0797 
G01 X50.8828 Y19.0729 
G01 X50.8500 Y19.0161 
G01 X50.7981 Y18.9643 
G01 X50.7756 Y18.9417 
G01 X50.7237 Y18.8899 
G01 X50.7072 Y18.8803 
G01 X50.6602 Y18.8532 
G01 X50.5893 Y18.8342 
G01 X35.7163 Y18.8342 
G01 X35.6980 Y18.8318 
G01 X35.6798 Y18.8342 
G01 X35.6614 Y18.8342 
G01 X35.6436 Y18.8390 
G01 X35.6253 Y18.8414 
G01 X35.6083 Y18.8484 
G01 X35.5905 Y18.8532 
G01 X35.5746 Y18.8624 
G01 X35.5575 Y18.8695 
G01 X35.5429 Y18.8807 
G01 X35.5270 Y18.8899 
G01 X35.5140 Y18.9029 
G01 X35.4993 Y18.9141 
G01 X35.4881 Y18.9287 
G01 X35.4751 Y18.9417 
G01 X35.4659 Y18.9577 
G01 X35.4569 Y18.9695 
G01 X35.2212 Y19.2052 
G01 X34.9155 Y19.3318 
G01 X34.5845 Y19.3318 
G01 X34.2788 Y19.2052 
G01 X34.0357 Y18.9621 
G01 X33.9839 Y18.9102 
G01 X33.9203 Y18.8735 
G01 X33.8495 Y18.8545 
G01 X33.7761 Y18.8545 
G01 X33.7053 Y18.8735 
G01 X33.6417 Y18.9102 
G01 X33.5899 Y18.9621 
G01 X33.5532 Y19.0256 
G01 X33.5342 Y19.0965 
G01 X33.5342 Y20.5000 
G01 X33.5532 Y20.5709 
G01 X33.5899 Y20.6344 
G01 X34.3137 Y21.3583 
G01 X34.3656 Y21.4101 
G01 X34.4291 Y21.4468 
G01 X34.5000 Y21.4658 
G01 X39.5494 Y21.4658 
G01 X39.5691 Y21.4605 
G01 X39.6202 Y21.4468 
G01 X39.6837 Y21.4101 
G01 X39.7356 Y21.3583 
G01 X39.9128 Y21.1811 
G01 X40.2678 Y21.0340 
G01 X40.6521 Y21.0340 
G01 X41.0072 Y21.1811 
G01 X41.2789 Y21.4528 
G01 X41.4260 Y21.8078 
G01 X41.4260 Y22.1922 
G01 X41.2789 Y22.5472 
G01 X41.1017 Y22.7244 
G01 X41.0499 Y22.7763 
G01 X41.0132 Y22.8398 
G01 X40.9942 Y22.9106 
G01 X40.9942 Y25.2463 
G01 X40.9129 Y25.4426 
G01 X35.7180 Y30.6375 
G01 X35.5026 Y30.8529 
G01 X35.3063 Y30.9342 
G01 X34.3890 Y30.9342 
G01 X34.3826 Y30.9328 
G01 X34.3524 Y30.9342 
G01 X34.3222 Y30.9342 
G01 X34.3159 Y30.9359 
G01 X34.3094 Y30.9362 
G01 X34.2805 Y30.9454 
G01 X34.2513 Y30.9532 
G01 X34.2457 Y30.9564 
G01 X34.2394 Y30.9584 
G01 X34.2140 Y30.9747 
G01 X34.1878 Y30.9899 
G01 X34.1832 Y30.9945 
G01 X34.1777 Y30.9980 
G01 X34.1573 Y31.0203 
G01 X34.1359 Y31.0417 
G01 X34.1326 Y31.0474 
G01 X33.4817 Y31.7613 
G01 X33.4603 Y31.7827 
G01 X33.4570 Y31.7884 
G01 X33.4526 Y31.7932 
G01 X33.4387 Y31.8200 
G01 X33.4236 Y31.8463 
G01 X33.4219 Y31.8526 
G01 X33.4189 Y31.8583 
G01 X33.4125 Y31.8879 
G01 X33.4046 Y31.9171 
G01 X33.4046 Y31.9236 
G01 X33.4032 Y31.9300 
G01 X33.4046 Y31.9602 
G01 X33.4046 Y31.9905 
G01 X33.4063 Y31.9968 
G01 X33.4066 Y32.0033 
G01 X33.4158 Y32.0321 
G01 X33.4236 Y32.0613 
G01 X33.4269 Y32.0670 
G01 X33.4288 Y32.0732 
G01 X33.4452 Y32.0987 
G01 X33.4603 Y32.1249 
G01 X33.4649 Y32.1295 
G01 X33.4684 Y32.1350 
G01 X33.4907 Y32.1553 
G01 X33.5122 Y32.1767 
G01 X33.5178 Y32.1800 
G01 X33.5226 Y32.1844 
G01 X33.5495 Y32.1983 
G01 X33.5757 Y32.2134 
G01 X33.5820 Y32.2151 
G01 X33.5878 Y32.2181 
G01 X33.6173 Y32.2246 
G01 X33.6465 Y32.2324 
G01 X33.6531 Y32.2324 
G01 X33.6594 Y32.2338 
G01 X33.6896 Y32.2324 
G01 X34.0324 Y32.2324 
G01 X34.4247 Y32.3949 
G01 X34.7251 Y32.6953 
G01 X34.8876 Y33.0876 
G01 X34.8876 Y33.5124 
G01 X34.7251 Y33.9047 
G01 X34.4617 Y34.1681 
G01 X34.4099 Y34.2199 
G01 X34.3732 Y34.2835 
G01 X34.3542 Y34.3543 
G01 X34.3542 Y36.8863 
G01 X34.2729 Y37.0826 
G01 X29.1180 Y42.2375 
G01 X29.0661 Y42.2893 
G01 X28.9026 Y42.4529 
G01 X28.7063 Y42.5342 
G01 X27.3496 Y42.5342 
G01 X27.2787 Y42.5532 
G01 X27.2152 Y42.5899 
G01 X27.1369 Y42.6682 
G01 X26.8472 Y42.7882 
G01 X25.2128 Y42.7882 
G01 X24.9231 Y42.6682 
G01 X24.7014 Y42.4465 
G01 X24.5814 Y42.1568 
G01 X24.5814 Y41.8432 
G01 X24.7014 Y41.5535 
G01 X24.9231 Y41.3318 
G01 X25.2128 Y41.2118 
G01 X26.8472 Y41.2118 
G01 X27.1369 Y41.3318 
G01 X27.1633 Y41.3583 
G01 X27.2152 Y41.4101 
G01 X27.2787 Y41.4468 
G01 X27.3496 Y41.4658 
G01 X28.3000 Y41.4658 
G01 X28.3709 Y41.4468 
G01 X28.4336 Y41.4106 
G01 X33.1783 Y36.6663 
G01 X33.2301 Y36.6144 
G01 X33.2668 Y36.5509 
G01 X33.2858 Y36.4800 
G01 X33.2858 Y34.3543 
G01 X33.2668 Y34.2835 
G01 X33.2301 Y34.2199 
G01 X32.9149 Y33.9047 
G01 X32.7524 Y33.5124 
G01 X32.7524 Y33.3104 
G01 X32.7538 Y33.3041 
G01 X32.7524 Y33.2739 
G01 X32.7524 Y33.2436 
G01 X32.7507 Y33.2373 
G01 X32.7504 Y33.2308 
G01 X32.7412 Y33.2020 
G01 X32.7334 Y33.1727 
G01 X32.7302 Y33.1671 
G01 X32.7282 Y33.1609 
G01 X32.7119 Y33.1354 
G01 X32.6967 Y33.1092 
G01 X32.6921 Y33.1046 
G01 X32.6886 Y33.0991 
G01 X32.6663 Y33.0787 
G01 X32.6449 Y33.0573 
G01 X32.6392 Y33.0541 
G01 X32.6344 Y33.0497 
G01 X32.6076 Y33.0358 
G01 X32.5813 Y33.0206 
G01 X32.5750 Y33.0190 
G01 X32.5692 Y33.0160 
G01 X32.5397 Y33.0095 
G01 X32.5105 Y33.0017 
G01 X32.5040 Y33.0017 
G01 X32.4976 Y33.0003 
G01 X32.4674 Y33.0017 
G01 X32.4371 Y33.0017 
G01 X32.4308 Y33.0033 
G01 X32.4243 Y33.0037 
G01 X32.3955 Y33.0128 
G01 X32.3663 Y33.0206 
G01 X32.3606 Y33.0239 
G01 X32.3544 Y33.0259 
G01 X32.3289 Y33.0422 
G01 X32.3027 Y33.0573 
G01 X32.2981 Y33.0619 
G01 X32.2926 Y33.0654 
G01 X32.2723 Y33.0878 
G01 X32.2509 Y33.1092 
G01 X32.2476 Y33.1148 
G01 X28.3072 Y37.4365 
G01 X28.2978 Y37.4438 
G01 X28.2826 Y37.4635 
G01 X28.2659 Y37.4819 
G01 X28.2604 Y37.4925 
G01 X28.2531 Y37.5020 
G01 X28.2123 Y37.5432 
G01 X28.2068 Y37.5467 
G01 X28.1864 Y37.5690 
G01 X28.1650 Y37.5904 
G01 X28.1618 Y37.5961 
G01 X28.1232 Y37.6384 
G01 X28.1134 Y37.6464 
G01 X28.1030 Y37.6524 
G01 X28.0496 Y37.6748 
G01 X28.0432 Y37.6760 
G01 X28.0158 Y37.6888 
G01 X27.9879 Y37.7004 
G01 X27.9827 Y37.7044 
G01 X27.9308 Y37.7287 
G01 X27.9187 Y37.7324 
G01 X27.9068 Y37.7339 
G01 X27.8489 Y37.7342 
G01 X27.8425 Y37.7328 
G01 X27.8123 Y37.7342 
G01 X27.7821 Y37.7342 
G01 X27.7758 Y37.7359 
G01 X27.7185 Y37.7385 
G01 X27.7060 Y37.7373 
G01 X27.6944 Y37.7342 
G01 X27.6695 Y37.7342 
G01 X27.6448 Y37.7321 
G01 X27.6330 Y37.7342 
G01 X18.2011 Y37.7342 
G01 X18.1674 Y37.7335 
G01 X18.1644 Y37.7342 
G01 X18.1613 Y37.7342 
G01 X18.1288 Y37.7429 
G01 X18.1238 Y37.7441 
G01 X18.0953 Y37.7398 
G01 X18.0745 Y37.7342 
G01 X18.0591 Y37.7342 
G01 X18.0440 Y37.7319 
G01 X18.0226 Y37.7342 
G01 X17.9937 Y37.7342 
G01 X17.9890 Y37.7322 
G01 X17.9581 Y37.7187 
G01 X17.9551 Y37.7182 
G01 X17.9523 Y37.7170 
G01 X17.9189 Y37.7126 
G01 X17.9137 Y37.7118 
G01 X17.8890 Y37.6968 
G01 X17.8720 Y37.6838 
G01 X17.8578 Y37.6779 
G01 X17.8447 Y37.6699 
G01 X17.8241 Y37.6639 
G01 X17.7974 Y37.6529 
G01 X17.7937 Y37.6491 
G01 X17.7705 Y37.6249 
G01 X17.7678 Y37.6233 
G01 X17.7365 Y37.6043 
G01 X17.7321 Y37.6016 
G01 X17.7150 Y37.5783 
G01 X17.7042 Y37.5597 
G01 X17.6934 Y37.5488 
G01 X17.6843 Y37.5365 
G01 X17.6676 Y37.5230 
G01 X17.6471 Y37.5026 
G01 X17.6451 Y37.4978 
G01 X17.6329 Y37.4664 
G01 X17.6299 Y37.4611 
G01 X17.6095 Y37.4344 
G01 X16.8218 Y36.3603 
G01 X16.8111 Y36.3417 
G01 X16.8002 Y36.3309 
G01 X16.7911 Y36.3185 
G01 X16.7744 Y36.3050 
G01 X16.7592 Y36.2899 
G01 X16.7459 Y36.2822 
G01 X16.7339 Y36.2726 
G01 X16.7142 Y36.2639 
G01 X16.6957 Y36.2532 
G01 X16.6808 Y36.2492 
G01 X16.6667 Y36.2430 
G01 X16.6455 Y36.2398 
G01 X16.6248 Y36.2342 
G01 X16.6094 Y36.2342 
G01 X16.5942 Y36.2319 
G01 X16.5729 Y36.2342 
G01 X16.2801 Y36.2342 
G01 X16.2618 Y36.2318 
G01 X16.2436 Y36.2342 
G01 X16.2252 Y36.2342 
G01 X16.2074 Y36.2390 
G01 X16.1891 Y36.2414 
G01 X16.1721 Y36.2484 
G01 X16.1543 Y36.2532 
G01 X16.1384 Y36.2624 
G01 X16.1213 Y36.2694 
G01 X16.1067 Y36.2807 
G01 X16.0908 Y36.2899 
G01 X16.0778 Y36.3029 
G01 X16.0632 Y36.3141 
G01 X16.0520 Y36.3287 
G01 X16.0389 Y36.3417 
G01 X16.0297 Y36.3577 
G01 X16.0185 Y36.3723 
G01 X16.0115 Y36.3893 
G01 X16.0022 Y36.4053 
G01 X16.0014 Y36.4084 
G01 X15.8417 Y36.5681 
G01 X15.7899 Y36.6199 
G01 X15.7532 Y36.6835 
G01 X15.7391 Y36.7362 
G01 X15.7342 Y36.7543 
G01 X15.7342 Y37.5457 
G01 X15.7532 Y37.6165 
G01 X15.7899 Y37.6801 
G01 X15.8417 Y37.7319 
G01 X16.1051 Y37.9953 
G01 X16.2676 Y38.3876 
G01 X16.2676 Y38.8124 
G01 X16.1051 Y39.2047 
G01 X15.8047 Y39.5051 
G01 X15.5112 Y39.6266 
G01 X15.4530 Y39.6713 
G01 X15.4084 Y39.7295 
G01 X15.3803 Y39.7973 
G01 X15.3707 Y39.8700 
G01 X15.3721 Y39.8804 
G01 X15.3803 Y39.9427 
G01 X15.4084 Y40.0105 
G01 X15.4530 Y40.0687 
G01 X15.5112 Y40.1133 
G01 X15.5790 Y40.1414 
G01 X15.8047 Y40.2349 
G01 X16.1051 Y40.5353 
G01 X16.2676 Y40.9276 
G01 X16.2676 Y41.3524 
G01 X16.1051 Y41.7447 
G01 X15.8047 Y42.0451 
G01 X15.7735 Y42.0580 
G01 X15.7153 Y42.1027 
G01 X15.6838 Y42.1437 
G01 X15.6707 Y42.1609 
G01 X15.6426 Y42.2286 
G01 X15.6354 Y42.2830 
G01 X15.6330 Y42.3014 
G01 X15.6356 Y42.3213 
G01 X15.6426 Y42.3741 
G01 X15.6707 Y42.4419 
G01 X15.7153 Y42.5001 
G01 X15.7564 Y42.5316 
G01 X15.7735 Y42.5447 
G01 X15.8947 Y42.5949 
G01 X16.1951 Y42.8953 
G01 X16.3576 Y43.2876 
G01 X16.3576 Y43.7124 
G01 X16.1951 Y44.1047 
G01 X15.8947 Y44.4051 
G01 X15.5024 Y44.5676 
G01 X15.0776 Y44.5676 
G01 X14.6853 Y44.4051 
G01 X14.4219 Y44.1417 
G01 X14.3700 Y44.0899 
G01 X14.3065 Y44.0532 
G01 X14.2357 Y44.0342 
G01 X9.5937 Y44.0342 
G01 X9.3974 Y43.9529 
G01 X8.7625 Y43.3180 
G01 X8.7106 Y43.2661 
G01 X8.5471 Y43.1026 
G01 X8.4658 Y42.9063 
G01 X8.4658 Y42.0627 
G01 X8.4468 Y41.9918 
G01 X8.4101 Y41.9283 
G01 X8.1918 Y41.7100 
G01 X8.0467 Y41.3596 
G01 X8.0467 Y40.9804 
G01 X8.1918 Y40.6300 
G01 X8.4600 Y40.3618 
G01 X8.8104 Y40.2167 
G01 X9.1896 Y40.2167 
G01 X9.5400 Y40.3618 
G01 X9.6764 Y40.4983 
G01 X9.7283 Y40.5501 
G01 X9.7918 Y40.5868 
G01 X9.8627 Y40.6058 
G01 X14.1457 Y40.6058 
G01 X14.2165 Y40.5868 
G01 X14.2800 Y40.5501 
G01 X14.3319 Y40.4983 
G01 X14.5953 Y40.2349 
G01 X14.8210 Y40.1414 
G01 X14.8888 Y40.1133 
G01 X14.9470 Y40.0687 
G01 X14.9916 Y40.0105 
G01 X15.0197 Y39.9427 
G01 X15.0281 Y39.8788 
G01 X15.0293 Y39.8700 
G01 X15.0197 Y39.7973 
G01 X14.9916 Y39.7295 
G01 X14.9470 Y39.6713 
G01 X14.8888 Y39.6266 
G01 X14.5952 Y39.5051 
G01 X14.2949 Y39.2047 
G01 X14.1324 Y38.8124 
G01 X14.1324 Y38.3876 
G01 X14.2949 Y37.9953 
G01 X14.5583 Y37.7319 
G01 X14.6101 Y37.6801 
G01 X14.6468 Y37.6165 
G01 X14.6658 Y37.5457 
G01 X14.6658 Y36.9801 
G01 X14.6682 Y36.9618 
G01 X14.6658 Y36.9436 
G01 X14.6658 Y36.9252 
G01 X14.6610 Y36.9074 
G01 X14.6586 Y36.8891 
G01 X14.6516 Y36.8721 
G01 X14.6468 Y36.8543 
G01 X14.6376 Y36.8384 
G01 X14.6305 Y36.8213 
G01 X14.6193 Y36.8067 
G01 X14.6101 Y36.7908 
G01 X14.5971 Y36.7778 
G01 X14.5859 Y36.7632 
G01 X14.5713 Y36.7520 
G01 X14.5583 Y36.7389 
G01 X14.5423 Y36.7297 
G01 X14.5277 Y36.7185 
G01 X14.5107 Y36.7115 
G01 X14.4947 Y36.7022 
G01 X14.4916 Y36.7014 
G01 X14.2319 Y36.4417 
G01 X14.1800 Y36.3899 
G01 X14.1165 Y36.3532 
G01 X14.0457 Y36.3342 
G01 X10.1952 Y36.3342 
G01 X10.1244 Y36.3532 
G01 X10.0608 Y36.3899 
G01 X10.0090 Y36.4417 
G01 X9.9723 Y36.5053 
G01 X9.9533 Y36.5761 
G01 X9.9533 Y36.6484 
G01 X9.8784 Y36.7233 
G01 X9.7761 Y36.7233 
G01 X9.7053 Y36.7423 
G01 X9.6417 Y36.7790 
G01 X9.5899 Y36.8308 
G01 X9.5532 Y36.8944 
G01 X9.5342 Y36.9652 
G01 X9.5342 Y37.4348 
G01 X9.5532 Y37.5056 
G01 X9.5899 Y37.5692 
G01 X9.6417 Y37.6210 
G01 X9.7053 Y37.6577 
G01 X9.7761 Y37.6767 
G01 X9.8784 Y37.6767 
G01 X9.9533 Y37.7516 
G01 X9.9533 Y39.5084 
G01 X9.8784 Y39.5833 
G01 X8.1216 Y39.5833 
G01 X8.0467 Y39.5084 
G01 X8.0467 Y37.7516 
G01 X8.1216 Y37.6767 
G01 X8.2239 Y37.6767 
G01 X8.2947 Y37.6577 
G01 X8.3583 Y37.6210 
G01 X8.4101 Y37.5692 
G01 X8.4468 Y37.5056 
G01 X8.4658 Y37.4348 
G01 X8.4658 Y36.9652 
G01 X8.4468 Y36.8944 
G01 X8.4101 Y36.8308 
G01 X8.3583 Y36.7790 
G01 X8.2947 Y36.7423 
G01 X8.2239 Y36.7233 
G01 X8.1216 Y36.7233 
G01 X8.0467 Y36.6484 
G01 X8.0467 Y35.6509 
G01 X8.0277 Y35.5800 
G01 X7.9910 Y35.5165 
G01 X4.2114 Y31.7369 
G01 X4.1831 Y31.7205 
G01 X4.1479 Y31.7002 
G01 X4.1053 Y31.6888 
G01 X4.0770 Y31.6812 
G01 X4.0036 Y31.6812 
G01 X3.9328 Y31.7002 
G01 X3.8693 Y31.7369 
G01 X3.8174 Y31.7887 
G01 X3.6401 Y31.9660 
G01 X2.8399 Y31.9660 
G01 X2.2740 Y31.4001 
G01 X2.2740 Y30.5999 
G01 X2.8399 Y30.0340 
G01 X3.6401 Y30.0340 
G01 X3.9644 Y30.3583 
G01 X4.0163 Y30.4101 
G01 X4.0798 Y30.4468 
G01 X4.1506 Y30.4658 
G01 X5.5300 Y30.4658 
G01 X5.6009 Y30.4468 
G01 X5.6644 Y30.4101 
G01 X12.4692 Y23.6054 
G01 X12.5210 Y23.5535 
G01 X12.5577 Y23.4900 
G01 X12.5767 Y23.4191 
G01 X12.5767 Y23.1809 
G01 X12.5577 Y23.1100 
G01 X12.5210 Y23.0465 
G01 X11.2879 Y21.8134 
G01 X11.2361 Y21.7615 
G01 X11.1725 Y21.7249 
G01 X11.1017 Y21.7059 
G01 X11.0283 Y21.7059 
G01 X10.9575 Y21.7249 
G01 X10.8939 Y21.7615 
G01 X9.7626 Y22.8929 
G01 X9.5663 Y22.9742 
G01 X7.8106 Y22.9742 
G01 X7.7398 Y22.9932 
G01 X7.6763 Y23.0299 
G01 X7.4472 Y23.2589 
G01 X7.0922 Y23.4060 
G01 X6.7078 Y23.4060 
G01 X6.3528 Y23.2589 
G01 X6.0811 Y22.9872 
G01 X5.9340 Y22.6321 
G01 X5.9340 Y22.3082 
G01 X5.9150 Y22.2373 
G01 X5.8783 Y22.1738 
G01 X5.8265 Y22.1219 
G01 X4.8463 Y21.1417 
G01 X4.7944 Y21.0899 
G01 X4.7309 Y21.0532 
G01 X4.6600 Y21.0342 
G01 X2.5895 Y21.0342 
G01 X2.5618 Y21.0324 
G01 X2.5529 Y21.0342 
G01 X2.5438 Y21.0342 
G01 X2.5170 Y21.0414 
G01 X2.5006 Y21.0447 
G01 X2.4835 Y21.0413 
G01 X2.4571 Y21.0342 
G01 X2.4477 Y21.0342 
G01 X2.4385 Y21.0324 
G01 X2.4111 Y21.0342 
G01 X2.3937 Y21.0342 
G01 X2.3782 Y21.0278 
G01 X2.3533 Y21.0155 
G01 X2.3444 Y21.0138 
G01 X2.3361 Y21.0103 
G01 X2.3086 Y21.0067 
G01 X2.2921 Y21.0034 
G01 X2.2776 Y20.9938 
G01 X2.2559 Y20.9771 
G01 X2.2472 Y20.9735 
G01 X2.2394 Y20.9683 
G01 X2.2135 Y20.9595 
G01 X2.1974 Y20.9529 
G01 X2.1855 Y20.9410 
G01 X2.1672 Y20.9202 
G01 X2.1597 Y20.9151 
G01 X2.1532 Y20.9087 
G01 X2.1293 Y20.8949 
G01 X1.9874 Y20.8003 
G01 X1.9811 Y20.7940 
G01 X1.9570 Y20.7800 
G01 X1.9338 Y20.7645 
G01 X1.9253 Y20.7617 
G01 X1.9177 Y20.7572 
G01 X1.8907 Y20.7500 
G01 X1.8643 Y20.7410 
G01 X1.8554 Y20.7404 
G01 X1.8468 Y20.7381 
G01 X1.8189 Y20.7381 
G01 X1.7911 Y20.7363 
G01 X1.7823 Y20.7380 
G01 X1.7735 Y20.7380 
G01 X1.7465 Y20.7452 
G01 X1.7191 Y20.7507 
G01 X1.7112 Y20.7546 
G01 X1.7026 Y20.7569 
G01 X1.6784 Y20.7708 
G01 X1.6534 Y20.7832 
G01 X1.6467 Y20.7891 
G01 X1.6390 Y20.7935 
G01 X1.6192 Y20.8132 
G01 X1.5983 Y20.8316 
G01 X1.5933 Y20.8390 
G01 X1.5871 Y20.8453 
G01 X1.5731 Y20.8694 
G01 X1.5576 Y20.8927 
G01 X1.5547 Y20.9011 
G01 X1.5503 Y20.9088 
G01 X1.5430 Y20.9357 
G01 X1.5341 Y20.9622 
G01 X1.5335 Y20.9710 
G01 X1.5312 Y20.9796 
G01 X1.5312 Y21.0075 
G01 X1.5294 Y21.0354 
G01 X1.5311 Y21.0441 
G01 X1.5284 Y22.8797 
G01 X1.5260 Y22.8969 
G01 X1.5284 Y22.9163 
G01 X1.5283 Y22.9357 
G01 X1.5328 Y22.9525 
G01 X1.5349 Y22.9697 
G01 X1.5422 Y22.9878 
G01 X1.5472 Y23.0066 
G01 X1.5559 Y23.0217 
G01 X1.5624 Y23.0378 
G01 X1.5741 Y23.0533 
G01 X1.5838 Y23.0702 
G01 X1.5961 Y23.0825 
G01 X1.6065 Y23.0964 
G01 X1.6218 Y23.1084 
G01 X1.6356 Y23.1221 
G01 X1.6506 Y23.1308 
G01 X1.6643 Y23.1415 
G01 X1.6822 Y23.1492 
G01 X1.6991 Y23.1589 
G01 X1.7158 Y23.1634 
G01 X1.7318 Y23.1702 
G01 X1.7511 Y23.1729 
G01 X1.7699 Y23.1780 
G01 X1.7873 Y23.1780 
G01 X1.8044 Y23.1804 
G01 X1.8238 Y23.1781 
G01 X1.8433 Y23.1781 
G01 X1.8600 Y23.1736 
G01 X1.8773 Y23.1715 
G01 X1.8953 Y23.1642 
G01 X1.9141 Y23.1592 
G01 X1.9292 Y23.1506 
G01 X1.9453 Y23.1441 
G01 X1.9608 Y23.1324 
G01 X1.9777 Y23.1226 
G01 X1.9900 Y23.1104 
G01 X2.1395 Y22.9978 
G01 X2.1566 Y22.9879 
G01 X2.1687 Y22.9758 
G01 X2.1824 Y22.9655 
G01 X2.1946 Y22.9500 
G01 X2.2174 Y22.9271 
G01 X2.2518 Y22.9132 
G01 X2.2821 Y22.8904 
G01 X2.2849 Y22.8890 
G01 X2.3202 Y22.8799 
G01 X2.3547 Y22.8710 
G01 X2.3874 Y22.8524 
G01 X2.4185 Y22.8349 
G01 X2.4455 Y22.8084 
G01 X2.4708 Y22.7835 
G01 X2.8399 Y22.4140 
G01 X3.6401 Y22.4140 
G01 X4.2060 Y22.9799 
G01 X4.2060 Y23.7801 
G01 X3.6401 Y24.3460 
G01 X2.8399 Y24.3460 
G01 X2.7179 Y24.2240 
G01 X2.7076 Y24.2103 
G01 X2.6921 Y24.1982 
G01 X2.6782 Y24.1843 
G01 X2.6633 Y24.1757 
G01 X2.6498 Y24.1651 
G01 X2.6317 Y24.1575 
G01 X2.6146 Y24.1476 
G01 X2.5981 Y24.1432 
G01 X2.5823 Y24.1365 
G01 X2.5628 Y24.1337 
G01 X2.5438 Y24.1286 
G01 X2.5266 Y24.1286 
G01 X2.5096 Y24.1262 
G01 X2.4901 Y24.1286 
G01 X2.4704 Y24.1286 
G01 X2.4539 Y24.1331 
G01 X2.4368 Y24.1351 
G01 X2.4186 Y24.1425 
G01 X2.3996 Y24.1476 
G01 X2.3847 Y24.1562 
G01 X2.3688 Y24.1626 
G01 X2.3531 Y24.1744 
G01 X2.3360 Y24.1843 
G01 X2.3239 Y24.1964 
G01 X1.6501 Y24.7038 
G01 X1.6333 Y24.7135 
G01 X1.6210 Y24.7258 
G01 X1.6071 Y24.7362 
G01 X1.5951 Y24.7516 
G01 X1.5813 Y24.7653 
G01 X1.5726 Y24.7803 
G01 X1.5619 Y24.7940 
G01 X1.5543 Y24.8119 
G01 X1.5445 Y24.8288 
G01 X1.5400 Y24.8456 
G01 X1.5332 Y24.8615 
G01 X1.5305 Y24.8808 
G01 X1.5255 Y24.8996 
G01 X1.5254 Y24.9170 
G01 X1.5230 Y24.9342 
G01 X1.5254 Y24.9535 
G01 X1.5069 Y37.5936 
G01 X1.5068 Y37.6302 
G01 X1.5068 Y37.6651 
G01 X1.5073 Y37.6687 
G01 X1.5167 Y37.7023 
G01 X1.5256 Y37.7360 
G01 X1.5271 Y37.7394 
G01 X1.5448 Y37.7693 
G01 X1.5622 Y37.7996 
G01 X1.5645 Y37.8025 
G01 X1.5894 Y37.8268 
G01 X1.6140 Y37.8515 
G01 X18.8470 Y54.6945 
G01 X18.8573 Y54.7079 
G01 X18.8732 Y54.7200 
G01 X18.8875 Y54.7340 
G01 X18.8920 Y54.7365 
G01 X18.9497 Y54.7942 
G01 X18.9757 Y54.8202 
G01 X19.0004 Y54.8449 
G01 X19.0517 Y54.8945 
G01 X19.0783 Y54.9589 
G01 X19.0923 Y54.9926 
G01 X19.1058 Y55.0251 
G01 X19.1342 Y55.0906 
G01 X19.1342 Y55.1603 
G01 X19.1342 Y55.1969 
G01 X19.1342 Y55.2320 
G01 X19.1355 Y55.3151 
G01 X19.1342 Y55.3202 
G01 X19.1342 Y55.3402 
G01 X19.1318 Y55.3600 
G01 X19.1342 Y55.3767 
G01 X19.1342 Y62.8851 
G01 X19.1532 Y62.9560 
G01 X19.1899 Y63.0195 
G01 X19.2143 Y63.0440 
G01 X19.3498 Y63.3710 
G01 X19.3498 Y65.2490 
G01 X19.2143 Y65.5760 
G01 X18.9640 Y65.8263 
G01 X18.6370 Y65.9618 
G01 X18.2830 Y65.9618 
G01 X17.9560 Y65.8263 
G01 X17.7057 Y65.5760 
G01 X17.5702 Y65.2490 
G01 X17.5702 Y63.3710 
G01 X17.7057 Y63.0440 
G01 X17.9583 Y62.7914 
G01 X18.0101 Y62.7395 
G01 X18.0468 Y62.6760 
G01 X18.0658 Y62.6051 
G01 X18.0658 Y55.5772 
G01 X18.0658 Y55.5406 
G01 X18.0658 Y55.5054 
G01 X18.0654 Y55.5023 
G01 X18.0559 Y55.4685 
G01 X18.0468 Y55.4346 
G01 X18.0456 Y55.4316 
G01 X18.0277 Y55.4015 
G01 X18.0101 Y55.3711 
G01 X17.9831 Y55.3441 
G01 X17.9583 Y55.3192 
G01 X1.9782 Y39.7008 
G01 X1.9535 Y39.6760 
G01 X1.9506 Y39.6738 
G01 X1.9203 Y39.6568 
G01 X1.8900 Y39.6393 
G01 X1.8867 Y39.6379 
G01 X1.8530 Y39.6293 
G01 X1.8192 Y39.6202 
G01 X1.8156 Y39.6197 
G01 X1.7808 Y39.6201 
G01 X1.7458 Y39.6201 
G01 X1.7422 Y39.6206 
G01 X1.7086 Y39.6300 
G01 X1.6749 Y39.6389 
G01 X1.6716 Y39.6403 
G01 X1.6417 Y39.6581 
G01 X1.6114 Y39.6755 
G01 X1.6085 Y39.6778 
G01 X1.5842 Y39.7027 
G01 X1.5594 Y39.7273 
G01 X1.5572 Y39.7302 
G01 X1.5402 Y39.7605 
G01 X1.5226 Y39.7908 
G01 X1.5213 Y39.7942 
G01 X1.5127 Y39.8278 
G01 X1.5036 Y39.8616 
G01 X1.5031 Y39.8652 
G01 X1.5035 Y39.9000 
G01 X1.4848 Y52.6903 
G01 X1.4847 Y52.7272 
G01 X1.4847 Y52.7635 
G01 X1.4943 Y52.7997 
G01 X1.5035 Y52.8344 
G01 X1.5221 Y52.8666 
G01 X1.5401 Y52.8980 
G01 X1.5661 Y52.9240 
G01 X1.5919 Y52.9499 
G01 X1.6233 Y52.9681 
G01 X1.6554 Y52.9867 
G01 X1.6903 Y52.9961 
G01 X1.7262 Y53.0058 
G01 X1.7629 Y53.0058 
G01 X1.7996 Y53.0059 
G01 X1.8358 Y52.9962 
G01 X1.8705 Y52.9870 
G01 X1.9027 Y52.9684 
G01 X1.9341 Y52.9504 
G01 X2.2594 Y52.7625 
G01 X2.9055 Y52.5894 
G01 X3.5745 Y52.5894 
G01 X4.2206 Y52.7625 
G01 X4.8000 Y53.0970 
G01 X5.2730 Y53.5700 
G01 X5.6075 Y54.1494 
G01 X5.7806 Y54.7955 
G01 X5.7806 Y55.4645 
G01 X5.6075 Y56.1106 
G01 X5.2730 Y56.6900 
G01 X4.8000 Y57.1630 
G01 X4.2206 Y57.4975 
G01 X3.5745 Y57.6706 
G01 X2.9055 Y57.6706 
G01 X2.2594 Y57.4975 
G01 X1.8963 Y57.2879 
G01 X1.8642 Y57.2693 
G01 X1.8294 Y57.2599 
G01 X1.7934 Y57.2502 
G01 X1.7567 Y57.2501 
G01 X1.7200 Y57.2501 
G01 X1.6838 Y57.2597 
G01 X1.6491 Y57.2689 
G01 X1.6170 Y57.2874 
G01 X1.5856 Y57.3055 
G01 X1.5596 Y57.3314 
G01 X1.5336 Y57.3573 
G01 X1.5155 Y57.3887 
G01 X1.4968 Y57.4208 
G01 X1.4874 Y57.4556 
G01 X1.4777 Y57.4916 
G01 X1.4777 Y57.5279 
G01 X1.4624 Y67.9539 
G01 X1.4624 Y67.9908 
G01 X1.4623 Y68.0271 
G01 X1.4720 Y68.0633 
G01 X1.4812 Y68.0980 
G01 X1.4997 Y68.1301 
G01 X1.5178 Y68.1615 
G01 X1.5443 Y68.1881 
G01 X1.5696 Y68.2135 
G01 X1.6025 Y68.2326 
G01 X1.6331 Y68.2503 
G01 X1.6690 Y68.2599 
G01 X1.7039 Y68.2693 
G01 X1.7406 Y68.2694 
G01 X1.7772 Y68.2695 
G01 X52.8341 Y68.2694 
G01 X52.8702 Y68.2695 
G01 X52.9063 Y68.2599 
G01 X52.9411 Y68.2507 
G01 X52.9736 Y68.2321 
G01 X53.0048 Y68.2142 
G01 X53.0310 Y68.1881 
G01 X53.0568 Y68.1625 
G01 X53.0757 Y68.1300 
G01 X53.0937 Y68.0991 
G01 X53.1035 Y68.0627 
G01 X53.1129 Y68.0283 
G01 X53.1130 Y67.9910 
G01 X53.1471 Y56.3623 
G01 X53.1472 Y56.3255 
G01 X53.1473 Y56.2893 
G01 X53.1378 Y56.2537 
G01 X53.1285 Y56.2184 
G01 X53.1103 Y56.1868 
G01 X53.0920 Y56.1548 
G01 X53.0661 Y56.1288 
G01 X53.0403 Y56.1027 
G01 X53.0077 Y56.0838 
G01 X52.9769 Y56.0659 
G01 X52.9405 Y56.0560 
G01 X52.9061 Y56.0467 
G01 X52.8688 Y56.0466 
G01 X52.8327 Y56.0465 
G01 X52.7971 Y56.0559 
G01 X52.7618 Y56.0653 
G01 X52.7302 Y56.0834 
G01 X52.6982 Y56.1017 
G01 X52.4806 Y56.2275 
G01 X51.8345 Y56.4006 
G01 X51.1655 Y56.4006 
G01 X50.5194 Y56.2275 
G01 X49.9400 Y55.8930 
G01 X49.4670 Y55.4200 
G01 X49.1325 Y54.8406 
G01 X48.9594 Y54.1945 
G01 X48.9594 Y53.5255 
G01 X49.1325 Y52.8794 
G01 X49.4670 Y52.3000 
G01 X49.9400 Y51.8270 
G01 X50.5194 Y51.4925 
G01 X51.1655 Y51.3194 
G01 X51.8345 Y51.3194 
G01 X52.4806 Y51.4925 
G01 X52.7430 Y51.6440 
G01 X52.7747 Y51.6624 
G01 X52.8106 Y51.6722 
G01 X52.8455 Y51.6816 
G01 X52.8827 Y51.6817 
G01 X52.9189 Y51.6818 
G01 X52.9550 Y51.6723 
G01 X52.9898 Y51.6631 
G01 X53.0222 Y51.6445 
G01 X53.0534 Y51.6266 
G01 X53.0794 Y51.6007 
G01 X53.1054 Y51.5749 
G01 X53.1239 Y51.5431 
G01 X53.1423 Y51.5114 
G01 X53.1520 Y51.4756 
G01 X53.1615 Y51.4406 
G01 X53.1616 Y51.4033 
G01 X53.3057 Y2.2443 
G01 X53.3058 Y2.2070 
G01 X53.3059 Y2.1711 
G01 X53.2962 Y2.1343 
G01 X53.2872 Y2.1001 
G01 X53.2684 Y2.0674 
G01 X53.2507 Y2.0365 
G01 X53.2251 Y2.0108 
G01 X53.1989 Y1.9845 
G01 X53.1673 Y1.9661 
G01 X53.1355 Y1.9476 
G01 X53.0993 Y1.9378 
G01 X53.0647 Y1.9284 
G01 X53.0274 Y1.9283 
G01 X52.9914 Y1.9282 
G01 X38.9800 Y1.9021 
G01 X38.9437 Y1.9021 
G01 X38.9069 Y1.9020 
G01 X38.8722 Y1.9112 
G01 X38.8360 Y1.9208 
G01 X38.8046 Y1.9389 
G01 X38.7724 Y1.9574 
G01 X38.7460 Y1.9837 
G01 X38.7204 Y2.0092 
G01 X38.7014 Y2.0420 
G01 X38.6836 Y2.0726 
G01 X38.6738 Y2.1088 
G01 X38.6645 Y2.1435 
G01 X38.6644 Y2.1802 
G01 X38.6644 Y2.2168 
G01 X38.6737 Y2.2519 
G01 X38.6832 Y2.2877 
G01 X38.8006 Y2.7255 
G01 X38.8006 Y3.3945 
G01 X38.6275 Y4.0406 
G01 X38.2930 Y4.6200 
G01 X38.1487 Y4.7643 
G01 X38.0968 Y4.8161 
G01 X38.0601 Y4.8797 
G01 X38.0460 Y4.9323 
G01 X38.0411 Y4.9505 
G01 X38.0411 Y5.0239 
G01 X38.0601 Y5.0947 
G01 X38.0968 Y5.1583 
G01 X38.1487 Y5.2101 
G01 X38.2122 Y5.2468 
G01 X38.2649 Y5.2609 
G01 X38.2831 Y5.2658 
G01 X46.7263 Y5.2658 
G01 X46.9226 Y5.3471 
G01 X47.0861 Y5.5106 
G01 X50.0325 Y8.4570 
G01 X50.0843 Y8.5089 
G01 X50.1479 Y8.5455 
G01 X50.2187 Y8.5645 
G01 X50.2921 Y8.5645 
G01 X50.3629 Y8.5455 
G01 X50.4265 Y8.5089 
G01 X50.4783 Y8.4570 
G01 X50.5150 Y8.3935 
G01 X50.5340 Y8.3226 
G01 X50.5340 Y7.7399 
G01 X51.0999 Y7.1740 
G01 X51.9001 Y7.1740 
G01 X52.4660 Y7.7399 
G01 X52.4660 Y8.5401 
G01 X51.9001 Y9.1060 
G01 X51.3174 Y9.1060 
G01 X51.2465 Y9.1250 
G01 X51.1830 Y9.1617 
G01 X51.1311 Y9.2135 
G01 X51.0945 Y9.2771 
G01 X51.0755 Y9.3479 
G01 X51.0755 Y9.4213 
G01 X51.0945 Y9.4921 
G01 X51.1311 Y9.5557 
G01 X51.1819 Y9.6065 
G01 X51.2338 Y9.6583 
G01 X51.2973 Y9.6950 
G01 X51.3682 Y9.7140 
G01 X51.9001 Y9.7140 
G01 X52.4660 Y10.2799 
G01 X52.4660 Y11.0801 
G01 X51.9001 Y11.6460 
G01 X51.3174 Y11.6460 
G01 X51.2465 Y11.6650 
G01 X51.1830 Y11.7017 
G01 X51.1311 Y11.7535 
G01 X51.0945 Y11.8171 
G01 X51.0755 Y11.8879 
G01 X51.0755 Y11.9613 
G01 X51.0945 Y12.0321 
G01 X51.1311 Y12.0957 
G01 X51.1819 Y12.1465 
G01 X51.2338 Y12.1983 
G01 X51.2973 Y12.2350 
G01 X51.3682 Y12.2540 
G01 X51.9001 Y12.2540 
G01 X52.4660 Y12.8199 
G01 X52.4660 Y13.6201 
G01 X51.9001 Y14.1860 
G01 X51.0999 Y14.1860 
G01 X50.5340 Y13.6201 
G01 X50.5340 Y13.0882 
G01 X50.5150 Y13.0173 
G01 X50.4788 Y12.9546 
G01 X45.6663 Y8.1417 
G01 X45.6144 Y8.0899 
G01 X45.5509 Y8.0532 
G01 X45.4800 Y8.0342 
G01 X34.5299 Y8.0342 
G01 X34.4591 Y8.0532 
G01 X34.3955 Y8.0899 
G01 X34.3445 Y8.1409 
G01 X34.3070 Y8.2053 
G01 X34.2880 Y8.2761 
G01 X34.2880 Y8.3495 
G01 X34.3070 Y8.4203 
G01 X34.3437 Y8.4839 
G01 X34.3955 Y8.5357 
G01 X34.9176 Y9.0578 
G01 X34.9176 Y9.1706 
G01 X34.8144 Y9.1706 
G01 X34.8144 Y9.1005 
G01 X34.2495 Y8.5356 
G01 X33.4505 Y8.5356 
G01 X32.8856 Y9.1005 
G01 X32.8856 Y9.8995 
G01 X33.4505 Y10.4644 
G01 X33.5206 Y10.4644 
G01 X33.5206 Y10.5676 
G01 X33.4078 Y10.5676 
G01 X32.7159 Y9.8758 
G01 X32.6516 Y9.8383 
G01 X32.5808 Y9.8193 
G01 X32.5074 Y9.8193 
G01 X32.4365 Y9.8383 
G01 X32.3730 Y9.8750 
G01 X32.3211 Y9.9268 
G01 X31.7312 Y10.5168 
G01 X30.8888 Y10.5168 
G01 X30.2629 Y9.8909 
G01 X30.2111 Y9.8390 
G01 X30.1475 Y9.8024 
G01 X30.0767 Y9.7834 
G01 X30.0033 Y9.7834 
G01 X29.9325 Y9.8024 
G01 X29.8689 Y9.8390 
G01 X29.1912 Y10.5168 
G01 X28.3488 Y10.5168 
G01 X27.7229 Y9.8909 
G01 X27.6711 Y9.8390 
G01 X27.6075 Y9.8024 
G01 X27.5367 Y9.7834 
G01 X27.4633 Y9.7834 
G01 X27.3925 Y9.8024 
G01 X27.3289 Y9.8390 
G01 X26.8717 Y10.2962 
G01 X26.8199 Y10.3481 
G01 X26.7832 Y10.4116 
G01 X26.7642 Y10.4825 
G01 X26.7642 Y10.8763 
G01 X26.6829 Y11.0726 
G01 X26.5193 Y11.2361 
G01 X24.3026 Y13.4529 
G01 X24.1063 Y13.5342 
G01 X4.3706 Y13.5342 
G01 X4.2998 Y13.5532 
G01 X4.2363 Y13.5899 
G01 X3.6401 Y14.1860 
G01 X2.8399 Y14.1860 
G01 X2.2740 Y13.6201 
G01 X2.2740 Y12.8199 
G01 X2.8399 Y12.2540 
G01 X3.3493 Y12.2540 
G01 X3.3718 Y12.2540 
G01 X3.4226 Y12.2540 
G01 X3.4465 Y12.2476 
G01 X3.4935 Y12.2350 
G01 X3.5086 Y12.2263 
G01 X3.5570 Y12.1983 
G01 X3.5649 Y12.1905 
G01 X3.6089 Y12.1465 
G01 X3.6148 Y12.1361 
G01 X3.6455 Y12.0829 
G01 X3.6473 Y12.0762 
G01 X3.6645 Y12.0121 
G01 X3.6645 Y11.9895 
G01 X3.6645 Y11.9387 
G01 X3.6581 Y11.9148 
G01 X3.6455 Y11.8679 
G01 X3.6368 Y11.8527 
G01 X3.6089 Y11.8043 
G01 X3.6012 Y11.7967 
G01 X3.5570 Y11.7525 
G01 X3.5062 Y11.7017 
G01 X3.4427 Y11.6650 
G01 X3.3718 Y11.6460 
G01 X2.8399 Y11.6460 
G01 X2.2740 Y11.0801 
G01 X2.2740 Y10.2799 
G01 X2.8399 Y9.7140 
G01 X3.6401 Y9.7140 
G01 X4.2060 Y10.2799 
G01 X4.2060 Y10.7239 
G01 X4.2250 Y10.7947 
G01 X4.2617 Y10.8583 
G01 X4.3135 Y10.9101 
G01 X4.3771 Y10.9468 
G01 X4.4479 Y10.9658 
G01 X20.5419 Y10.9658 
G01 X20.6128 Y10.9468 
G01 X20.6763 Y10.9101 
G01 X20.7274 Y10.8591 
G01 X20.7648 Y10.7947 
G01 X20.7838 Y10.7239 
G01 X20.7838 Y10.6505 
G01 X20.7648 Y10.5797 
G01 X20.7282 Y10.5161 
G01 X20.6763 Y10.4643 
G01 X20.1332 Y9.9212 
G01 X20.1332 Y9.0788 
G01 X20.5083 Y8.7038 
G01 X20.5601 Y8.6519 
G01 X20.5968 Y8.5884 
G01 X20.6158 Y8.5175 
G01 X20.6158 Y7.9500 
G01 X20.5968 Y7.8791 
G01 X20.5601 Y7.8156 
G01 X18.8863 Y6.1417 
G01 X18.8344 Y6.0899 
G01 X18.7709 Y6.0532 
G01 X18.7000 Y6.0342 
G01 X18.5543 Y6.0342 
G01 X18.4835 Y6.0532 
G01 X18.4199 Y6.0899 
G01 X18.1047 Y6.4051 
G01 X17.7124 Y6.5676 
G01 X17.2876 Y6.5676 
G01 X16.8953 Y6.4051 
G01 X16.5949 Y6.1047 
G01 X16.4734 Y5.8112 
G01 X16.4287 Y5.7530 
G01 X16.3705 Y5.7084 
G01 X16.3027 Y5.6803 
G01 X16.2300 Y5.6707 
G01 X16.1573 Y5.6803 
G01 X16.0895 Y5.7084 
G01 X16.0313 Y5.7530 
G01 X15.9866 Y5.8112 
G01 X15.9586 Y5.8790 
G01 X15.8651 Y6.1047 
G01 X15.5647 Y6.4051 
G01 X15.1724 Y6.5676 
G01 X14.7476 Y6.5676 
G01 X14.3553 Y6.4051 
G01 X14.0549 Y6.1047 
G01 X13.9334 Y5.8112 
G01 X13.8887 Y5.7530 
G01 X13.8305 Y5.7084 
G01 X13.7627 Y5.6803 
G01 X13.6900 Y5.6707 
G01 X13.6173 Y5.6803 
G01 X13.5495 Y5.7084 
G01 X13.4913 Y5.7530 
G01 X13.4466 Y5.8112 
G01 X13.4186 Y5.8790 
G01 X13.3251 Y6.1047 
G01 X13.0247 Y6.4051 
G01 X12.6324 Y6.5676 
G01 X12.2076 Y6.5676 
G01 X11.8153 Y6.4051 
G01 X11.5149 Y6.1047 
G01 X11.4464 Y5.9393 
G01 X11.4441 Y5.9284 
G01 X11.4324 Y5.9055 
G01 X11.4226 Y5.8817 
G01 X11.4158 Y5.8729 
G01 X11.4108 Y5.8631 
G01 X11.3936 Y5.8440 
G01 X11.3779 Y5.8235 
G01 X11.3691 Y5.8168 
G01 X11.3617 Y5.8085 
G01 X11.3401 Y5.7946 
G01 X11.3197 Y5.7789 
G01 X11.3095 Y5.7746 
G01 X11.3002 Y5.7686 
G01 X11.2757 Y5.7607 
G01 X11.2519 Y5.7508 
G01 X11.2409 Y5.7494 
G01 X11.2304 Y5.7459 
G01 X11.2047 Y5.7446 
G01 X11.1792 Y5.7412 
G01 X11.1682 Y5.7427 
G01 X11.1571 Y5.7421 
G01 X11.1320 Y5.7474 
G01 X11.1065 Y5.7508 
G01 X11.0962 Y5.7550 
G01 X11.0854 Y5.7574 
G01 X11.0625 Y5.7690 
G01 X11.0387 Y5.7789 
G01 X11.0299 Y5.7856 
G01 X11.0200 Y5.7907 
G01 X11.0009 Y5.8079 
G01 X10.9805 Y5.8235 
G01 X10.9737 Y5.8323 
G01 X10.9655 Y5.8397 
G01 X10.9515 Y5.8613 
G01 X10.9358 Y5.8817 
G01 X10.9316 Y5.8920 
G01 X10.9256 Y5.9013 
G01 X10.9176 Y5.9257 
G01 X10.9147 Y5.9327 
G01 X10.8365 Y6.0862 
G01 X10.7331 Y6.2286 
G01 X10.6086 Y6.3531 
G01 X10.4662 Y6.4565 
G01 X10.3093 Y6.5365 
G01 X10.2094 Y6.5689 
G01 X10.2094 Y6.4624 
G01 X10.3609 Y6.3997 
G01 X10.5272 Y6.2886 
G01 X10.6686 Y6.1471 
G01 X10.7797 Y5.9809 
G01 X10.8562 Y5.7961 
G01 X10.8952 Y5.6000 
G01 X10.8952 Y5.4000 
G01 X10.8562 Y5.2039 
G01 X10.7797 Y5.0191 
G01 X10.6686 Y4.8528 
G01 X10.5272 Y4.7114 
G01 X10.3609 Y4.6003 
G01 X10.1761 Y4.5238 
G01 X9.9800 Y4.4848 
G01 X9.7800 Y4.4848 
G01 X9.5839 Y4.5238 
G01 X9.3991 Y4.6003 
G01 X9.2328 Y4.7114 
G01 X9.0914 Y4.8528 
G01 X8.9803 Y5.0191 
G01 X8.9176 Y5.1706 
G01 X8.8111 Y5.1706 
G01 X8.8435 Y5.0707 
G01 X8.9072 Y4.9458 
G01 X8.9219 Y4.9203 
G01 X8.9238 Y4.9132 
G01 X8.9271 Y4.9066 
G01 X8.9332 Y4.8779 
G01 X8.9409 Y4.8495 
G01 X8.9409 Y4.8421 
G01 X8.9424 Y4.8348 
G01 X8.9409 Y4.8055 
G01 X8.9409 Y4.7761 
G01 X8.9389 Y4.7690 
G01 X8.9386 Y4.7616 
G01 X8.9295 Y4.7336 
G01 X8.9219 Y4.7053 
G01 X8.9182 Y4.6989 
G01 X8.9159 Y4.6918 
G01 X8.8999 Y4.6672 
G01 X8.8852 Y4.6417 
G01 X8.8800 Y4.6365 
G01 X8.8759 Y4.6303 
G01 X8.8541 Y4.6107 
G01 X8.8333 Y4.5899 
G01 X8.8269 Y4.5862 
G01 X8.8214 Y4.5812 
G01 X8.7953 Y4.5679 
G01 X8.7698 Y4.5532 
G01 X8.7626 Y4.5513 
G01 X8.7561 Y4.5479 
G01 X8.7273 Y4.5418 
G01 X8.6989 Y4.5342 
G01 X8.6915 Y4.5342 
G01 X8.6843 Y4.5327 
G01 X8.6550 Y4.5342 
G01 X7.6800 Y4.5342 
G01 X7.6091 Y4.5532 
G01 X7.5456 Y4.5899 
G01 X4.3135 Y7.8219 
G01 X4.2617 Y7.8738 
G01 X4.2250 Y7.9373 
G01 X4.2060 Y8.0082 
G01 X4.2060 Y8.5401 
G01 X3.6401 Y9.1060 
G01 X2.8399 Y9.1060 
G01 X2.2740 Y8.5401 
G01 X2.2740 Y7.7399 
G01 X2.8399 Y7.1740 
G01 X3.3718 Y7.1740 
G01 X3.4279 Y7.1590 
G01 X3.4426 Y7.1550 
G01 X3.5062 Y7.1183 
G01 X3.5567 Y7.0678 
G01 X3.6089 Y7.0157 
G01 X3.6455 Y6.9521 
G01 X3.6570 Y6.9094 
G01 X3.6645 Y6.8813 
G01 X3.6645 Y6.8079 
G01 X3.6491 Y6.7502 
G01 X3.6455 Y6.7371 
G01 X3.6089 Y6.6735 
G01 X3.5570 Y6.6217 
G01 X3.4935 Y6.5850 
G01 X3.4507 Y6.5735 
G01 X3.4226 Y6.5660 
G01 X2.8399 Y6.5660 
G01 X2.2740 Y6.0001 
G01 X2.2740 Y5.1999 
G01 X2.8399 Y4.6340 
G01 X3.3718 Y4.6340 
G01 X3.4427 Y4.6150 
G01 X3.5062 Y4.5783 
G01 X5.0488 Y3.0357 
G01 X5.1007 Y2.9839 
G01 X5.1373 Y2.9203 
G01 X5.1563 Y2.8495 
G01 X5.1563 Y2.7761 
G01 X5.1373 Y2.7053 
G01 X5.1007 Y2.6417 
G01 X5.0488 Y2.5899 
G01 X4.9853 Y2.5532 
G01 X4.9144 Y2.5342 
G01 X2.2002 Y2.5342 
G01 X2.1720 Y2.5325 
G01 X2.1637 Y2.5342 
G01 X2.1552 Y2.5342 
G01 X2.1278 Y2.5415 
G01 X2.1001 Y2.5472 
G01 X2.0925 Y2.5510 
G01 X2.0843 Y2.5532 
G01 X2.0598 Y2.5674 
G01 X1.7370 Y2.7288 
G01 X1.7290 Y2.7309 
G01 X1.7042 Y2.7451 
G01 X1.6787 Y2.7579 
G01 X1.6726 Y2.7634 
G01 X1.6654 Y2.7675 
G01 X1.6452 Y2.7877 
G01 X1.6238 Y2.8066 
G00 Z3.0000 
G00 X2.3264 Y5.2216 
G01 Z-0.1100 F500.00 
G01 X2.3264 Y5.9784 F500.00 
G01 X2.8616 Y6.5136 
G01 X3.6184 Y6.5136 
G01 X4.1536 Y5.9784 
G01 X4.1536 Y5.3678 
G01 X6.0396 Y3.4818 
G01 X13.8004 Y3.4818 
G01 X14.4782 Y4.1596 
G01 X14.4782 Y4.6010 
G01 X14.3128 Y4.7114 
G01 X14.1714 Y4.8528 
G01 X14.0603 Y5.0191 
G01 X13.9838 Y5.2039 
G01 X13.9448 Y5.4000 
G01 X13.9448 Y5.6000 
G01 X13.9838 Y5.7961 
G01 X14.0603 Y5.9809 
G01 X14.1714 Y6.1471 
G01 X14.3128 Y6.2886 
G01 X14.4791 Y6.3997 
G01 X14.6639 Y6.4762 
G01 X14.8600 Y6.5152 
G01 X15.0600 Y6.5152 
G01 X15.2561 Y6.4762 
G01 X15.4409 Y6.3997 
G01 X15.6072 Y6.2886 
G01 X15.7486 Y6.1471 
G01 X15.8597 Y5.9809 
G01 X15.9362 Y5.7961 
G01 X15.9752 Y5.6000 
G01 X15.9752 Y5.4000 
G01 X15.9362 Y5.2039 
G01 X15.8597 Y5.0191 
G01 X15.7486 Y4.8528 
G01 X15.6072 Y4.7114 
G01 X15.4418 Y4.6010 
G01 X15.4418 Y3.8966 
G01 X15.4090 Y3.7740 
G01 X15.3455 Y3.6642 
G01 X15.2558 Y3.5745 
G01 X14.2958 Y2.6145 
G01 X14.1860 Y2.5510 
G01 X14.0634 Y2.5182 
G01 X5.7766 Y2.5182 
G01 X5.6540 Y2.5510 
G01 X5.5442 Y2.6145 
G01 X5.4545 Y2.7042 
G01 X3.4722 Y4.6864 
G01 X2.8616 Y4.6864 
G01 X2.3264 Y5.2216 
G00 Z3.0000 
G00 X2.3264 Y7.7616 
G01 Z-0.1100 F500.00 
G01 X2.3264 Y8.5184 F500.00 
G01 X2.8616 Y9.0536 
G01 X3.6184 Y9.0536 
G01 X4.1536 Y8.5184 
G01 X4.1536 Y7.9078 
G01 X7.5796 Y4.4818 
G01 X10.8004 Y4.4818 
G01 X11.4669 Y5.1482 
G01 X11.4438 Y5.2039 
G01 X11.4048 Y5.4000 
G01 X11.4048 Y5.6000 
G01 X11.4438 Y5.7961 
G01 X11.5203 Y5.9809 
G01 X11.6314 Y6.1471 
G01 X11.7728 Y6.2886 
G01 X11.9391 Y6.3997 
G01 X12.1239 Y6.4762 
G01 X12.3200 Y6.5152 
G01 X12.5200 Y6.5152 
G01 X12.7161 Y6.4762 
G01 X12.9009 Y6.3997 
G01 X13.0671 Y6.2886 
G01 X13.2086 Y6.1471 
G01 X13.3197 Y5.9809 
G01 X13.3962 Y5.7961 
G01 X13.4352 Y5.6000 
G01 X13.4352 Y5.4000 
G01 X13.3962 Y5.2039 
G01 X13.3197 Y5.0191 
G01 X13.2086 Y4.8528 
G01 X13.0671 Y4.7114 
G01 X12.9009 Y4.6003 
G01 X12.7161 Y4.5238 
G01 X12.5200 Y4.4848 
G01 X12.3200 Y4.4848 
G01 X12.1917 Y4.5103 
G01 X11.2958 Y3.6145 
G01 X11.1860 Y3.5510 
G01 X11.0634 Y3.5182 
G01 X7.3166 Y3.5182 
G01 X7.1940 Y3.5510 
G01 X7.0842 Y3.6145 
G01 X6.9945 Y3.7042 
G01 X3.4722 Y7.2264 
G01 X2.8616 Y7.2264 
G01 X2.3264 Y7.7616 
G00 Z3.0000 
G00 X2.3264 Y10.3016 
G01 Z-0.1100 F500.00 
G01 X2.3264 Y11.0584 F500.00 
G01 X2.8616 Y11.5936 
G01 X3.4722 Y11.5936 
G01 X3.6745 Y11.7958 
G01 X3.7642 Y11.8855 
G01 X3.8740 Y11.9490 
G01 X3.9966 Y11.9818 
G01 X22.0634 Y11.9818 
G01 X22.1860 Y11.9490 
G01 X22.2958 Y11.8855 
G01 X23.7170 Y10.4644 
G01 X24.0895 Y10.4644 
G01 X24.6544 Y9.8995 
G01 X24.6544 Y9.1005 
G01 X24.0895 Y8.5356 
G01 X23.2905 Y8.5356 
G01 X22.7256 Y9.1005 
G01 X22.7256 Y9.8995 
G01 X22.8224 Y9.9962 
G01 X21.8004 Y11.0182 
G01 X4.2596 Y11.0182 
G01 X4.1536 Y10.9122 
G01 X4.1536 Y10.3016 
G01 X3.6184 Y9.7664 
G01 X2.8616 Y9.7664 
G01 X2.3264 Y10.3016 
G00 Z3.0000 
G00 X2.3264 Y12.8416 
G01 Z-0.1100 F500.00 
G01 X2.3264 Y13.5984 F500.00 
G01 X2.8616 Y14.1336 
G01 X3.6184 Y14.1336 
G01 X4.1536 Y13.5984 
G01 X4.1536 Y13.4818 
G01 X24.0634 Y13.4818 
G01 X24.1860 Y13.4490 
G01 X24.2958 Y13.3855 
G01 X26.5258 Y11.1555 
G01 X26.6155 Y11.0658 
G01 X26.6790 Y10.9560 
G01 X26.7118 Y10.8334 
G01 X26.7118 Y10.3821 
G01 X27.1944 Y9.8995 
G01 X27.1944 Y9.1005 
G01 X26.6295 Y8.5356 
G01 X25.8305 Y8.5356 
G01 X25.2656 Y9.1005 
G01 X25.2656 Y9.8995 
G01 X25.7482 Y10.3821 
G01 X25.7482 Y10.5704 
G01 X23.8004 Y12.5182 
G01 X3.8302 Y12.5182 
G01 X3.6184 Y12.3064 
G01 X2.8616 Y12.3064 
G01 X2.3264 Y12.8416 
G00 Z3.0000 
G00 X2.3264 Y15.3816 
G01 Z-0.1100 F500.00 
G01 X2.3264 Y16.1384 F500.00 
G01 X2.8616 Y16.6736 
G01 X3.6184 Y16.6736 
G01 X4.0502 Y16.2418 
G01 X12.7604 Y16.2418 
G01 X13.0182 Y16.4996 
G01 X13.0182 Y17.5759 
G01 X12.9591 Y17.6003 
G01 X12.7928 Y17.7114 
G01 X12.6514 Y17.8528 
G01 X12.5403 Y18.0191 
G01 X12.4638 Y18.2039 
G01 X12.4248 Y18.4000 
G01 X12.4248 Y18.6000 
G01 X12.4638 Y18.7961 
G01 X12.5403 Y18.9809 
G01 X12.6514 Y19.1471 
G01 X12.7928 Y19.2886 
G01 X12.9591 Y19.3997 
G01 X13.1439 Y19.4762 
G01 X13.3400 Y19.5152 
G01 X13.5400 Y19.5152 
G01 X13.7361 Y19.4762 
G01 X13.9209 Y19.3997 
G01 X14.0871 Y19.2886 
G01 X14.2286 Y19.1471 
G01 X14.3397 Y18.9809 
G01 X14.4162 Y18.7961 
G01 X14.4552 Y18.6000 
G01 X14.4552 Y18.4000 
G01 X14.4162 Y18.2039 
G01 X14.3397 Y18.0191 
G01 X14.2286 Y17.8528 
G01 X14.0871 Y17.7114 
G01 X13.9818 Y17.6410 
G01 X13.9818 Y16.2366 
G01 X13.9490 Y16.1140 
G01 X13.8855 Y16.0042 
G01 X13.7958 Y15.9145 
G01 X13.2558 Y15.3745 
G01 X13.1460 Y15.3110 
G01 X13.0234 Y15.2782 
G01 X4.0502 Y15.2782 
G01 X3.6184 Y14.8464 
G01 X2.8616 Y14.8464 
G01 X2.3264 Y15.3816 
G00 Z3.0000 
G00 X2.3264 Y17.9216 
G01 Z-0.1100 F500.00 
G01 X2.3264 Y18.6784 F500.00 
G01 X2.8616 Y19.2136 
G01 X3.6184 Y19.2136 
G01 X4.0502 Y18.7818 
G01 X5.1004 Y18.7818 
G01 X6.0100 Y19.6914 
G01 X5.9864 Y19.8100 
G01 X5.9864 Y19.9900 
G01 X6.0215 Y20.1665 
G01 X6.0904 Y20.3328 
G01 X6.1904 Y20.4824 
G01 X6.3176 Y20.6096 
G01 X6.4672 Y20.7096 
G01 X6.6335 Y20.7785 
G01 X6.8100 Y20.8136 
G01 X6.9900 Y20.8136 
G01 X7.1665 Y20.7785 
G01 X7.3327 Y20.7096 
G01 X7.4824 Y20.6096 
G01 X7.6096 Y20.4824 
G01 X7.7096 Y20.3328 
G01 X7.7785 Y20.1665 
G01 X7.8136 Y19.9900 
G01 X7.8136 Y19.8100 
G01 X7.7785 Y19.6335 
G01 X7.7096 Y19.4672 
G01 X7.6096 Y19.3176 
G01 X7.4824 Y19.1904 
G01 X7.3327 Y19.0904 
G01 X7.1665 Y19.0215 
G01 X6.9900 Y18.9864 
G01 X6.8100 Y18.9864 
G01 X6.6914 Y19.0100 
G01 X5.5958 Y17.9145 
G01 X5.4860 Y17.8510 
G01 X5.3634 Y17.8182 
G01 X4.0502 Y17.8182 
G01 X3.6184 Y17.3864 
G01 X2.8616 Y17.3864 
G01 X2.3264 Y17.9216 
G00 Z3.0000 
G00 X2.3340 Y22.9310 
G01 Z-0.1100 F500.00 
G01 X2.3083 Y22.9459 F500.00 
G01 X2.2808 Y22.9570 
G01 X2.2536 Y22.9774 
G01 X2.2242 Y22.9945 
G01 X2.2032 Y23.0154 
G01 X0.6336 Y24.1974 
G01 X0.6042 Y24.2145 
G01 X0.5832 Y24.2354 
G01 X0.5595 Y24.2533 
G01 X0.5385 Y24.2801 
G01 X0.5145 Y24.3042 
G01 X0.4996 Y24.3299 
G01 X0.4814 Y24.3532 
G01 X0.4681 Y24.3846 
G01 X0.4510 Y24.4140 
G01 X0.4434 Y24.4427 
G01 X0.4318 Y24.4700 
G01 X0.4270 Y24.5037 
G01 X0.4182 Y24.5366 
G01 X0.4182 Y24.5662 
G01 X0.4141 Y24.5956 
G01 X0.4182 Y24.6294 
G01 X0.4182 Y37.8394 
G01 X0.4175 Y37.8421 
G01 X0.4182 Y37.9028 
G01 X0.4182 Y37.9634 
G01 X0.4189 Y37.9661 
G01 X0.4190 Y37.9689 
G01 X0.4353 Y38.0274 
G01 X0.4510 Y38.0860 
G01 X0.4532 Y38.0911 
G01 X0.4841 Y38.1433 
G01 X0.5145 Y38.1958 
G01 X0.5179 Y38.2002 
G01 X0.5612 Y38.2425 
G01 X0.6042 Y38.2855 
G01 X18.1182 Y55.4028 
G01 X18.1182 Y62.7832 
G01 X18.0633 Y62.8059 
G01 X17.9262 Y62.8975 
G01 X17.8095 Y63.0142 
G01 X17.7179 Y63.1513 
G01 X17.6548 Y63.3037 
G01 X17.6226 Y63.4655 
G01 X17.6226 Y65.1545 
G01 X17.6548 Y65.3163 
G01 X17.7179 Y65.4687 
G01 X17.8095 Y65.6058 
G01 X17.9262 Y65.7224 
G01 X18.0633 Y65.8141 
G01 X18.2157 Y65.8772 
G01 X18.3775 Y65.9094 
G01 X18.5425 Y65.9094 
G01 X18.7043 Y65.8772 
G01 X18.8567 Y65.8141 
G01 X18.9938 Y65.7224 
G01 X19.1105 Y65.6058 
G01 X19.2021 Y65.4687 
G01 X19.2652 Y65.3163 
G01 X19.2974 Y65.1545 
G01 X19.2974 Y63.4655 
G01 X19.2652 Y63.3037 
G01 X19.2021 Y63.1513 
G01 X19.1105 Y63.0142 
G01 X19.0818 Y62.9855 
G01 X19.0818 Y55.2606 
G01 X19.0825 Y55.2579 
G01 X19.0818 Y55.1972 
G01 X19.0818 Y55.1366 
G01 X19.0811 Y55.1339 
G01 X19.0810 Y55.1311 
G01 X19.0647 Y55.0726 
G01 X19.0490 Y55.0140 
G01 X19.0468 Y55.0089 
G01 X19.0159 Y54.9567 
G01 X18.9855 Y54.9042 
G01 X18.9821 Y54.8998 
G01 X18.9388 Y54.8575 
G01 X18.8958 Y54.8145 
G01 X1.3818 Y37.6972 
G01 X1.3818 Y24.8403 
G01 X2.5377 Y23.9698 
G01 X2.8616 Y24.2936 
G01 X3.6184 Y24.2936 
G01 X4.1536 Y23.7584 
G01 X4.1536 Y23.0016 
G01 X3.6184 Y22.4664 
G01 X2.8616 Y22.4664 
G01 X2.4213 Y22.9067 
G01 X2.3985 Y22.9095 
G01 X2.3669 Y22.9222 
G01 X2.3340 Y22.9310 
G00 Z3.0000 
G00 X2.8188 Y24.9032 
G01 Z-0.1100 F500.00 
G01 X2.9146 Y24.9032 F500.00 
G01 X2.9146 Y25.0064 
G01 X2.8616 Y25.0064 
G01 X2.3264 Y25.5416 
G01 X2.3264 Y25.5946 
G01 X2.2232 Y25.5946 
G01 X2.2232 Y25.4988 
G01 X2.8188 Y24.9032 
G00 Z3.0000 
G00 X3.5654 Y24.9032 
G01 Z-0.1100 F500.00 
G01 X3.6612 Y24.9032 F500.00 
G01 X4.2568 Y25.4988 
G01 X4.2568 Y25.5946 
G01 X4.1536 Y25.5946 
G01 X4.1536 Y25.5416 
G01 X3.6184 Y25.0064 
G01 X3.5654 Y25.0064 
G01 X3.5654 Y24.9032 
G00 Z3.0000 
G00 X3.5654 Y26.8336 
G01 Z-0.1100 F500.00 
G01 X3.6184 Y26.8336 F500.00 
G01 X4.1536 Y26.2984 
G01 X4.1536 Y26.2454 
G01 X4.2568 Y26.2454 
G01 X4.2568 Y26.3412 
G01 X3.6309 Y26.9671 
G01 X3.5790 Y27.0189 
G01 X3.5654 Y27.0425 
G01 X3.5654 Y26.8336 
G00 Z3.0000 
G00 X3.5654 Y27.3374 
G01 Z-0.1100 F500.00 
G01 X3.5790 Y27.3611 F500.00 
G01 X4.2568 Y28.0388 
G01 X4.2568 Y28.1346 
G01 X4.1536 Y28.1346 
G01 X4.1536 Y28.0816 
G01 X3.6184 Y27.5464 
G01 X3.5654 Y27.5464 
G01 X3.5654 Y27.3374 
G00 Z3.0000 
G00 X2.9146 Y27.3375 
G01 Z-0.1100 F500.00 
G01 X2.9146 Y27.5464 F500.00 
G01 X2.8616 Y27.5464 
G01 X2.3264 Y28.0816 
G01 X2.3264 Y28.1346 
G01 X2.2232 Y28.1346 
G01 X2.2232 Y28.0388 
G01 X2.9002 Y27.3619 
G01 X2.9146 Y27.3375 
G00 Z3.0000 
G00 X2.9146 Y27.0425 
G01 Z-0.1100 F500.00 
G01 X2.9010 Y27.0189 F500.00 
G01 X2.8491 Y26.9671 
G01 X2.2232 Y26.3412 
G01 X2.2232 Y26.2454 
G01 X2.3264 Y26.2454 
G01 X2.3264 Y26.2984 
G01 X2.8616 Y26.8336 
G01 X2.9146 Y26.8336 
G01 X2.9146 Y27.0425 
G00 Z3.0000 
G00 X2.3264 Y28.7854 
G01 Z-0.1100 F500.00 
G01 X2.3264 Y28.8384 F500.00 
G01 X2.8616 Y29.3736 
G01 X2.9146 Y29.3736 
G01 X2.9146 Y29.4768 
G01 X2.8188 Y29.4768 
G01 X2.2232 Y28.8812 
G01 X2.2232 Y28.7854 
G01 X2.3264 Y28.7854 
G00 Z3.0000 
G00 X3.5654 Y29.3736 
G01 Z-0.1100 F500.00 
G01 X3.6184 Y29.3736 F500.00 
G01 X4.1536 Y28.8384 
G01 X4.1536 Y28.7854 
G01 X4.2568 Y28.7854 
G01 X4.2568 Y28.8812 
G01 X3.6612 Y29.4768 
G01 X3.5654 Y29.4768 
G01 X3.5654 Y29.3736 
G00 Z3.0000 
G00 X3.6401 Y32.5740 
G01 Z-0.1100 F500.00 
G01 X4.2060 Y33.1399 F500.00 
G01 X4.2060 Y33.9401 
G01 X3.6401 Y34.5060 
G01 X2.8399 Y34.5060 
G01 X2.2740 Y33.9401 
G01 X2.2740 Y33.1399 
G01 X2.8399 Y32.5740 
G01 X3.6401 Y32.5740 
G00 Z3.0000 
G00 X3.6184 Y32.6264 
G01 Z-0.1100 F500.00 
G01 X2.8616 Y32.6264 F500.00 
G01 X2.3264 Y33.1616 
G01 X2.3264 Y33.9184 
G01 X2.8616 Y34.4536 
G01 X3.6184 Y34.4536 
G01 X4.1536 Y33.9184 
G01 X4.1536 Y33.1616 
G01 X3.6184 Y32.6264 
G00 Z3.0000 
G00 X3.6401 Y35.1140 
G01 Z-0.1100 F500.00 
G01 X4.2060 Y35.6799 F500.00 
G01 X4.2060 Y36.4801 
G01 X3.6401 Y37.0460 
G01 X2.8399 Y37.0460 
G01 X2.2740 Y36.4801 
G01 X2.2740 Y35.6799 
G01 X2.8399 Y35.1140 
G01 X3.6401 Y35.1140 
G00 Z3.0000 
G00 X3.6184 Y35.1664 
G01 Z-0.1100 F500.00 
G01 X2.8616 Y35.1664 F500.00 
G01 X2.3264 Y35.7016 
G01 X2.3264 Y36.4584 
G01 X2.8616 Y36.9936 
G01 X3.6184 Y36.9936 
G01 X4.1536 Y36.4584 
G01 X4.1536 Y35.7016 
G01 X3.6184 Y35.1664 
G00 Z3.0000 
G00 X8.4257 Y33.9298 
G01 Z-0.1100 F500.00 
G01 X8.5733 Y34.0284 F500.00 
G01 X8.7372 Y34.0963 
G01 X8.9113 Y34.1309 
G01 X9.0887 Y34.1309 
G01 X9.2628 Y34.0963 
G01 X9.4267 Y34.0284 
G01 X9.5743 Y33.9298 
G01 X9.6998 Y33.8043 
G01 X9.7415 Y33.7418 
G01 X14.2010 Y33.7418 
G01 X14.3114 Y33.9072 
G01 X14.4528 Y34.0486 
G01 X14.6191 Y34.1597 
G01 X14.8039 Y34.2362 
G01 X15.0000 Y34.2752 
G01 X15.2000 Y34.2752 
G01 X15.3961 Y34.2362 
G01 X15.5809 Y34.1597 
G01 X15.7471 Y34.0486 
G01 X15.8886 Y33.9072 
G01 X15.9997 Y33.7409 
G01 X16.0762 Y33.5561 
G01 X16.1152 Y33.3600 
G01 X16.1152 Y33.1600 
G01 X16.0762 Y32.9639 
G01 X15.9997 Y32.7791 
G01 X15.8886 Y32.6128 
G01 X15.7471 Y32.4714 
G01 X15.5809 Y32.3603 
G01 X15.3961 Y32.2838 
G01 X15.2000 Y32.2448 
G01 X15.0000 Y32.2448 
G01 X14.8039 Y32.2838 
G01 X14.6191 Y32.3603 
G01 X14.4528 Y32.4714 
G01 X14.3114 Y32.6128 
G01 X14.2010 Y32.7782 
G01 X9.7816 Y32.7782 
G01 X9.6998 Y32.6557 
G01 X9.5743 Y32.5302 
G01 X9.4818 Y32.4684 
G01 X9.4818 Y31.6996 
G01 X10.0996 Y31.0818 
G01 X14.1910 Y31.0818 
G01 X14.3014 Y31.2472 
G01 X14.4428 Y31.3886 
G01 X14.6091 Y31.4997 
G01 X14.7939 Y31.5762 
G01 X14.9900 Y31.6152 
G01 X15.1900 Y31.6152 
G01 X15.3861 Y31.5762 
G01 X15.5709 Y31.4997 
G01 X15.7371 Y31.3886 
G01 X15.8786 Y31.2472 
G01 X15.9897 Y31.0809 
G01 X16.0662 Y30.8961 
G01 X16.1052 Y30.7000 
G01 X16.1052 Y30.5000 
G01 X16.0662 Y30.3039 
G01 X15.9897 Y30.1191 
G01 X15.8786 Y29.9528 
G01 X15.7371 Y29.8114 
G01 X15.5709 Y29.7003 
G01 X15.3861 Y29.6238 
G01 X15.1900 Y29.5848 
G01 X14.9900 Y29.5848 
G01 X14.7939 Y29.6238 
G01 X14.6091 Y29.7003 
G01 X14.4428 Y29.8114 
G01 X14.3014 Y29.9528 
G01 X14.1910 Y30.1182 
G01 X9.8366 Y30.1182 
G01 X9.7140 Y30.1510 
G01 X9.6042 Y30.2145 
G01 X8.7042 Y31.1145 
G01 X8.6145 Y31.2042 
G01 X8.5510 Y31.3140 
G01 X8.5182 Y31.4366 
G01 X8.5182 Y32.4684 
G01 X8.4257 Y32.5302 
G01 X8.3002 Y32.6557 
G01 X8.2016 Y32.8033 
G01 X8.1337 Y32.9672 
G01 X8.0991 Y33.1413 
G01 X8.0991 Y33.3187 
G01 X8.1337 Y33.4928 
G01 X8.2016 Y33.6567 
G01 X8.3002 Y33.8043 
G01 X8.4257 Y33.9298 
G00 Z3.0000 
G00 X8.4257 Y40.4702 
G01 Z-0.1100 F500.00 
G01 X8.3002 Y40.5957 F500.00 
G01 X8.2016 Y40.7433 
G01 X8.1337 Y40.9072 
G01 X8.0991 Y41.0813 
G01 X8.0991 Y41.2587 
G01 X8.1337 Y41.4328 
G01 X8.2016 Y41.5967 
G01 X8.3002 Y41.7443 
G01 X8.4257 Y41.8698 
G01 X8.5182 Y41.9316 
G01 X8.5182 Y42.8634 
G01 X8.5510 Y42.9860 
G01 X8.6145 Y43.0958 
G01 X8.7042 Y43.1855 
G01 X9.4042 Y43.8855 
G01 X9.5140 Y43.9490 
G01 X9.6366 Y43.9818 
G01 X14.3910 Y43.9818 
G01 X14.5014 Y44.1472 
G01 X14.6428 Y44.2886 
G01 X14.8091 Y44.3997 
G01 X14.9939 Y44.4762 
G01 X15.1900 Y44.5152 
G01 X15.3900 Y44.5152 
G01 X15.5861 Y44.4762 
G01 X15.7709 Y44.3997 
G01 X15.9372 Y44.2886 
G01 X16.0786 Y44.1472 
G01 X16.1897 Y43.9809 
G01 X16.2662 Y43.7961 
G01 X16.3052 Y43.6000 
G01 X16.3052 Y43.4000 
G01 X16.2662 Y43.2039 
G01 X16.1897 Y43.0191 
G01 X16.0786 Y42.8528 
G01 X15.9372 Y42.7114 
G01 X15.7709 Y42.6003 
G01 X15.5861 Y42.5238 
G01 X15.3900 Y42.4848 
G01 X15.1900 Y42.4848 
G01 X14.9939 Y42.5238 
G01 X14.8091 Y42.6003 
G01 X14.6428 Y42.7114 
G01 X14.5014 Y42.8528 
G01 X14.3910 Y43.0182 
G01 X9.8996 Y43.0182 
G01 X9.4818 Y42.6004 
G01 X9.4818 Y41.9316 
G01 X9.5743 Y41.8698 
G01 X9.6998 Y41.7443 
G01 X9.7816 Y41.6218 
G01 X14.3010 Y41.6218 
G01 X14.4114 Y41.7871 
G01 X14.5528 Y41.9286 
G01 X14.7191 Y42.0397 
G01 X14.9039 Y42.1162 
G01 X15.1000 Y42.1552 
G01 X15.3000 Y42.1552 
G01 X15.4961 Y42.1162 
G01 X15.6809 Y42.0397 
G01 X15.8471 Y41.9286 
G01 X15.9886 Y41.7871 
G01 X16.0997 Y41.6209 
G01 X16.1762 Y41.4361 
G01 X16.2152 Y41.2400 
G01 X16.2152 Y41.0400 
G01 X16.1762 Y40.8439 
G01 X16.0997 Y40.6591 
G01 X15.9886 Y40.4928 
G01 X15.8471 Y40.3514 
G01 X15.6809 Y40.2403 
G01 X15.4961 Y40.1638 
G01 X15.3000 Y40.1248 
G01 X15.1000 Y40.1248 
G01 X14.9039 Y40.1638 
G01 X14.7191 Y40.2403 
G01 X14.5528 Y40.3514 
G01 X14.4114 Y40.4928 
G01 X14.3010 Y40.6582 
G01 X9.7415 Y40.6582 
G01 X9.6998 Y40.5957 
G01 X9.5743 Y40.4702 
G01 X9.4267 Y40.3716 
G01 X9.2628 Y40.3037 
G01 X9.0887 Y40.2691 
G01 X8.9113 Y40.2691 
G01 X8.7372 Y40.3037 
G01 X8.5733 Y40.3716 
G01 X8.4257 Y40.4702 
G00 Z3.0000 
G00 X22.3053 Y42.5949 
G01 Z-0.1100 F500.00 
G01 X22.6976 Y42.4324 F500.00 
G01 X23.1224 Y42.4324 
G01 X23.5147 Y42.5949 
G01 X23.8151 Y42.8953 
G01 X23.9776 Y43.2876 
G01 X23.9776 Y43.6601 
G01 X23.9776 Y43.6971 
G01 X23.9776 Y43.7334 
G01 X23.9829 Y43.7530 
G01 X23.9966 Y43.8043 
G01 X24.0084 Y43.8247 
G01 X24.0333 Y43.8678 
G01 X24.0542 Y43.8887 
G01 X24.0851 Y43.9197 
G01 X24.1156 Y43.9501 
G01 X24.1791 Y43.9868 
G01 X24.2500 Y44.0058 
G01 X24.2863 Y44.0058 
G01 X24.7104 Y44.0058 
G01 X24.7812 Y43.9868 
G01 X24.8448 Y43.9501 
G01 X24.9231 Y43.8718 
G01 X25.2128 Y43.7518 
G01 X26.8472 Y43.7518 
G01 X27.1369 Y43.8718 
G01 X27.3586 Y44.0935 
G01 X27.4786 Y44.3832 
G01 X27.4786 Y44.6300 
G01 X27.4976 Y44.7009 
G01 X27.5343 Y44.7644 
G01 X27.5861 Y44.8163 
G01 X27.6497 Y44.8529 
G01 X27.7205 Y44.8719 
G01 X27.7939 Y44.8719 
G01 X27.8647 Y44.8529 
G01 X27.9283 Y44.8163 
G01 X37.6974 Y35.0471 
G01 X37.8937 Y34.9658 
G01 X45.2000 Y34.9658 
G01 X45.2709 Y34.9468 
G01 X45.3344 Y34.9101 
G01 X48.1734 Y32.0711 
G01 X48.3697 Y31.9898 
G01 X50.5894 Y31.9898 
G01 X50.6602 Y31.9708 
G01 X50.7237 Y31.9341 
G01 X50.7756 Y31.8823 
G01 X51.0999 Y31.5580 
G01 X51.9001 Y31.5580 
G01 X52.4660 Y32.1239 
G01 X52.4660 Y32.9241 
G01 X51.9001 Y33.4900 
G01 X51.0999 Y33.4900 
G01 X50.7756 Y33.1657 
G01 X50.7237 Y33.1139 
G01 X50.6602 Y33.0772 
G01 X50.5894 Y33.0582 
G01 X48.7760 Y33.0582 
G01 X48.7051 Y33.0772 
G01 X48.6416 Y33.1139 
G01 X46.0180 Y35.7375 
G01 X45.8026 Y35.9529 
G01 X45.6063 Y36.0342 
G01 X38.3000 Y36.0342 
G01 X38.2291 Y36.0532 
G01 X38.1656 Y36.0899 
G01 X28.6417 Y45.6137 
G01 X28.5899 Y45.6656 
G01 X28.5532 Y45.7291 
G01 X28.5342 Y45.8000 
G01 X28.5342 Y49.2000 
G01 X28.5532 Y49.2709 
G01 X28.5899 Y49.3344 
G01 X30.6137 Y51.3583 
G01 X30.6656 Y51.4101 
G01 X30.7291 Y51.4468 
G01 X30.8000 Y51.4658 
G01 X36.7000 Y51.4658 
G01 X36.7709 Y51.4468 
G01 X36.8344 Y51.4101 
G01 X38.3583 Y49.8863 
G01 X38.4101 Y49.8344 
G01 X38.4468 Y49.7709 
G01 X38.4658 Y49.7000 
G01 X38.4658 Y49.3862 
G01 X38.4468 Y49.3154 
G01 X38.4101 Y49.2518 
G01 X38.3583 Y49.2000 
G01 X38.2947 Y49.1633 
G01 X38.2239 Y49.1443 
G01 X38.0881 Y49.1443 
G01 X38.0132 Y49.0694 
G01 X38.0132 Y47.6556 
G01 X38.0881 Y47.5807 
G01 X39.5019 Y47.5807 
G01 X39.5768 Y47.6556 
G01 X39.5768 Y49.0790 
G01 X39.5532 Y49.1199 
G01 X39.5417 Y49.1627 
G01 X39.5342 Y49.1907 
G01 X39.5342 Y50.1063 
G01 X39.4529 Y50.3026 
G01 X39.2893 Y50.4661 
G01 X37.3026 Y52.4529 
G01 X37.1063 Y52.5342 
G01 X30.3937 Y52.5342 
G01 X30.1974 Y52.4529 
G01 X30.0339 Y52.2893 
G01 X27.5471 Y49.8026 
G01 X27.4658 Y49.6063 
G01 X27.4658 Y45.5072 
G01 X27.4682 Y45.4889 
G01 X27.4658 Y45.4706 
G01 X27.4658 Y45.4522 
G01 X27.4610 Y45.4344 
G01 X27.4586 Y45.4162 
G01 X27.4516 Y45.3992 
G01 X27.4468 Y45.3814 
G01 X27.4376 Y45.3654 
G01 X27.4306 Y45.3484 
G01 X27.4193 Y45.3338 
G01 X27.4101 Y45.3178 
G01 X27.3971 Y45.3048 
G01 X27.3859 Y45.2902 
G01 X27.3713 Y45.2790 
G01 X27.3583 Y45.2660 
G01 X27.3423 Y45.2568 
G01 X27.3277 Y45.2456 
G01 X27.3107 Y45.2385 
G01 X27.2947 Y45.2293 
G01 X27.2769 Y45.2245 
G01 X27.2599 Y45.2175 
G01 X27.2417 Y45.2151 
G01 X27.2239 Y45.2103 
G01 X27.2054 Y45.2103 
G01 X27.1872 Y45.2079 
G01 X27.1689 Y45.2103 
G01 X27.1505 Y45.2103 
G01 X27.1327 Y45.2151 
G01 X27.1145 Y45.2175 
G01 X27.0975 Y45.2245 
G01 X27.0797 Y45.2293 
G01 X27.0637 Y45.2385 
G01 X26.8472 Y45.3282 
G01 X25.2128 Y45.3282 
G01 X24.9231 Y45.2082 
G01 X24.8967 Y45.1817 
G01 X24.8448 Y45.1299 
G01 X24.7812 Y45.0932 
G01 X24.7104 Y45.0742 
G01 X23.8437 Y45.0742 
G01 X23.6474 Y44.9929 
G01 X23.3297 Y44.6751 
G01 X23.2778 Y44.6233 
G01 X23.2143 Y44.5866 
G01 X23.1434 Y44.5676 
G01 X22.6976 Y44.5676 
G01 X22.3053 Y44.4051 
G01 X22.0049 Y44.1047 
G01 X21.8424 Y43.7124 
G01 X21.8424 Y43.2876 
G01 X22.0049 Y42.8953 
G01 X22.3053 Y42.5949 
G00 Z3.0000 
G00 X22.4291 Y42.6003 
G01 Z-0.1100 F500.00 
G01 X22.2628 Y42.7114 F500.00 
G01 X22.1214 Y42.8528 
G01 X22.0103 Y43.0191 
G01 X21.9338 Y43.2039 
G01 X21.8948 Y43.4000 
G01 X21.8948 Y43.6000 
G01 X21.9338 Y43.7961 
G01 X22.0103 Y43.9809 
G01 X22.1214 Y44.1472 
G01 X22.2628 Y44.2886 
G01 X22.4291 Y44.3997 
G01 X22.6139 Y44.4762 
G01 X22.8100 Y44.5152 
G01 X23.0100 Y44.5152 
G01 X23.2050 Y44.4764 
G01 X23.6542 Y44.9255 
G01 X23.7640 Y44.9890 
G01 X23.8866 Y45.0218 
G01 X24.8108 Y45.0218 
G01 X24.9006 Y45.1115 
G01 X25.0211 Y45.1921 
G01 X25.1550 Y45.2475 
G01 X25.2971 Y45.2758 
G01 X26.7629 Y45.2758 
G01 X26.9050 Y45.2475 
G01 X27.0389 Y45.1921 
G01 X27.1594 Y45.1115 
G01 X27.2619 Y45.0090 
G01 X27.3425 Y44.8885 
G01 X27.3979 Y44.7546 
G01 X27.4262 Y44.6125 
G01 X27.4262 Y44.4675 
G01 X27.3979 Y44.3254 
G01 X27.3425 Y44.1915 
G01 X27.2619 Y44.0710 
G01 X27.1594 Y43.9685 
G01 X27.0389 Y43.8879 
G01 X26.9050 Y43.8325 
G01 X26.7629 Y43.8042 
G01 X25.2971 Y43.8042 
G01 X25.1550 Y43.8325 
G01 X25.0211 Y43.8879 
G01 X24.9006 Y43.9685 
G01 X24.8108 Y44.0582 
G01 X24.1496 Y44.0582 
G01 X23.8864 Y43.7950 
G01 X23.9252 Y43.6000 
G01 X23.9252 Y43.4000 
G01 X23.8862 Y43.2039 
G01 X23.8097 Y43.0191 
G01 X23.6986 Y42.8528 
G01 X23.5572 Y42.7114 
G01 X23.3909 Y42.6003 
G01 X23.2061 Y42.5238 
G01 X23.0100 Y42.4848 
G01 X22.8100 Y42.4848 
G01 X22.6139 Y42.5238 
G01 X22.4291 Y42.6003 
G00 Z3.0000 
G00 X24.9006 Y42.5715 
G01 Z-0.1100 F500.00 
G01 X25.0211 Y42.6521 F500.00 
G01 X25.1550 Y42.7075 
G01 X25.2971 Y42.7358 
G01 X26.7629 Y42.7358 
G01 X26.9050 Y42.7075 
G01 X27.0389 Y42.6521 
G01 X27.1594 Y42.5715 
G01 X27.2492 Y42.4818 
G01 X28.6634 Y42.4818 
G01 X28.7860 Y42.4490 
G01 X28.8958 Y42.3855 
G01 X28.9855 Y42.2958 
G01 X34.2055 Y37.0758 
G01 X34.2690 Y36.9660 
G01 X34.3018 Y36.8434 
G01 X34.3018 Y34.1990 
G01 X34.4671 Y34.0886 
G01 X34.6086 Y33.9472 
G01 X34.7197 Y33.7809 
G01 X34.7962 Y33.5961 
G01 X34.8352 Y33.4000 
G01 X34.8352 Y33.2000 
G01 X34.7962 Y33.0039 
G01 X34.7197 Y32.8191 
G01 X34.6086 Y32.6528 
G01 X34.4671 Y32.5114 
G01 X34.3009 Y32.4003 
G01 X34.1161 Y32.3238 
G01 X33.9200 Y32.2848 
G01 X33.7200 Y32.2848 
G01 X33.5239 Y32.3238 
G01 X33.3391 Y32.4003 
G01 X33.1728 Y32.5114 
G01 X33.0314 Y32.6528 
G01 X32.9203 Y32.8191 
G01 X32.8438 Y33.0039 
G01 X32.8048 Y33.2000 
G01 X32.8048 Y33.4000 
G01 X32.8438 Y33.5961 
G01 X32.9203 Y33.7809 
G01 X33.0314 Y33.9472 
G01 X33.1728 Y34.0886 
G01 X33.3382 Y34.1990 
G01 X33.3382 Y36.5804 
G01 X28.4004 Y41.5182 
G01 X27.2492 Y41.5182 
G01 X27.1594 Y41.4285 
G01 X27.0389 Y41.3479 
G01 X26.9050 Y41.2925 
G01 X26.7629 Y41.2642 
G01 X25.2971 Y41.2642 
G01 X25.1550 Y41.2925 
G01 X25.0211 Y41.3479 
G01 X24.9006 Y41.4285 
G01 X24.7981 Y41.5310 
G01 X24.7175 Y41.6515 
G01 X24.6621 Y41.7854 
G01 X24.6338 Y41.9275 
G01 X24.6338 Y42.0725 
G01 X24.6621 Y42.2146 
G01 X24.7175 Y42.3485 
G01 X24.7981 Y42.4690 
G01 X24.9006 Y42.5715 
G00 Z3.0000 
G00 X24.9299 Y40.1776 
G01 Z-0.1100 F500.00 
G01 X24.8230 Y40.1000 F500.00 
G01 X24.7296 Y40.0066 
G01 X24.6520 Y39.8997 
G01 X24.5921 Y39.7821 
G01 X24.5779 Y39.7386 
G01 X24.6886 Y39.7386 
G01 X24.7175 Y39.8085 
G01 X24.7981 Y39.9290 
G01 X24.9006 Y40.0315 
G01 X25.0211 Y40.1121 
G01 X25.1550 Y40.1675 
G01 X25.2971 Y40.1958 
G01 X25.7514 Y40.1958 
G01 X25.7514 Y40.2990 
G01 X25.3036 Y40.2990 
G01 X25.1731 Y40.2783 
G01 X25.0475 Y40.2375 
G01 X24.9299 Y40.1776 
G00 Z3.0000 
G00 X24.6886 Y39.1814 
G01 Z-0.1100 F500.00 
G01 X24.5779 Y39.1814 F500.00 
G01 X24.5921 Y39.1379 
G01 X24.6520 Y39.0203 
G01 X24.7296 Y38.9134 
G01 X24.8230 Y38.8200 
G01 X24.9299 Y38.7424 
G01 X25.0475 Y38.6825 
G01 X25.1731 Y38.6416 
G01 X25.3036 Y38.6210 
G01 X25.7514 Y38.6210 
G01 X25.7514 Y38.7242 
G01 X25.2971 Y38.7242 
G01 X25.1550 Y38.7525 
G01 X25.0211 Y38.8079 
G01 X24.9006 Y38.8885 
G01 X24.7981 Y38.9910 
G01 X24.7175 Y39.1115 
G01 X24.6886 Y39.1814 
G00 Z3.0000 
G00 X26.3086 Y38.7242 
G01 Z-0.1100 F500.00 
G01 X26.3086 Y38.6210 F500.00 
G01 X26.7564 Y38.6210 
G01 X26.8869 Y38.6417 
G01 X27.0125 Y38.6825 
G01 X27.1301 Y38.7424 
G01 X27.2370 Y38.8200 
G01 X27.3304 Y38.9134 
G01 X27.4080 Y39.0203 
G01 X27.4679 Y39.1379 
G01 X27.4820 Y39.1814 
G01 X27.3714 Y39.1814 
G01 X27.3425 Y39.1115 
G01 X27.2619 Y38.9910 
G01 X27.1594 Y38.8885 
G01 X27.0389 Y38.8079 
G01 X26.9050 Y38.7525 
G01 X26.7629 Y38.7242 
G01 X26.3086 Y38.7242 
G00 Z3.0000 
G00 X26.3086 Y40.1958 
G01 Z-0.1100 F500.00 
G01 X26.7629 Y40.1958 F500.00 
G01 X26.9050 Y40.1675 
G01 X27.0389 Y40.1121 
G01 X27.1594 Y40.0315 
G01 X27.2619 Y39.9290 
G01 X27.3425 Y39.8085 
G01 X27.3714 Y39.7386 
G01 X27.4821 Y39.7386 
G01 X27.4679 Y39.7821 
G01 X27.4080 Y39.8997 
G01 X27.3304 Y40.0066 
G01 X27.2370 Y40.1000 
G01 X27.1301 Y40.1776 
G01 X27.0125 Y40.2375 
G01 X26.8869 Y40.2783 
G01 X26.7564 Y40.2990 
G01 X26.3086 Y40.2990 
G01 X26.3086 Y40.1958 
G00 Z3.0000 
G00 X26.3486 Y35.9790 
G01 Z-0.1100 F500.00 
G01 X26.3486 Y35.8758 F500.00 
G01 X26.8029 Y35.8758 
G01 X26.9450 Y35.8475 
G01 X27.0789 Y35.7921 
G01 X27.1994 Y35.7115 
G01 X27.3019 Y35.6090 
G01 X27.3825 Y35.4885 
G01 X27.4114 Y35.4186 
G01 X27.5221 Y35.4186 
G01 X27.5079 Y35.4621 
G01 X27.4480 Y35.5797 
G01 X27.3704 Y35.6866 
G01 X27.2770 Y35.7800 
G01 X27.1701 Y35.8576 
G01 X27.0525 Y35.9175 
G01 X26.9269 Y35.9583 
G01 X26.7964 Y35.9790 
G01 X26.3486 Y35.9790 
G00 Z3.0000 
G00 X25.7914 Y35.9790 
G01 Z-0.1100 F500.00 
G01 X25.3436 Y35.9790 F500.00 
G01 X25.2131 Y35.9583 
G01 X25.0875 Y35.9175 
G01 X24.9699 Y35.8576 
G01 X24.8630 Y35.7800 
G01 X24.7696 Y35.6866 
G01 X24.6920 Y35.5797 
G01 X24.6321 Y35.4621 
G01 X24.6179 Y35.4186 
G01 X24.7286 Y35.4186 
G01 X24.7575 Y35.4885 
G01 X24.8381 Y35.6090 
G01 X24.9406 Y35.7115 
G01 X25.0611 Y35.7921 
G01 X25.1950 Y35.8475 
G01 X25.3371 Y35.8758 
G01 X25.7914 Y35.8758 
G01 X25.7914 Y35.9790 
G00 Z3.0000 
G00 X25.7914 Y34.4042 
G01 Z-0.1100 F500.00 
G01 X25.3371 Y34.4042 F500.00 
G01 X25.1950 Y34.4325 
G01 X25.0611 Y34.4879 
G01 X24.9406 Y34.5685 
G01 X24.8381 Y34.6710 
G01 X24.7575 Y34.7915 
G01 X24.7286 Y34.8614 
G01 X24.6179 Y34.8614 
G01 X24.6321 Y34.8179 
G01 X24.6920 Y34.7003 
G01 X24.7696 Y34.5934 
G01 X24.8630 Y34.5000 
G01 X24.9699 Y34.4224 
G01 X25.0875 Y34.3625 
G01 X25.2131 Y34.3217 
G01 X25.3436 Y34.3010 
G01 X25.7914 Y34.3010 
G01 X25.7914 Y34.4042 
G00 Z3.0000 
G00 X26.3486 Y34.4042 
G01 Z-0.1100 F500.00 
G01 X26.3486 Y34.3010 F500.00 
G01 X26.7964 Y34.3010 
G01 X26.9269 Y34.3217 
G01 X27.0525 Y34.3625 
G01 X27.1701 Y34.4224 
G01 X27.2770 Y34.5000 
G01 X27.3704 Y34.5934 
G01 X27.4480 Y34.7003 
G01 X27.5079 Y34.8179 
G01 X27.5220 Y34.8614 
G01 X27.4114 Y34.8614 
G01 X27.3825 Y34.7915 
G01 X27.3019 Y34.6710 
G01 X27.1994 Y34.5685 
G01 X27.0789 Y34.4879 
G01 X26.9450 Y34.4325 
G01 X26.8029 Y34.4042 
G01 X26.3486 Y34.4042 
G00 Z3.0000 
G00 X26.8029 Y33.3358 
G01 Z-0.1100 F500.00 
G01 X26.9450 Y33.3075 F500.00 
G01 X27.0789 Y33.2521 
G01 X27.1994 Y33.1715 
G01 X27.2892 Y33.0818 
G01 X29.8834 Y33.0818 
G01 X30.0060 Y33.0490 
G01 X30.1158 Y32.9855 
G01 X30.2055 Y32.8958 
G01 X33.5250 Y29.5764 
G01 X33.7200 Y29.6152 
G01 X33.9200 Y29.6152 
G01 X34.1161 Y29.5762 
G01 X34.3009 Y29.4997 
G01 X34.4671 Y29.3886 
G01 X34.6086 Y29.2472 
G01 X34.7197 Y29.0809 
G01 X34.7962 Y28.8961 
G01 X34.8352 Y28.7000 
G01 X34.8352 Y28.5000 
G01 X34.7962 Y28.3039 
G01 X34.7197 Y28.1191 
G01 X34.6086 Y27.9528 
G01 X34.4671 Y27.8114 
G01 X34.3009 Y27.7003 
G01 X34.1161 Y27.6238 
G01 X33.9200 Y27.5848 
G01 X33.7200 Y27.5848 
G01 X33.5239 Y27.6238 
G01 X33.3391 Y27.7003 
G01 X33.1728 Y27.8114 
G01 X33.0314 Y27.9528 
G01 X32.9203 Y28.1191 
G01 X32.8438 Y28.3039 
G01 X32.8048 Y28.5000 
G01 X32.8048 Y28.7000 
G01 X32.8436 Y28.8950 
G01 X29.6204 Y32.1182 
G01 X27.2892 Y32.1182 
G01 X27.1994 Y32.0285 
G01 X27.0789 Y31.9479 
G01 X26.9450 Y31.8925 
G01 X26.8029 Y31.8642 
G01 X25.3371 Y31.8642 
G01 X25.1950 Y31.8925 
G01 X25.0611 Y31.9479 
G01 X24.9406 Y32.0285 
G01 X24.8381 Y32.1310 
G01 X24.7575 Y32.2515 
G01 X24.7021 Y32.3854 
G01 X24.6738 Y32.5275 
G01 X24.6738 Y32.6725 
G01 X24.7021 Y32.8146 
G01 X24.7575 Y32.9485 
G01 X24.8381 Y33.0690 
G01 X24.9406 Y33.1715 
G01 X25.0611 Y33.2521 
G01 X25.1950 Y33.3075 
G01 X25.3371 Y33.3358 
G01 X26.8029 Y33.3358 
G00 Z3.0000 
G00 X26.8029 Y30.7958 
G01 Z-0.1100 F500.00 
G01 X26.9450 Y30.7675 F500.00 
G01 X27.0789 Y30.7121 
G01 X27.1994 Y30.6315 
G01 X27.3019 Y30.5290 
G01 X27.3825 Y30.4085 
G01 X27.4379 Y30.2746 
G01 X27.4662 Y30.1325 
G01 X27.4662 Y29.9875 
G01 X27.4379 Y29.8454 
G01 X27.3825 Y29.7115 
G01 X27.3019 Y29.5910 
G01 X27.1994 Y29.4885 
G01 X27.0789 Y29.4079 
G01 X26.9450 Y29.3525 
G01 X26.8029 Y29.3242 
G01 X25.3371 Y29.3242 
G01 X25.1950 Y29.3525 
G01 X25.0611 Y29.4079 
G01 X24.9406 Y29.4885 
G01 X24.8508 Y29.5782 
G01 X23.1866 Y29.5782 
G01 X23.0640 Y29.6110 
G01 X23.0270 Y29.6324 
G01 X23.0061 Y29.6238 
G01 X22.8100 Y29.5848 
G01 X22.6100 Y29.5848 
G01 X22.4139 Y29.6238 
G01 X22.2291 Y29.7003 
G01 X22.0628 Y29.8114 
G01 X21.9214 Y29.9528 
G01 X21.8103 Y30.1191 
G01 X21.7338 Y30.3039 
G01 X21.6948 Y30.5000 
G01 X21.6948 Y30.7000 
G01 X21.7338 Y30.8961 
G01 X21.8103 Y31.0809 
G01 X21.9214 Y31.2472 
G01 X22.0628 Y31.3886 
G01 X22.2291 Y31.4997 
G01 X22.4139 Y31.5762 
G01 X22.6100 Y31.6152 
G01 X22.8100 Y31.6152 
G01 X23.0061 Y31.5762 
G01 X23.1909 Y31.4997 
G01 X23.3572 Y31.3886 
G01 X23.4986 Y31.2472 
G01 X23.6097 Y31.0809 
G01 X23.6862 Y30.8961 
G01 X23.7252 Y30.7000 
G01 X23.7252 Y30.5418 
G01 X24.8508 Y30.5418 
G01 X24.9406 Y30.6315 
G01 X25.0611 Y30.7121 
G01 X25.1950 Y30.7675 
G01 X25.3371 Y30.7958 
G01 X26.8029 Y30.7958 
G00 Z3.0000 
G00 X26.8872 Y30.8482 
G01 Z-0.1100 F500.00 
G01 X25.2528 Y30.8482 F500.00 
G01 X24.9631 Y30.7282 
G01 X24.9367 Y30.7017 
G01 X24.8848 Y30.6499 
G01 X24.8212 Y30.6132 
G01 X24.7504 Y30.5942 
G01 X24.0724 Y30.5942 
G01 X24.0541 Y30.5918 
G01 X24.0359 Y30.5942 
G01 X24.0174 Y30.5942 
G01 X23.9996 Y30.5990 
G01 X23.9814 Y30.6014 
G01 X23.9644 Y30.6084 
G01 X23.9466 Y30.6132 
G01 X23.9306 Y30.6224 
G01 X23.9136 Y30.6294 
G01 X23.8990 Y30.6406 
G01 X23.8831 Y30.6499 
G01 X23.8700 Y30.6629 
G01 X23.8554 Y30.6741 
G01 X23.8442 Y30.6887 
G01 X23.8312 Y30.7017 
G01 X23.8220 Y30.7177 
G01 X23.8108 Y30.7323 
G01 X23.8037 Y30.7493 
G01 X23.7945 Y30.7653 
G01 X23.7897 Y30.7831 
G01 X23.6151 Y31.2047 
G01 X23.3147 Y31.5051 
G01 X22.9224 Y31.6676 
G01 X22.4976 Y31.6676 
G01 X22.1053 Y31.5051 
G01 X21.8049 Y31.2047 
G01 X21.6424 Y30.8124 
G01 X21.6424 Y30.3876 
G01 X21.8049 Y29.9953 
G01 X22.1053 Y29.6949 
G01 X22.4976 Y29.5324 
G01 X22.9224 Y29.5324 
G01 X22.9422 Y29.5406 
G01 X22.9523 Y29.5448 
G01 X23.0015 Y29.5513 
G01 X23.0251 Y29.5544 
G01 X23.0738 Y29.5480 
G01 X23.0978 Y29.5448 
G01 X23.1379 Y29.5282 
G01 X23.1437 Y29.5258 
G01 X24.7504 Y29.5258 
G01 X24.8212 Y29.5068 
G01 X24.8848 Y29.4701 
G01 X24.9631 Y29.3918 
G01 X25.2528 Y29.2718 
G01 X26.8872 Y29.2718 
G01 X27.1769 Y29.3918 
G01 X27.3986 Y29.6135 
G01 X27.5186 Y29.9032 
G01 X27.5186 Y30.2168 
G01 X27.3986 Y30.5065 
G01 X27.1769 Y30.7282 
G01 X26.8872 Y30.8482 
G00 Z3.0000 
G00 X27.0018 Y27.8969 
G01 Z-0.1100 F500.00 
G01 X26.8818 Y27.6072 F500.00 
G01 X26.8818 Y25.9728 
G01 X27.0018 Y25.6831 
G01 X27.0583 Y25.6267 
G01 X27.1101 Y25.5748 
G01 X27.1468 Y25.5113 
G01 X27.1658 Y25.4404 
