(.../pcb-gcode-3.6.2.4/pcb-gcode.ulp)
(Copyright 2005 - 2012 by John Johnson)
(See readme.txt for licensing terms.)
(This file generated from the board:)
(.../ELECTRONICS/e-garden/e-garden1/G1-3.brd)
(Current profile is .../pcb-gcode-3.6.2.4/profiles/generic.pp  )
(This file generated 1/3/17 5:00 PM)
(Settings from pcb-machine.h)
(spindle on time = 3.0000)
(  Tool Size)
(0.1000 )
(spindle speed = 30000.0000)
(tool change at 0.0000 0.0000 20.4000 )
(feed rate xy = F500.00 )
(feed rate z  = F500.00 )
(Z Axis Settings)
(  High     Up        Down     Drill)
(12.0000 	3.0000 	-0.1100 	-2.0000 )
(Settings from pcb-defaults.h)
(isolate min = 0.0254)
(isolate max = 0.5080)
(isolate step = 0.1270)
(Generated top outlines, top drill, )
(Unit of measure: mm)
(Metric Mode)
G21
(Absolute Coordinates)
G90
S30000
G00 Z12.0000 
G00 X0.0000 Y0.0000 
M03
G04 P3.000000
G00 Z3.0000 
G00 X1.5163 Y2.0381 
G01 Z-0.1100 F500.00 
G01 X1.4796 Y2.1017 F500.00 
G01 X1.4606 Y2.1725 
G01 X1.4606 Y23.0480 
G01 X1.4796 Y23.1189 
G01 X1.5163 Y23.1824 
G01 X1.5673 Y23.2335 
G01 X1.6317 Y23.2709 
G01 X1.7025 Y23.2899 
G01 X1.7759 Y23.2899 
G01 X1.8467 Y23.2709 
G01 X1.9103 Y23.2343 
G01 X1.9621 Y23.1824 
G01 X2.2174 Y22.9271 
G01 X2.3360 Y22.8780 
G01 X2.3538 Y22.8732 
G01 X2.3697 Y22.8640 
G01 X2.3867 Y22.8570 
G01 X2.4014 Y22.8458 
G01 X2.4173 Y22.8366 
G01 X2.4303 Y22.8235 
G01 X2.4449 Y22.8123 
G01 X2.4562 Y22.7977 
G01 X2.8399 Y22.4140 
G01 X3.6401 Y22.4140 
G01 X4.2060 Y22.9799 
G01 X4.2060 Y23.7801 
G01 X3.6401 Y24.3460 
G01 X2.8399 Y24.3460 
G01 X2.7465 Y24.2527 
G01 X2.6822 Y24.2152 
G01 X2.6792 Y24.2144 
G01 X2.6113 Y24.1962 
G01 X2.5380 Y24.1962 
G01 X2.4671 Y24.2152 
G01 X2.4036 Y24.2519 
G01 X2.3517 Y24.3037 
G01 X2.1417 Y24.5137 
G01 X2.0899 Y24.5656 
G01 X2.0532 Y24.6291 
G01 X2.0342 Y24.7000 
G01 X2.0342 Y25.0519 
G01 X2.0532 Y25.1228 
G01 X2.0899 Y25.1863 
G01 X2.1409 Y25.2374 
G01 X2.2053 Y25.2748 
G01 X2.2761 Y25.2938 
G01 X2.3495 Y25.2938 
G01 X2.4203 Y25.2748 
G01 X2.4839 Y25.2382 
G01 X2.5357 Y25.1863 
G01 X2.8188 Y24.9032 
G01 X2.9146 Y24.9032 
G01 X2.9146 Y25.0064 
G01 X2.8616 Y25.0064 
G01 X2.3264 Y25.5416 
G01 X2.3264 Y26.2984 
G01 X2.8616 Y26.8336 
G01 X2.9146 Y26.8336 
G01 X2.9146 Y27.5464 
G01 X2.8616 Y27.5464 
G01 X2.3264 Y28.0816 
G01 X2.3264 Y28.8384 
G01 X2.8616 Y29.3736 
G01 X2.9146 Y29.3736 
G01 X2.9146 Y29.4768 
G01 X2.8188 Y29.4768 
G01 X2.5357 Y29.1937 
G01 X2.4839 Y29.1418 
G01 X2.4203 Y29.1051 
G01 X2.3495 Y29.0862 
G01 X2.2761 Y29.0862 
G01 X2.2053 Y29.1051 
G01 X2.1417 Y29.1418 
G01 X2.0899 Y29.1937 
G01 X2.0532 Y29.2572 
G01 X2.0342 Y29.3281 
G01 X2.0342 Y30.2038 
G01 X2.0532 Y30.2746 
G01 X2.0899 Y30.3381 
G01 X2.1409 Y30.3892 
G01 X2.2053 Y30.4267 
G01 X2.2761 Y30.4457 
G01 X2.3495 Y30.4457 
G01 X2.4203 Y30.4267 
G01 X2.4839 Y30.3900 
G01 X2.5357 Y30.3381 
G01 X2.8399 Y30.0340 
G01 X3.6401 Y30.0340 
G01 X3.8524 Y30.2463 
G01 X3.9043 Y30.2981 
G01 X3.9678 Y30.3348 
G01 X4.0386 Y30.3538 
G01 X4.1120 Y30.3538 
G01 X4.1829 Y30.3348 
G01 X4.2456 Y30.2986 
G01 X4.2863 Y30.2582 
G01 X4.2983 Y30.2463 
G01 X6.7702 Y27.7743 
G01 X6.8101 Y27.7344 
G01 X6.8468 Y27.6709 
G01 X6.8658 Y27.6000 
G01 X6.8658 Y25.8506 
G01 X6.8605 Y25.8309 
G01 X6.8468 Y25.7798 
G01 X6.8101 Y25.7163 
G01 X6.7583 Y25.6644 
G01 X6.5811 Y25.4872 
G01 X6.4340 Y25.1321 
G01 X6.4340 Y24.7478 
G01 X6.5811 Y24.3928 
G01 X6.8528 Y24.1211 
G01 X7.2078 Y23.9740 
G01 X7.5922 Y23.9740 
G01 X7.9472 Y24.1211 
G01 X8.1244 Y24.2983 
G01 X8.1763 Y24.3501 
G01 X8.2398 Y24.3868 
G01 X8.2925 Y24.4009 
G01 X8.3106 Y24.4058 
G01 X10.9193 Y24.4058 
G01 X10.9902 Y24.3868 
G01 X11.0537 Y24.3501 
G01 X11.1056 Y24.2983 
G01 X11.3128 Y24.0911 
G01 X11.6678 Y23.9440 
G01 X12.0521 Y23.9440 
G01 X12.4072 Y24.0911 
G01 X12.5844 Y24.2683 
G01 X12.6363 Y24.3201 
G01 X12.6998 Y24.3568 
G01 X12.7525 Y24.3709 
G01 X12.7706 Y24.3758 
G01 X15.3693 Y24.3758 
G01 X15.4402 Y24.3568 
G01 X15.5037 Y24.3201 
G01 X15.6928 Y24.1311 
G01 X16.0478 Y23.9840 
G01 X16.4322 Y23.9840 
G01 X16.7872 Y24.1311 
G01 X17.0589 Y24.4028 
G01 X17.2060 Y24.7578 
G01 X17.2060 Y25.0818 
G01 X17.2250 Y25.1527 
G01 X17.2617 Y25.2162 
G01 X19.8037 Y27.7583 
G01 X19.8556 Y27.8101 
G01 X19.9191 Y27.8468 
G01 X19.9900 Y27.8658 
G01 X32.8000 Y27.8658 
G01 X32.8709 Y27.8468 
G01 X32.9344 Y27.8101 
G01 X34.7913 Y25.9532 
G01 X34.8280 Y25.8897 
G01 X34.8292 Y25.8851 
G01 X34.8470 Y25.8188 
G01 X34.8470 Y25.7455 
G01 X34.8444 Y25.7358 
G01 X34.8280 Y25.6746 
G01 X34.7913 Y25.6111 
G01 X34.7394 Y25.5592 
G01 X34.7349 Y25.5547 
G01 X34.6134 Y25.2612 
G01 X34.5687 Y25.2030 
G01 X34.5105 Y25.1584 
G01 X34.4427 Y25.1303 
G01 X34.3700 Y25.1207 
G01 X34.2973 Y25.1303 
G01 X34.2295 Y25.1584 
G01 X34.1713 Y25.2030 
G01 X34.1266 Y25.2612 
G01 X34.0986 Y25.3290 
G01 X34.0051 Y25.5547 
G01 X33.7047 Y25.8551 
G01 X33.3124 Y26.0176 
G01 X32.8876 Y26.0176 
G01 X32.4953 Y25.8551 
G01 X32.2519 Y25.6117 
G01 X32.2000 Y25.5599 
G01 X32.1365 Y25.5232 
G01 X32.0657 Y25.5042 
G01 X27.4096 Y25.5042 
G01 X27.3387 Y25.5232 
G01 X27.2752 Y25.5599 
G01 X27.1969 Y25.6382 
G01 X26.9072 Y25.7582 
G01 X25.2728 Y25.7582 
G01 X24.9831 Y25.6382 
G01 X24.7614 Y25.4165 
G01 X24.6414 Y25.1268 
G01 X24.6414 Y24.8132 
G01 X24.7614 Y24.5235 
G01 X24.9831 Y24.3018 
G01 X25.2728 Y24.1818 
G01 X26.9072 Y24.1818 
G01 X27.1969 Y24.3018 
G01 X27.2233 Y24.3283 
G01 X27.2752 Y24.3801 
G01 X27.3387 Y24.4168 
G01 X27.4096 Y24.4358 
G01 X32.0257 Y24.4358 
G01 X32.0965 Y24.4168 
G01 X32.1600 Y24.3801 
G01 X32.4953 Y24.0449 
G01 X32.8876 Y23.8824 
G01 X33.3124 Y23.8824 
G01 X33.7047 Y24.0449 
G01 X34.0051 Y24.3453 
G01 X34.0986 Y24.5710 
G01 X34.1266 Y24.6388 
G01 X34.1713 Y24.6970 
G01 X34.2295 Y24.7416 
G01 X34.2973 Y24.7697 
G01 X34.3034 Y24.7705 
G01 X34.3700 Y24.7793 
G01 X34.4427 Y24.7697 
G01 X34.5105 Y24.7416 
G01 X34.5687 Y24.6970 
G01 X34.6134 Y24.6388 
G01 X34.7349 Y24.3453 
G01 X35.0483 Y24.0319 
G01 X35.1001 Y23.9800 
G01 X35.1368 Y23.9165 
G01 X35.1558 Y23.8457 
G01 X35.1558 Y17.9043 
G01 X35.1368 Y17.8335 
G01 X35.1001 Y17.7699 
G01 X34.7849 Y17.4547 
G01 X34.6634 Y17.1612 
G01 X34.6187 Y17.1030 
G01 X34.5605 Y17.0584 
G01 X34.4927 Y17.0303 
G01 X34.4200 Y17.0207 
G01 X34.3473 Y17.0303 
G01 X34.2795 Y17.0584 
G01 X34.2213 Y17.1030 
G01 X34.1766 Y17.1612 
G01 X34.1486 Y17.2290 
G01 X34.0551 Y17.4547 
G01 X33.7547 Y17.7551 
G01 X33.3624 Y17.9176 
G01 X32.9376 Y17.9176 
G01 X32.5453 Y17.7551 
G01 X32.3719 Y17.5817 
G01 X32.3200 Y17.5299 
G01 X32.2565 Y17.4932 
G01 X32.1857 Y17.4742 
G01 X27.3496 Y17.4742 
G01 X27.2787 Y17.4932 
G01 X27.2152 Y17.5299 
G01 X27.1369 Y17.6082 
G01 X26.8472 Y17.7282 
G01 X25.2128 Y17.7282 
G01 X24.9231 Y17.6082 
G01 X24.7014 Y17.3865 
G01 X24.5814 Y17.0968 
G01 X24.5814 Y16.7832 
G01 X24.7014 Y16.4935 
G01 X24.9231 Y16.2718 
G01 X25.2128 Y16.1518 
G01 X26.8472 Y16.1518 
G01 X27.1369 Y16.2718 
G01 X27.1633 Y16.2983 
G01 X27.2152 Y16.3501 
G01 X27.2787 Y16.3868 
G01 X27.3496 Y16.4058 
G01 X31.9740 Y16.4058 
G01 X31.9923 Y16.4082 
G01 X32.0105 Y16.4058 
G01 X32.0290 Y16.4058 
G01 X32.0467 Y16.4010 
G01 X32.0650 Y16.3986 
G01 X32.0820 Y16.3916 
G01 X32.0998 Y16.3868 
G01 X32.1158 Y16.3776 
G01 X32.1328 Y16.3706 
G01 X32.1474 Y16.3593 
G01 X32.1633 Y16.3501 
G01 X32.1764 Y16.3371 
G01 X32.1910 Y16.3259 
G01 X32.2022 Y16.3113 
G01 X32.2152 Y16.2983 
G01 X32.2244 Y16.2823 
G01 X32.2356 Y16.2677 
G01 X32.2427 Y16.2507 
G01 X32.2470 Y16.2431 
G01 X32.5453 Y15.9449 
G01 X32.9376 Y15.7824 
G01 X33.3624 Y15.7824 
G01 X33.7547 Y15.9449 
G01 X34.0551 Y16.2453 
G01 X34.1486 Y16.4710 
G01 X34.1766 Y16.5388 
G01 X34.2213 Y16.5970 
G01 X34.2795 Y16.6416 
G01 X34.3473 Y16.6697 
G01 X34.3534 Y16.6705 
G01 X34.4200 Y16.6793 
G01 X34.4927 Y16.6697 
G01 X34.5605 Y16.6416 
G01 X34.6187 Y16.5970 
G01 X34.6634 Y16.5388 
G01 X34.7849 Y16.2452 
G01 X35.0853 Y15.9449 
G01 X35.4776 Y15.7824 
G01 X35.9024 Y15.7824 
G01 X36.2947 Y15.9449 
G01 X36.5681 Y16.2183 
G01 X36.6199 Y16.2701 
G01 X36.6835 Y16.3068 
G01 X36.7543 Y16.3258 
G01 X40.5394 Y16.3258 
G01 X40.5591 Y16.3205 
G01 X40.6102 Y16.3068 
G01 X40.6737 Y16.2701 
G01 X40.7256 Y16.2183 
G01 X40.7983 Y16.1456 
G01 X40.8501 Y16.0937 
G01 X40.8868 Y16.0302 
G01 X40.9058 Y15.9593 
G01 X40.9058 Y13.7706 
G01 X40.8868 Y13.6998 
G01 X40.8501 Y13.6363 
G01 X40.6211 Y13.4072 
G01 X40.4740 Y13.0521 
G01 X40.4740 Y12.6678 
G01 X40.6211 Y12.3128 
G01 X40.8283 Y12.1056 
G01 X40.8801 Y12.0537 
G01 X40.9168 Y11.9902 
G01 X40.9358 Y11.9193 
G01 X40.9358 Y9.2706 
G01 X40.9168 Y9.1998 
G01 X40.8801 Y9.1363 
G01 X40.8356 Y9.0917 
G01 X40.7837 Y9.0399 
G01 X40.7202 Y9.0032 
G01 X40.6493 Y8.9842 
G01 X36.8443 Y8.9842 
G01 X36.7735 Y9.0032 
G01 X36.7099 Y9.0399 
G01 X36.3947 Y9.3551 
G01 X36.0024 Y9.5176 
G01 X35.5776 Y9.5176 
G01 X35.1853 Y9.3551 
G01 X34.8849 Y9.0547 
G01 X34.7634 Y8.7612 
G01 X34.7187 Y8.7030 
G01 X34.6605 Y8.6584 
G01 X34.5927 Y8.6303 
G01 X34.5200 Y8.6207 
G01 X34.4473 Y8.6303 
G01 X34.3795 Y8.6584 
G01 X34.3213 Y8.7030 
G01 X34.2766 Y8.7612 
G01 X34.2486 Y8.8290 
G01 X34.1551 Y9.0547 
G01 X33.8547 Y9.3551 
G01 X33.4624 Y9.5176 
G01 X33.0376 Y9.5176 
G01 X32.6453 Y9.3551 
G01 X32.4719 Y9.1817 
G01 X32.4200 Y9.1299 
G01 X32.3565 Y9.0932 
G01 X32.2857 Y9.0742 
G01 X27.3496 Y9.0742 
G01 X27.2787 Y9.0932 
G01 X27.2152 Y9.1299 
G01 X27.1369 Y9.2082 
G01 X26.8472 Y9.3282 
G01 X25.2128 Y9.3282 
G01 X24.9231 Y9.2082 
G01 X24.7014 Y8.9865 
G01 X24.5814 Y8.6968 
G01 X24.5814 Y8.3832 
G01 X24.7014 Y8.0935 
G01 X24.9231 Y7.8718 
G01 X25.2128 Y7.7518 
G01 X26.8472 Y7.7518 
G01 X27.1369 Y7.8718 
G01 X27.1633 Y7.8983 
G01 X27.2152 Y7.9501 
G01 X27.2787 Y7.9868 
G01 X27.3496 Y8.0058 
G01 X32.0740 Y8.0058 
G01 X32.0923 Y8.0082 
G01 X32.1105 Y8.0058 
G01 X32.1290 Y8.0058 
G01 X32.1467 Y8.0010 
G01 X32.1650 Y7.9986 
G01 X32.1820 Y7.9916 
G01 X32.1998 Y7.9868 
G01 X32.2158 Y7.9776 
G01 X32.2328 Y7.9706 
G01 X32.2474 Y7.9593 
G01 X32.2633 Y7.9501 
G01 X32.2764 Y7.9371 
G01 X32.2910 Y7.9259 
G01 X32.3022 Y7.9113 
G01 X32.3152 Y7.8983 
G01 X32.3244 Y7.8823 
G01 X32.3356 Y7.8677 
G01 X32.3427 Y7.8507 
G01 X32.3470 Y7.8431 
G01 X32.6453 Y7.5449 
G01 X33.0376 Y7.3824 
G01 X33.4624 Y7.3824 
G01 X33.8547 Y7.5449 
G01 X34.1551 Y7.8453 
G01 X34.2486 Y8.0710 
G01 X34.2766 Y8.1388 
G01 X34.3213 Y8.1970 
G01 X34.3795 Y8.2416 
G01 X34.4473 Y8.2697 
G01 X34.4534 Y8.2705 
G01 X34.5200 Y8.2793 
G01 X34.5927 Y8.2697 
G01 X34.6605 Y8.2416 
G01 X34.7187 Y8.1970 
G01 X34.7634 Y8.1388 
G01 X34.8849 Y7.8453 
G01 X35.1853 Y7.5449 
G01 X35.5776 Y7.3824 
G01 X36.0024 Y7.3824 
G01 X36.3947 Y7.5449 
G01 X36.6581 Y7.8083 
G01 X36.7099 Y7.8601 
G01 X36.7735 Y7.8968 
G01 X36.8443 Y7.9158 
G01 X40.4693 Y7.9158 
G01 X40.5402 Y7.8968 
G01 X40.6037 Y7.8601 
G01 X40.8183 Y7.6456 
G01 X40.8701 Y7.5937 
G01 X40.9068 Y7.5302 
G01 X40.9258 Y7.4593 
G01 X40.9258 Y4.9706 
G01 X40.9068 Y4.8998 
G01 X40.8701 Y4.8363 
G01 X40.6411 Y4.6072 
G01 X40.4940 Y4.2522 
G01 X40.4940 Y3.8678 
G01 X40.6411 Y3.5128 
G01 X40.9128 Y3.2411 
G01 X41.2678 Y3.0940 
G01 X41.6521 Y3.0940 
G01 X42.0072 Y3.2411 
G01 X42.2789 Y3.5128 
G01 X42.4260 Y3.8678 
G01 X42.4260 Y4.2522 
G01 X42.2789 Y4.6072 
G01 X42.1017 Y4.7844 
G01 X42.0499 Y4.8363 
G01 X42.0132 Y4.8998 
G01 X41.9942 Y4.9706 
G01 X41.9942 Y7.4393 
G01 X42.0132 Y7.5102 
G01 X42.0499 Y7.5737 
G01 X42.2889 Y7.8128 
G01 X42.4360 Y8.1678 
G01 X42.4360 Y8.5521 
G01 X42.2889 Y8.9072 
G01 X42.1117 Y9.0844 
G01 X42.0599 Y9.1363 
G01 X42.0232 Y9.1998 
G01 X42.0042 Y9.2706 
G01 X42.0042 Y11.9793 
G01 X42.0232 Y12.0502 
G01 X42.0599 Y12.1137 
G01 X42.2589 Y12.3128 
G01 X42.4060 Y12.6678 
G01 X42.4060 Y13.0521 
G01 X42.2589 Y13.4072 
G01 X42.0817 Y13.5844 
G01 X42.0299 Y13.6363 
G01 X41.9932 Y13.6998 
G01 X41.9742 Y13.7706 
G01 X41.9742 Y15.9393 
G01 X41.9932 Y16.0102 
G01 X42.0299 Y16.0737 
G01 X42.2689 Y16.3128 
G01 X42.4160 Y16.6678 
G01 X42.4160 Y17.0522 
G01 X42.2689 Y17.4072 
G01 X41.9972 Y17.6789 
G01 X41.6422 Y17.8260 
G01 X41.2578 Y17.8260 
G01 X40.9028 Y17.6789 
G01 X40.7256 Y17.5017 
G01 X40.6737 Y17.4499 
G01 X40.6102 Y17.4132 
G01 X40.5575 Y17.3991 
G01 X40.5394 Y17.3942 
G01 X36.7343 Y17.3942 
G01 X36.6635 Y17.4132 
G01 X36.5999 Y17.4499 
G01 X36.3317 Y17.7181 
G01 X36.2799 Y17.7699 
G01 X36.2432 Y17.8335 
G01 X36.2242 Y17.9043 
G01 X36.2242 Y23.9457 
G01 X36.2432 Y24.0165 
G01 X36.2799 Y24.0800 
G01 X36.5451 Y24.3453 
G01 X36.7076 Y24.7376 
G01 X36.7076 Y25.1624 
G01 X36.5451 Y25.5547 
G01 X36.2550 Y25.8448 
G01 X36.2404 Y25.8560 
G01 X36.2292 Y25.8706 
G01 X36.2162 Y25.8836 
G01 X36.2070 Y25.8996 
G01 X36.1958 Y25.9142 
G01 X36.1887 Y25.9312 
G01 X36.1795 Y25.9471 
G01 X36.1747 Y25.9649 
G01 X36.0929 Y26.1626 
G01 X35.9293 Y26.3261 
G01 X33.7417 Y28.5137 
G01 X33.6899 Y28.5656 
G01 X33.6532 Y28.6291 
G01 X33.6342 Y28.7000 
G01 X33.6342 Y30.6000 
G01 X33.6532 Y30.6709 
G01 X33.6899 Y30.7344 
G01 X38.5137 Y35.5583 
G01 X38.5656 Y35.6101 
G01 X38.6291 Y35.6468 
G01 X38.7000 Y35.6658 
G01 X39.0675 Y35.6658 
G01 X39.1384 Y35.6468 
G01 X39.2019 Y35.6101 
G01 X39.6602 Y35.1519 
G01 X39.6976 Y35.0875 
G01 X39.7166 Y35.0167 
G01 X39.7166 Y34.9433 
G01 X39.6976 Y34.8725 
G01 X39.6610 Y34.8089 
G01 X39.6091 Y34.7571 
G01 X38.9832 Y34.1312 
G01 X38.9832 Y33.2888 
G01 X39.6602 Y32.6119 
G01 X39.6976 Y32.5475 
G01 X39.7166 Y32.4767 
G01 X39.7166 Y32.4033 
G01 X39.6976 Y32.3325 
G01 X39.6610 Y32.2689 
G01 X39.6091 Y32.2171 
G01 X38.9832 Y31.5912 
G01 X38.9832 Y30.7488 
G01 X39.6602 Y30.0719 
G01 X39.6976 Y30.0075 
G01 X39.7166 Y29.9367 
G01 X39.7166 Y29.8633 
G01 X39.6976 Y29.7925 
G01 X39.6610 Y29.7289 
G01 X39.6091 Y29.6771 
G01 X38.9832 Y29.0512 
G01 X38.9832 Y28.2088 
G01 X39.6602 Y27.5319 
G01 X39.6976 Y27.4675 
G01 X39.7166 Y27.3967 
G01 X39.7166 Y27.3233 
G01 X39.6976 Y27.2525 
G01 X39.6610 Y27.1889 
G01 X39.6091 Y27.1371 
G01 X38.9832 Y26.5112 
G01 X38.9832 Y25.6688 
G01 X39.6242 Y25.0278 
G01 X39.6617 Y24.9635 
G01 X39.6807 Y24.8926 
G01 X39.6807 Y24.8192 
G01 X39.6617 Y24.7484 
G01 X39.6250 Y24.6849 
G01 X39.5732 Y24.6330 
G01 X38.9324 Y23.9922 
G01 X38.9324 Y23.8794 
G01 X39.0356 Y23.8794 
G01 X39.0356 Y23.9495 
G01 X39.6005 Y24.5144 
G01 X40.3995 Y24.5144 
G01 X40.9644 Y23.9495 
G01 X40.9644 Y23.8794 
G01 X41.0676 Y23.8794 
G01 X41.0676 Y23.9922 
G01 X40.4268 Y24.6330 
G01 X40.3750 Y24.6849 
G01 X40.3383 Y24.7484 
G01 X40.3193 Y24.8192 
G01 X40.3193 Y24.8926 
G01 X40.3383 Y24.9635 
G01 X40.3749 Y25.0270 
G01 X40.7062 Y25.3583 
G01 X40.7581 Y25.4101 
G01 X40.8216 Y25.4468 
G01 X40.8925 Y25.4658 
G01 X41.4000 Y25.4658 
G01 X41.4709 Y25.4468 
G01 X41.5344 Y25.4101 
G01 X46.5574 Y20.3871 
G01 X46.7537 Y20.3058 
G01 X50.5894 Y20.3058 
G01 X50.6602 Y20.2868 
G01 X50.7237 Y20.2501 
G01 X50.7756 Y20.1983 
G01 X51.0999 Y19.8740 
G01 X51.9001 Y19.8740 
G01 X52.4660 Y20.4399 
G01 X52.4660 Y21.2401 
G01 X51.9001 Y21.8060 
G01 X51.0999 Y21.8060 
G01 X50.7756 Y21.4817 
G01 X50.7237 Y21.4299 
G01 X50.6602 Y21.3932 
G01 X50.5894 Y21.3742 
G01 X47.1600 Y21.3742 
G01 X47.0891 Y21.3932 
G01 X47.0256 Y21.4299 
G01 X42.2180 Y26.2375 
G01 X42.0026 Y26.4529 
G01 X41.8063 Y26.5342 
G01 X41.0725 Y26.5342 
G01 X41.0016 Y26.5532 
G01 X40.9381 Y26.5899 
G01 X40.3909 Y27.1371 
G01 X40.3390 Y27.1889 
G01 X40.3023 Y27.2525 
G01 X40.2836 Y27.3225 
G01 X40.2834 Y27.3967 
G01 X40.3023 Y27.4675 
G01 X40.3390 Y27.5311 
G01 X40.7662 Y27.9583 
G01 X40.8181 Y28.0101 
G01 X40.8816 Y28.0468 
G01 X40.9525 Y28.0658 
G01 X41.9000 Y28.0658 
G01 X41.9709 Y28.0468 
G01 X42.0344 Y28.0101 
G01 X47.1174 Y22.9271 
G01 X47.3137 Y22.8458 
G01 X50.5894 Y22.8458 
G01 X50.6602 Y22.8268 
G01 X50.7237 Y22.7901 
G01 X50.7756 Y22.7383 
G01 X51.0999 Y22.4140 
G01 X51.9001 Y22.4140 
G01 X52.4660 Y22.9799 
G01 X52.4660 Y23.7801 
G01 X51.9001 Y24.3460 
G01 X51.0999 Y24.3460 
G01 X50.7756 Y24.0217 
G01 X50.7237 Y23.9699 
G01 X50.6602 Y23.9332 
G01 X50.5894 Y23.9142 
G01 X47.7200 Y23.9142 
G01 X47.6491 Y23.9332 
G01 X47.5856 Y23.9699 
G01 X42.7180 Y28.8375 
G01 X42.5026 Y29.0529 
G01 X42.3063 Y29.1342 
G01 X41.0125 Y29.1342 
G01 X40.9416 Y29.1532 
G01 X40.8781 Y29.1899 
G01 X40.3909 Y29.6771 
G01 X40.3390 Y29.7289 
G01 X40.3023 Y29.7925 
G01 X40.2836 Y29.8625 
G01 X40.2834 Y29.9367 
G01 X40.3023 Y30.0075 
G01 X40.3390 Y30.0711 
G01 X40.7262 Y30.4583 
G01 X40.7781 Y30.5101 
G01 X40.8416 Y30.5468 
G01 X40.9125 Y30.5658 
G01 X43.2000 Y30.5658 
G01 X43.2709 Y30.5468 
G01 X43.3344 Y30.5101 
G01 X46.8534 Y26.9911 
G01 X47.0497 Y26.9098 
G01 X50.5894 Y26.9098 
G01 X50.6602 Y26.8908 
G01 X50.7237 Y26.8541 
G01 X50.7756 Y26.8023 
G01 X51.0999 Y26.4780 
G01 X51.9001 Y26.4780 
G01 X52.4660 Y27.0439 
G01 X52.4660 Y27.8441 
G01 X51.9001 Y28.4100 
G01 X51.0999 Y28.4100 
G01 X50.7756 Y28.0857 
G01 X50.7237 Y28.0339 
G01 X50.6602 Y27.9972 
G01 X50.5894 Y27.9782 
G01 X47.4560 Y27.9782 
G01 X47.3851 Y27.9972 
G01 X47.3216 Y28.0339 
G01 X44.0180 Y31.3375 
G01 X43.8026 Y31.5529 
G01 X43.6063 Y31.6342 
G01 X41.0525 Y31.6342 
G01 X40.9816 Y31.6532 
G01 X40.9181 Y31.6899 
G01 X40.3909 Y32.2171 
G01 X40.3390 Y32.2689 
G01 X40.3023 Y32.3325 
G01 X40.2834 Y32.4033 
G01 X40.2834 Y32.4767 
G01 X40.3023 Y32.5475 
G01 X40.3390 Y32.6111 
G01 X40.7862 Y33.0583 
G01 X40.8381 Y33.1101 
G01 X40.9016 Y33.1468 
G01 X40.9725 Y33.1658 
G01 X44.0000 Y33.1658 
G01 X44.0709 Y33.1468 
G01 X44.1344 Y33.1101 
G01 X47.7134 Y29.5311 
G01 X47.9097 Y29.4498 
G01 X50.5894 Y29.4498 
G01 X50.6602 Y29.4308 
G01 X50.7237 Y29.3941 
G01 X50.7756 Y29.3423 
G01 X51.0999 Y29.0180 
G01 X51.9001 Y29.0180 
G01 X52.4660 Y29.5839 
G01 X52.4660 Y30.3841 
G01 X51.9001 Y30.9500 
G01 X51.0999 Y30.9500 
G01 X50.7756 Y30.6257 
G01 X50.7237 Y30.5739 
G01 X50.6602 Y30.5372 
G01 X50.5894 Y30.5182 
G01 X48.3160 Y30.5182 
G01 X48.2451 Y30.5372 
G01 X48.1816 Y30.5739 
G01 X44.8180 Y33.9375 
G01 X44.6026 Y34.1529 
G01 X44.4063 Y34.2342 
G01 X40.9925 Y34.2342 
G01 X40.9216 Y34.2532 
G01 X40.8581 Y34.2899 
G01 X40.3909 Y34.7571 
G01 X40.3390 Y34.8089 
G01 X40.3023 Y34.8725 
G01 X40.2834 Y34.9433 
G01 X40.2834 Y35.0167 
G01 X40.3023 Y35.0875 
G01 X40.3390 Y35.1511 
G01 X41.0168 Y35.8288 
G01 X41.0168 Y36.6712 
G01 X40.4212 Y37.2668 
G01 X39.5788 Y37.2668 
G01 X39.1538 Y36.8417 
G01 X39.1019 Y36.7899 
G01 X39.0384 Y36.7532 
G01 X38.9675 Y36.7342 
G01 X38.2937 Y36.7342 
G01 X38.0974 Y36.6529 
G01 X37.9339 Y36.4893 
G01 X32.6471 Y31.2026 
G01 X32.5658 Y31.0063 
G01 X32.5658 Y29.1761 
G01 X32.5468 Y29.1053 
G01 X32.5101 Y29.0417 
G01 X32.4583 Y28.9899 
G01 X32.3947 Y28.9532 
G01 X32.3239 Y28.9342 
G01 X19.5837 Y28.9342 
G01 X19.3874 Y28.8529 
G01 X19.2239 Y28.6893 
G01 X16.5581 Y26.0235 
G01 X16.5062 Y25.9717 
G01 X16.4427 Y25.9350 
G01 X16.3718 Y25.9160 
G01 X16.0478 Y25.9160 
G01 X15.6928 Y25.7689 
G01 X15.4756 Y25.5517 
G01 X15.4237 Y25.4999 
G01 X15.3602 Y25.4632 
G01 X15.2893 Y25.4442 
G01 X12.7706 Y25.4442 
G01 X12.7508 Y25.4495 
G01 X12.6998 Y25.4632 
G01 X12.6363 Y25.4999 
G01 X12.5844 Y25.5517 
G01 X12.4072 Y25.7289 
G01 X12.0521 Y25.8760 
G01 X11.6678 Y25.8760 
G01 X11.3128 Y25.7289 
G01 X11.1656 Y25.5817 
G01 X11.1137 Y25.5299 
G01 X11.0502 Y25.4932 
G01 X10.9975 Y25.4791 
G01 X10.9794 Y25.4742 
G01 X8.3106 Y25.4742 
G01 X8.2398 Y25.4932 
G01 X8.1763 Y25.5299 
G01 X8.0417 Y25.6644 
G01 X7.9899 Y25.7163 
G01 X7.9532 Y25.7798 
G01 X7.9342 Y25.8506 
G01 X7.9342 Y28.0063 
G01 X7.8529 Y28.2026 
G01 X7.6893 Y28.3661 
G01 X4.6026 Y31.4529 
G01 X4.4063 Y31.5342 
G01 X4.1506 Y31.5342 
G01 X4.0798 Y31.5532 
G01 X4.0163 Y31.5899 
G01 X3.6401 Y31.9660 
G01 X2.8399 Y31.9660 
G01 X2.5357 Y31.6619 
G01 X2.4839 Y31.6100 
G01 X2.4203 Y31.5733 
G01 X2.3495 Y31.5543 
G01 X2.2761 Y31.5543 
G01 X2.2053 Y31.5733 
G01 X2.1417 Y31.6100 
G01 X2.0899 Y31.6619 
G01 X2.0532 Y31.7254 
G01 X2.0342 Y31.7962 
G01 X2.0342 Y32.7438 
G01 X2.0532 Y32.8146 
G01 X2.0899 Y32.8781 
G01 X2.1409 Y32.9292 
G01 X2.2053 Y32.9667 
G01 X2.2761 Y32.9857 
G01 X2.3495 Y32.9857 
G01 X2.4203 Y32.9667 
G01 X2.4839 Y32.9300 
G01 X2.5357 Y32.8781 
G01 X2.8399 Y32.5740 
G01 X3.6401 Y32.5740 
G01 X4.2060 Y33.1399 
G01 X4.2060 Y33.9401 
G01 X3.6401 Y34.5060 
G01 X2.8399 Y34.5060 
G01 X2.5357 Y34.2019 
G01 X2.4839 Y34.1500 
G01 X2.4203 Y34.1133 
G01 X2.3495 Y34.0943 
G01 X2.2761 Y34.0943 
G01 X2.2053 Y34.1133 
G01 X2.1417 Y34.1500 
G01 X2.0899 Y34.2019 
G01 X2.0532 Y34.2654 
G01 X2.0342 Y34.3362 
G01 X2.0342 Y35.2838 
G01 X2.0532 Y35.3546 
G01 X2.0899 Y35.4181 
G01 X2.1409 Y35.4692 
G01 X2.2053 Y35.5067 
G01 X2.2761 Y35.5257 
G01 X2.3495 Y35.5257 
G01 X2.4203 Y35.5067 
G01 X2.4839 Y35.4700 
G01 X2.5357 Y35.4181 
G01 X2.8399 Y35.1140 
G01 X3.6401 Y35.1140 
G01 X4.2060 Y35.6799 
G01 X4.2060 Y36.4801 
G01 X3.6401 Y37.0460 
G01 X2.8399 Y37.0460 
G01 X2.5357 Y36.7419 
G01 X2.4839 Y36.6900 
G01 X2.4203 Y36.6533 
G01 X2.3495 Y36.6343 
G01 X2.2761 Y36.6343 
G01 X2.2053 Y36.6533 
G01 X2.1417 Y36.6900 
G01 X2.0899 Y36.7419 
G01 X2.0532 Y36.8054 
G01 X2.0342 Y36.8762 
G01 X2.0342 Y45.5000 
G01 X2.0532 Y45.5709 
G01 X2.0899 Y45.6344 
G01 X7.8137 Y51.3583 
G01 X7.8656 Y51.4101 
G01 X7.9291 Y51.4468 
G01 X8.0000 Y51.4658 
G01 X9.5483 Y51.4658 
G01 X9.6191 Y51.4468 
G01 X9.6827 Y51.4101 
G01 X9.7345 Y51.3583 
G01 X9.7712 Y51.2947 
G01 X9.7902 Y51.2239 
G01 X9.7902 Y51.0810 
G01 X9.9257 Y50.7540 
G01 X10.1760 Y50.5037 
G01 X10.5030 Y50.3682 
G01 X10.8570 Y50.3682 
G01 X11.1840 Y50.5037 
G01 X11.4343 Y50.7540 
G01 X11.5698 Y51.0810 
G01 X11.5698 Y52.9590 
G01 X11.4343 Y53.2860 
G01 X11.1840 Y53.5363 
G01 X10.8570 Y53.6718 
G01 X10.5030 Y53.6718 
G01 X10.1760 Y53.5363 
G01 X9.9257 Y53.2860 
G01 X9.7902 Y52.9590 
G01 X9.7902 Y52.7761 
G01 X9.7712 Y52.7053 
G01 X9.7345 Y52.6417 
G01 X9.6827 Y52.5899 
G01 X9.6191 Y52.5532 
G01 X9.5483 Y52.5342 
G01 X7.5937 Y52.5342 
G01 X7.3974 Y52.4529 
G01 X7.2339 Y52.2893 
G01 X1.9621 Y47.0176 
G01 X1.9103 Y46.9657 
G01 X1.8467 Y46.9290 
G01 X1.7759 Y46.9101 
G01 X1.7025 Y46.9101 
G01 X1.6317 Y46.9290 
G01 X1.5681 Y46.9657 
G01 X1.5163 Y47.0176 
G01 X1.4796 Y47.0811 
G01 X1.4606 Y47.1520 
G01 X1.4606 Y52.7778 
G01 X1.4796 Y52.8487 
G01 X1.5163 Y52.9122 
G01 X1.5673 Y52.9633 
G01 X1.6317 Y53.0008 
G01 X1.7025 Y53.0198 
G01 X1.7759 Y53.0198 
G01 X1.8467 Y53.0008 
G01 X1.9103 Y52.9641 
G01 X2.2594 Y52.7625 
G01 X2.9055 Y52.5894 
G01 X3.5745 Y52.5894 
G01 X4.2206 Y52.7625 
G01 X4.8000 Y53.0970 
G01 X5.2730 Y53.5700 
G01 X5.6075 Y54.1494 
G01 X5.7806 Y54.7955 
G01 X5.7806 Y55.4645 
G01 X5.6075 Y56.1106 
G01 X5.2730 Y56.6900 
G01 X4.8000 Y57.1630 
G01 X4.2206 Y57.4975 
G01 X3.5745 Y57.6706 
G01 X2.9055 Y57.6706 
G01 X2.2594 Y57.4975 
G01 X1.9103 Y57.2959 
G01 X1.8467 Y57.2592 
G01 X1.8042 Y57.2478 
G01 X1.7759 Y57.2402 
G01 X1.7025 Y57.2402 
G01 X1.6317 Y57.2592 
G01 X1.5681 Y57.2959 
G01 X1.5398 Y57.3242 
G01 X1.5163 Y57.3478 
G01 X1.4796 Y57.4113 
G01 X1.4682 Y57.4539 
G01 X1.4606 Y57.4822 
G01 X1.4606 Y68.0275 
G01 X1.4796 Y68.0983 
G01 X1.5163 Y68.1619 
G01 X1.5681 Y68.2137 
G01 X1.6317 Y68.2504 
G01 X1.7025 Y68.2694 
G01 X52.8341 Y68.2694 
G01 X52.8702 Y68.2695 
G01 X52.9063 Y68.2599 
G01 X52.9411 Y68.2507 
G01 X52.9736 Y68.2321 
G01 X53.0048 Y68.2142 
G01 X53.0310 Y68.1881 
G01 X53.0568 Y68.1625 
G01 X53.0757 Y68.1300 
G01 X53.0937 Y68.0991 
G01 X53.1035 Y68.0627 
G01 X53.1129 Y68.0283 
G01 X53.1130 Y67.9910 
G01 X53.1471 Y56.3623 
G01 X53.1472 Y56.3255 
G01 X53.1473 Y56.2893 
G01 X53.1378 Y56.2537 
G01 X53.1285 Y56.2184 
G01 X53.1103 Y56.1868 
G01 X53.0920 Y56.1548 
G01 X53.0661 Y56.1288 
G01 X53.0403 Y56.1027 
G01 X53.0077 Y56.0838 
G01 X52.9769 Y56.0659 
G01 X52.9405 Y56.0560 
G01 X52.9061 Y56.0467 
G01 X52.8688 Y56.0466 
G01 X52.8327 Y56.0465 
G01 X52.7971 Y56.0559 
G01 X52.7618 Y56.0653 
G01 X52.7302 Y56.0834 
G01 X52.6982 Y56.1017 
G01 X52.4806 Y56.2275 
G01 X51.8345 Y56.4006 
G01 X51.1655 Y56.4006 
G01 X50.5194 Y56.2275 
G01 X49.9400 Y55.8930 
G01 X49.4670 Y55.4200 
G01 X49.1325 Y54.8406 
G01 X48.9594 Y54.1945 
G01 X48.9594 Y53.5255 
G01 X49.1325 Y52.8794 
G01 X49.4670 Y52.3000 
G01 X49.9400 Y51.8270 
G01 X50.5194 Y51.4925 
G01 X51.1655 Y51.3194 
G01 X51.8345 Y51.3194 
G01 X52.4806 Y51.4925 
G01 X52.7430 Y51.6440 
G01 X52.7747 Y51.6624 
G01 X52.8106 Y51.6722 
G01 X52.8455 Y51.6816 
G01 X52.8827 Y51.6817 
G01 X52.9189 Y51.6818 
G01 X52.9550 Y51.6723 
G01 X52.9898 Y51.6631 
G01 X53.0222 Y51.6445 
G01 X53.0534 Y51.6266 
G01 X53.0794 Y51.6007 
G01 X53.1054 Y51.5749 
G01 X53.1239 Y51.5431 
G01 X53.1423 Y51.5114 
G01 X53.1520 Y51.4756 
G01 X53.1615 Y51.4406 
G01 X53.1616 Y51.4033 
G01 X53.3057 Y2.2463 
G01 X53.3058 Y2.2096 
G01 X53.3059 Y2.1733 
G01 X53.2964 Y2.1372 
G01 X53.2871 Y2.1024 
G01 X53.2685 Y2.0700 
G01 X53.2507 Y2.0388 
G01 X53.2245 Y2.0125 
G01 X53.1989 Y1.9868 
G01 X53.1664 Y1.9679 
G01 X53.1355 Y1.9499 
G01 X53.0991 Y1.9400 
G01 X53.0647 Y1.9307 
G01 X53.0275 Y1.9306 
G01 X52.9914 Y1.9305 
G01 X38.9140 Y1.9306 
G01 X38.8431 Y1.9496 
G01 X38.7796 Y1.9863 
G01 X38.7285 Y2.0373 
G01 X38.6911 Y2.1017 
G01 X38.6721 Y2.1725 
G01 X38.6721 Y2.2459 
G01 X38.6911 Y2.3167 
G01 X38.8006 Y2.7255 
G01 X38.8006 Y3.3945 
G01 X38.6275 Y4.0406 
G01 X38.2930 Y4.6200 
G01 X37.8200 Y5.0930 
G01 X37.2406 Y5.4275 
G01 X36.5945 Y5.6006 
G01 X35.9255 Y5.6006 
G01 X35.2794 Y5.4275 
G01 X34.7000 Y5.0930 
G01 X34.2270 Y4.6200 
G01 X33.8925 Y4.0406 
G01 X33.7194 Y3.3945 
G01 X33.7194 Y2.7255 
G01 X33.8289 Y2.3167 
G01 X33.8479 Y2.2459 
G01 X33.8479 Y2.1725 
G01 X33.8289 Y2.1017 
G01 X33.7923 Y2.0381 
G01 X33.7404 Y1.9863 
G01 X33.6769 Y1.9496 
G01 X33.6060 Y1.9306 
G01 X1.7025 Y1.9306 
G01 X1.6317 Y1.9496 
G01 X1.5681 Y1.9863 
G01 X1.5163 Y2.0381 
G00 Z3.0000 
G00 X2.8399 Y4.6340 
G01 Z-0.1100 F500.00 
G01 X3.6401 Y4.6340 F500.00 
G01 X3.9644 Y4.9583 
G01 X4.0163 Y5.0101 
G01 X4.0798 Y5.0468 
G01 X4.1506 Y5.0658 
G01 X4.9985 Y5.0658 
G01 X5.0167 Y5.0682 
G01 X5.0350 Y5.0658 
G01 X5.0534 Y5.0658 
G01 X5.0712 Y5.0610 
G01 X5.0894 Y5.0586 
G01 X5.1064 Y5.0516 
G01 X5.1242 Y5.0468 
G01 X5.1402 Y5.0376 
G01 X5.1572 Y5.0306 
G01 X5.1718 Y5.0194 
G01 X5.1878 Y5.0101 
G01 X5.2008 Y4.9971 
G01 X5.2154 Y4.9859 
G01 X5.2266 Y4.9713 
G01 X5.2396 Y4.9583 
G01 X5.2489 Y4.9423 
G01 X5.2601 Y4.9277 
G01 X5.2671 Y4.9107 
G01 X5.2763 Y4.8947 
G01 X5.2811 Y4.8769 
G01 X5.3149 Y4.7953 
G01 X5.6153 Y4.4949 
G01 X6.0076 Y4.3324 
G01 X6.4324 Y4.3324 
G01 X6.8247 Y4.4949 
G01 X7.1251 Y4.7953 
G01 X7.2876 Y5.1876 
G01 X7.2876 Y5.6124 
G01 X7.1251 Y6.0047 
G01 X6.8247 Y6.3051 
G01 X6.6473 Y6.3786 
G01 X6.5795 Y6.4066 
G01 X6.5213 Y6.4513 
G01 X6.4767 Y6.5095 
G01 X6.4566 Y6.5580 
G01 X6.4486 Y6.5773 
G01 X6.4390 Y6.6500 
G01 X6.4486 Y6.7227 
G01 X6.4767 Y6.7905 
G01 X6.5213 Y6.8487 
G01 X6.5795 Y6.8934 
G01 X6.8247 Y6.9949 
G01 X7.1251 Y7.2953 
G01 X7.2876 Y7.6876 
G01 X7.2876 Y8.1124 
G01 X7.1251 Y8.5047 
G01 X6.8247 Y8.8051 
G01 X6.4324 Y8.9676 
G01 X6.0076 Y8.9676 
G01 X5.6153 Y8.8051 
G01 X5.5919 Y8.7817 
G01 X5.5400 Y8.7299 
G01 X5.4765 Y8.6932 
G01 X5.4057 Y8.6742 
G01 X4.1506 Y8.6742 
G01 X4.0798 Y8.6932 
G01 X4.0163 Y8.7299 
G01 X3.6401 Y9.1060 
G01 X2.8399 Y9.1060 
G01 X2.2740 Y8.5401 
G01 X2.2740 Y7.7399 
G01 X2.8399 Y7.1740 
G01 X3.6401 Y7.1740 
G01 X3.9644 Y7.4983 
G01 X4.0163 Y7.5501 
G01 X4.0798 Y7.5868 
G01 X4.1506 Y7.6058 
G01 X4.9819 Y7.6058 
G01 X5.0001 Y7.6082 
G01 X5.0184 Y7.6058 
G01 X5.0368 Y7.6058 
G01 X5.0546 Y7.6010 
G01 X5.0729 Y7.5986 
G01 X5.0899 Y7.5916 
G01 X5.1077 Y7.5868 
G01 X5.1236 Y7.5776 
G01 X5.1406 Y7.5706 
G01 X5.1552 Y7.5593 
G01 X5.1712 Y7.5501 
G01 X5.1842 Y7.5371 
G01 X5.1988 Y7.5259 
G01 X5.2100 Y7.5113 
G01 X5.2231 Y7.4983 
G01 X5.2323 Y7.4823 
G01 X5.2435 Y7.4677 
G01 X5.2505 Y7.4507 
G01 X5.2598 Y7.4347 
G01 X5.2645 Y7.4169 
G01 X5.3149 Y7.2953 
G01 X5.6153 Y6.9949 
G01 X5.8605 Y6.8934 
G01 X5.9187 Y6.8487 
G01 X5.9633 Y6.7905 
G01 X5.9914 Y6.7227 
G01 X6.0010 Y6.6500 
G01 X5.9914 Y6.5773 
G01 X5.9829 Y6.5568 
G01 X5.9633 Y6.5095 
G01 X5.9187 Y6.4513 
G01 X5.8605 Y6.4066 
G01 X5.7927 Y6.3786 
G01 X5.6153 Y6.3051 
G01 X5.5519 Y6.2417 
G01 X5.5000 Y6.1899 
G01 X5.4365 Y6.1532 
G01 X5.3657 Y6.1342 
G01 X4.2240 Y6.1342 
G01 X4.1506 Y6.1342 
G01 X4.0798 Y6.1532 
G01 X4.0163 Y6.1899 
G01 X3.6401 Y6.5660 
G01 X2.8399 Y6.5660 
G01 X2.2740 Y6.0001 
G01 X2.2740 Y5.1999 
G01 X2.8399 Y4.6340 
G00 Z3.0000 
G00 X2.8616 Y4.6864 
G01 Z-0.1100 F500.00 
G01 X2.3264 Y5.2216 F500.00 
G01 X2.3264 Y5.9784 
G01 X2.8616 Y6.5136 
G01 X3.6184 Y6.5136 
G01 X4.0502 Y6.0818 
G01 X5.4661 Y6.0818 
G01 X5.5728 Y6.1886 
G01 X5.7391 Y6.2997 
G01 X5.9239 Y6.3762 
G01 X6.1200 Y6.4152 
G01 X6.3200 Y6.4152 
G01 X6.5161 Y6.3762 
G01 X6.7009 Y6.2997 
G01 X6.8671 Y6.1886 
G01 X7.0086 Y6.0472 
G01 X7.1197 Y5.8809 
G01 X7.1962 Y5.6961 
G01 X7.2352 Y5.5000 
G01 X7.2352 Y5.3000 
G01 X7.1962 Y5.1039 
G01 X7.1197 Y4.9191 
G01 X7.0086 Y4.7528 
G01 X6.8671 Y4.6114 
G01 X6.7009 Y4.5003 
G01 X6.5161 Y4.4238 
G01 X6.3200 Y4.3848 
G01 X6.1200 Y4.3848 
G01 X5.9239 Y4.4238 
G01 X5.7391 Y4.5003 
G01 X5.5728 Y4.6114 
G01 X5.4314 Y4.7528 
G01 X5.3203 Y4.9191 
G01 X5.2438 Y5.1039 
G01 X5.2410 Y5.1182 
G01 X4.0502 Y5.1182 
G01 X3.6184 Y4.6864 
G01 X2.8616 Y4.6864 
G00 Z3.0000 
G00 X2.8616 Y7.2264 
G01 Z-0.1100 F500.00 
G01 X2.3264 Y7.7616 F500.00 
G01 X2.3264 Y8.5184 
G01 X2.8616 Y9.0536 
G01 X3.6184 Y9.0536 
G01 X4.0502 Y8.6218 
G01 X5.5061 Y8.6218 
G01 X5.5728 Y8.6886 
G01 X5.7391 Y8.7997 
G01 X5.9239 Y8.8762 
G01 X6.1200 Y8.9152 
G01 X6.3200 Y8.9152 
G01 X6.5161 Y8.8762 
G01 X6.7009 Y8.7997 
G01 X6.8671 Y8.6886 
G01 X7.0086 Y8.5472 
G01 X7.1197 Y8.3809 
G01 X7.1962 Y8.1961 
G01 X7.2352 Y8.0000 
G01 X7.2352 Y7.8000 
G01 X7.1962 Y7.6039 
G01 X7.1197 Y7.4191 
G01 X7.0086 Y7.2528 
G01 X6.8671 Y7.1114 
G01 X6.7009 Y7.0003 
G01 X6.5161 Y6.9238 
G01 X6.3200 Y6.8848 
G01 X6.1200 Y6.8848 
G01 X5.9239 Y6.9238 
G01 X5.7391 Y7.0003 
G01 X5.5728 Y7.1114 
G01 X5.4314 Y7.2528 
G01 X5.3203 Y7.4191 
G01 X5.2438 Y7.6039 
G01 X5.2330 Y7.6582 
G01 X4.0502 Y7.6582 
G01 X3.6184 Y7.2264 
G01 X2.8616 Y7.2264 
G00 Z3.0000 
G00 X2.8399 Y9.7140 
G01 Z-0.1100 F500.00 
G01 X3.6401 Y9.7140 F500.00 
G01 X3.9644 Y10.0383 
G01 X4.0163 Y10.0901 
G01 X4.0798 Y10.1268 
G01 X4.1506 Y10.1458 
G01 X5.0482 Y10.1458 
G01 X5.0664 Y10.1482 
G01 X5.0847 Y10.1458 
G01 X5.1031 Y10.1458 
G01 X5.1209 Y10.1410 
G01 X5.1391 Y10.1386 
G01 X5.1561 Y10.1316 
G01 X5.1740 Y10.1268 
G01 X5.1899 Y10.1176 
G01 X5.2069 Y10.1106 
G01 X5.2215 Y10.0993 
G01 X5.2375 Y10.0901 
G01 X5.2505 Y10.0771 
G01 X5.2651 Y10.0659 
G01 X5.2763 Y10.0513 
G01 X5.2894 Y10.0383 
G01 X5.2986 Y10.0223 
G01 X5.3098 Y10.0077 
G01 X5.3149 Y9.9953 
G01 X5.6153 Y9.6949 
G01 X6.0076 Y9.5324 
G01 X6.4324 Y9.5324 
G01 X6.8247 Y9.6949 
G01 X7.1251 Y9.9953 
G01 X7.2876 Y10.3876 
G01 X7.2876 Y10.8124 
G01 X7.1251 Y11.2047 
G01 X6.8247 Y11.5051 
G01 X6.4324 Y11.6676 
G01 X6.0076 Y11.6676 
G01 X5.6153 Y11.5051 
G01 X5.4319 Y11.3217 
G01 X5.3800 Y11.2699 
G01 X5.3165 Y11.2332 
G01 X5.2457 Y11.2142 
G01 X4.2240 Y11.2142 
G01 X4.1506 Y11.2142 
G01 X4.0798 Y11.2332 
G01 X4.0163 Y11.2699 
G01 X3.6401 Y11.6460 
G01 X2.8399 Y11.6460 
G01 X2.2740 Y11.0801 
G01 X2.2740 Y10.2799 
G01 X2.8399 Y9.7140 
G00 Z3.0000 
G00 X2.8616 Y9.7664 
G01 Z-0.1100 F500.00 
G01 X2.3264 Y10.3016 F500.00 
G01 X2.3264 Y11.0584 
G01 X2.8616 Y11.5936 
G01 X3.6184 Y11.5936 
G01 X4.0502 Y11.1618 
G01 X5.3744 Y11.1618 
G01 X5.4314 Y11.2471 
G01 X5.5728 Y11.3886 
G01 X5.7391 Y11.4997 
G01 X5.9239 Y11.5762 
G01 X6.1200 Y11.6152 
G01 X6.3200 Y11.6152 
G01 X6.5161 Y11.5762 
G01 X6.7009 Y11.4997 
G01 X6.8671 Y11.3886 
G01 X7.0086 Y11.2471 
G01 X7.1197 Y11.0809 
G01 X7.1962 Y10.8961 
G01 X7.2352 Y10.7000 
G01 X7.2352 Y10.5000 
G01 X7.1962 Y10.3039 
G01 X7.1197 Y10.1191 
G01 X7.0086 Y9.9528 
G01 X6.8671 Y9.8114 
G01 X6.7009 Y9.7003 
G01 X6.5161 Y9.6238 
G01 X6.3200 Y9.5848 
G01 X6.1200 Y9.5848 
G01 X5.9239 Y9.6238 
G01 X5.7391 Y9.7003 
G01 X5.5728 Y9.8114 
G01 X5.4314 Y9.9528 
G01 X5.3203 Y10.1191 
G01 X5.2876 Y10.1982 
G01 X4.0502 Y10.1982 
G01 X3.6184 Y9.7664 
G01 X2.8616 Y9.7664 
G00 Z3.0000 
G00 X2.8399 Y12.2540 
G01 Z-0.1100 F500.00 
G01 X3.6401 Y12.2540 F500.00 
G01 X3.9644 Y12.5783 
G01 X4.0163 Y12.6301 
G01 X4.0798 Y12.6668 
G01 X4.1506 Y12.6858 
G01 X7.1263 Y12.6858 
G01 X7.3226 Y12.7671 
G01 X11.0137 Y16.4583 
G01 X11.0656 Y16.5101 
G01 X11.1291 Y16.5468 
G01 X11.2000 Y16.5658 
G01 X12.6063 Y16.5658 
G01 X12.8026 Y16.6471 
G01 X14.1375 Y17.9820 
G01 X14.3529 Y18.1974 
G01 X14.4342 Y18.3937 
G01 X14.4342 Y21.3000 
G01 X14.4532 Y21.3709 
G01 X14.4899 Y21.4344 
G01 X14.7137 Y21.6583 
G01 X14.7656 Y21.7101 
G01 X14.8291 Y21.7468 
G01 X14.9000 Y21.7658 
G01 X15.4393 Y21.7658 
G01 X15.5102 Y21.7468 
G01 X15.5737 Y21.7101 
G01 X15.6928 Y21.5911 
G01 X16.0478 Y21.4440 
G01 X16.1161 Y21.4440 
G01 X16.1307 Y21.4463 
G01 X16.1526 Y21.4440 
G01 X16.3274 Y21.4440 
G01 X16.3493 Y21.4463 
G01 X16.3638 Y21.4440 
G01 X16.4322 Y21.4440 
G01 X16.7872 Y21.5911 
G01 X17.0589 Y21.8628 
G01 X17.2060 Y22.2178 
G01 X17.2060 Y22.6022 
G01 X17.0589 Y22.9572 
G01 X16.7872 Y23.2289 
G01 X16.4322 Y23.3760 
G01 X16.0478 Y23.3760 
G01 X15.6928 Y23.2289 
G01 X15.4087 Y22.9448 
G01 X15.4069 Y22.9417 
G01 X15.3939 Y22.9287 
G01 X15.3826 Y22.9141 
G01 X15.3680 Y22.9029 
G01 X15.3550 Y22.8899 
G01 X15.3390 Y22.8806 
G01 X15.3244 Y22.8694 
G01 X15.3074 Y22.8624 
G01 X15.2915 Y22.8532 
G01 X15.2737 Y22.8484 
G01 X15.2566 Y22.8414 
G01 X15.2384 Y22.8390 
G01 X15.2206 Y22.8342 
G01 X15.2022 Y22.8342 
G01 X15.1839 Y22.8318 
G01 X15.1657 Y22.8342 
G01 X14.4937 Y22.8342 
G01 X14.2974 Y22.7529 
G01 X14.1339 Y22.5893 
G01 X13.4471 Y21.9026 
G01 X13.3658 Y21.7063 
G01 X13.3658 Y20.2523 
G01 X13.3673 Y20.2230 
G01 X13.3658 Y20.2158 
G01 X13.3658 Y20.2084 
G01 X13.3582 Y20.1800 
G01 X13.3521 Y20.1512 
G01 X13.3487 Y20.1447 
G01 X13.3468 Y20.1375 
G01 X13.3321 Y20.1120 
G01 X13.3188 Y20.0859 
G01 X13.3138 Y20.0804 
G01 X13.3101 Y20.0740 
G01 X13.2893 Y20.0532 
G01 X13.2697 Y20.0314 
G01 X13.2635 Y20.0273 
G01 X13.2583 Y20.0221 
G01 X13.2328 Y20.0074 
G01 X13.2082 Y19.9914 
G01 X13.2011 Y19.9891 
G01 X13.1947 Y19.9854 
G01 X13.1663 Y19.9778 
G01 X13.1384 Y19.9688 
G01 X13.1310 Y19.9684 
G01 X13.1239 Y19.9664 
G01 X13.0945 Y19.9664 
G01 X13.0651 Y19.9649 
G01 X13.0579 Y19.9664 
G01 X13.0505 Y19.9664 
G01 X13.0221 Y19.9741 
G01 X12.9934 Y19.9802 
G01 X12.9868 Y19.9835 
G01 X12.9797 Y19.9854 
G01 X12.9542 Y20.0001 
G01 X12.9280 Y20.0135 
G01 X12.9225 Y20.0184 
G01 X12.9161 Y20.0221 
G01 X12.8953 Y20.0429 
G01 X12.8735 Y20.0626 
G01 X12.8695 Y20.0688 
G01 X12.8643 Y20.0740 
G01 X12.8496 Y20.0994 
G01 X12.8336 Y20.1241 
G01 X12.8313 Y20.1311 
G01 X12.8276 Y20.1375 
G01 X12.8200 Y20.1659 
G01 X12.8023 Y20.2203 
G01 X12.7296 Y20.3629 
G01 X12.6356 Y20.4924 
G01 X12.5224 Y20.6056 
G01 X12.3929 Y20.6996 
G01 X12.2503 Y20.7723 
G01 X12.1894 Y20.7921 
G01 X12.1894 Y20.6824 
G01 X12.2927 Y20.6396 
G01 X12.4424 Y20.5396 
G01 X12.5696 Y20.4124 
G01 X12.6696 Y20.2628 
G01 X12.7385 Y20.0965 
G01 X12.7736 Y19.9200 
G01 X12.7736 Y19.7400 
G01 X12.7385 Y19.5635 
G01 X12.6696 Y19.3972 
G01 X12.5696 Y19.2476 
G01 X12.4424 Y19.1204 
G01 X12.2927 Y19.0204 
G01 X12.1894 Y18.9776 
G01 X12.1894 Y18.8679 
G01 X12.2503 Y18.8877 
G01 X12.3929 Y18.9604 
G01 X12.5224 Y19.0544 
G01 X12.6356 Y19.1676 
G01 X12.7296 Y19.2971 
G01 X12.8023 Y19.4397 
G01 X12.8200 Y19.4941 
G01 X12.8276 Y19.5225 
G01 X12.8313 Y19.5289 
G01 X12.8336 Y19.5359 
G01 X12.8496 Y19.5605 
G01 X12.8643 Y19.5860 
G01 X12.8695 Y19.5912 
G01 X12.8735 Y19.5974 
G01 X12.8953 Y19.6171 
G01 X12.9161 Y19.6379 
G01 X12.9225 Y19.6416 
G01 X12.9280 Y19.6465 
G01 X12.9542 Y19.6598 
G01 X12.9797 Y19.6746 
G01 X12.9868 Y19.6765 
G01 X12.9934 Y19.6798 
G01 X13.0221 Y19.6859 
G01 X13.0505 Y19.6935 
G01 X13.0579 Y19.6935 
G01 X13.0651 Y19.6951 
G01 X13.0945 Y19.6935 
G01 X13.1239 Y19.6935 
G01 X13.1310 Y19.6916 
G01 X13.1384 Y19.6912 
G01 X13.1663 Y19.6822 
G01 X13.1947 Y19.6746 
G01 X13.2011 Y19.6709 
G01 X13.2082 Y19.6686 
G01 X13.2328 Y19.6526 
G01 X13.2583 Y19.6379 
G01 X13.2635 Y19.6326 
G01 X13.2697 Y19.6286 
G01 X13.2893 Y19.6068 
G01 X13.3101 Y19.5860 
G01 X13.3138 Y19.5796 
G01 X13.3188 Y19.5741 
G01 X13.3321 Y19.5480 
G01 X13.3468 Y19.5225 
G01 X13.3487 Y19.5153 
G01 X13.3521 Y19.5088 
G01 X13.3582 Y19.4800 
G01 X13.3658 Y19.4516 
G01 X13.3658 Y19.4442 
G01 X13.3673 Y19.4370 
G01 X13.3658 Y19.4077 
G01 X13.3658 Y18.8000 
G01 X13.3468 Y18.7291 
G01 X13.3101 Y18.6656 
G01 X12.3863 Y17.7417 
G01 X12.3344 Y17.6899 
G01 X12.2709 Y17.6532 
G01 X12.2000 Y17.6342 
G01 X10.7937 Y17.6342 
G01 X10.5974 Y17.5529 
G01 X10.4339 Y17.3894 
G01 X6.9063 Y13.8617 
G01 X6.8544 Y13.8099 
G01 X6.7909 Y13.7732 
G01 X6.7200 Y13.7542 
G01 X4.1506 Y13.7542 
G01 X4.0798 Y13.7732 
G01 X4.0163 Y13.8099 
G01 X3.6401 Y14.1860 
G01 X2.8399 Y14.1860 
G01 X2.2740 Y13.6201 
G01 X2.2740 Y12.8199 
G01 X2.8399 Y12.2540 
G00 Z3.0000 
G00 X2.8616 Y12.3064 
G01 Z-0.1100 F500.00 
G01 X2.3264 Y12.8416 F500.00 
G01 X2.3264 Y13.5984 
G01 X2.8616 Y14.1336 
G01 X3.6184 Y14.1336 
G01 X4.0502 Y13.7018 
G01 X6.8204 Y13.7018 
G01 X10.5145 Y17.3958 
G01 X10.6042 Y17.4855 
G01 X10.7140 Y17.5490 
G01 X10.8366 Y17.5818 
G01 X12.3004 Y17.5818 
G01 X13.4182 Y18.6996 
G01 X13.4182 Y21.6634 
G01 X13.4510 Y21.7860 
G01 X13.5145 Y21.8958 
G01 X14.2145 Y22.5958 
G01 X14.3042 Y22.6855 
G01 X14.4140 Y22.7490 
G01 X14.5366 Y22.7818 
G01 X15.4051 Y22.7818 
G01 X15.4304 Y22.8427 
G01 X15.5304 Y22.9924 
G01 X15.6576 Y23.1196 
G01 X15.8072 Y23.2196 
G01 X15.9735 Y23.2885 
G01 X16.1500 Y23.3236 
G01 X16.3300 Y23.3236 
G01 X16.5065 Y23.2885 
G01 X16.6728 Y23.2196 
G01 X16.8224 Y23.1196 
G01 X16.9496 Y22.9924 
G01 X17.0496 Y22.8427 
G01 X17.1185 Y22.6765 
G01 X17.1536 Y22.5000 
G01 X17.1536 Y22.3200 
G01 X17.1185 Y22.1435 
G01 X17.0496 Y21.9772 
G01 X16.9496 Y21.8276 
G01 X16.8224 Y21.7004 
G01 X16.6728 Y21.6004 
G01 X16.5065 Y21.5315 
G01 X16.3300 Y21.4964 
G01 X16.1500 Y21.4964 
G01 X15.9735 Y21.5315 
G01 X15.8072 Y21.6004 
G01 X15.6576 Y21.7004 
G01 X15.5398 Y21.8182 
G01 X14.7996 Y21.8182 
G01 X14.3818 Y21.4004 
G01 X14.3818 Y18.4366 
G01 X14.3490 Y18.3140 
G01 X14.2855 Y18.2042 
G01 X14.1958 Y18.1145 
G01 X12.7958 Y16.7145 
G01 X12.6860 Y16.6510 
G01 X12.5634 Y16.6182 
G01 X11.0996 Y16.6182 
G01 X7.3158 Y12.8345 
G01 X7.2060 Y12.7710 
G01 X7.0834 Y12.7382 
G01 X4.0502 Y12.7382 
G01 X3.6184 Y12.3064 
G01 X2.8616 Y12.3064 
G00 Z3.0000 
G00 X2.8399 Y14.7940 
G01 Z-0.1100 F500.00 
G01 X3.6401 Y14.7940 F500.00 
G01 X3.9644 Y15.1183 
G01 X4.0163 Y15.1701 
G01 X4.0798 Y15.2068 
G01 X4.1506 Y15.2258 
G01 X6.6663 Y15.2258 
G01 X6.8626 Y15.3071 
G01 X9.6375 Y18.0820 
G01 X9.8529 Y18.2974 
G01 X9.9342 Y18.4937 
G01 X9.9342 Y21.0000 
G01 X9.9532 Y21.0709 
G01 X9.9899 Y21.1344 
G01 X10.5137 Y21.6583 
G01 X10.5656 Y21.7101 
G01 X10.6291 Y21.7468 
G01 X10.7000 Y21.7658 
G01 X11.0194 Y21.7658 
G01 X11.0391 Y21.7605 
G01 X11.0902 Y21.7468 
G01 X11.1537 Y21.7101 
G01 X11.2056 Y21.6583 
G01 X11.3128 Y21.5511 
G01 X11.6678 Y21.4040 
G01 X11.7362 Y21.4040 
G01 X11.7507 Y21.4063 
G01 X11.7726 Y21.4040 
G01 X11.9474 Y21.4040 
G01 X11.9693 Y21.4063 
G01 X11.9838 Y21.4040 
G01 X12.0521 Y21.4040 
G01 X12.4072 Y21.5511 
G01 X12.6789 Y21.8228 
G01 X12.8260 Y22.1778 
G01 X12.8260 Y22.5621 
G01 X12.6789 Y22.9172 
G01 X12.4072 Y23.1889 
G01 X12.0521 Y23.3360 
G01 X11.6678 Y23.3360 
G01 X11.3128 Y23.1889 
G01 X11.0656 Y22.9417 
G01 X11.0137 Y22.8899 
G01 X10.9502 Y22.8532 
G01 X10.8794 Y22.8342 
G01 X10.2937 Y22.8342 
G01 X10.0974 Y22.7529 
G01 X9.9339 Y22.5893 
G01 X8.9471 Y21.6026 
G01 X8.8658 Y21.4063 
G01 X8.8658 Y20.4126 
G01 X8.8673 Y20.4054 
G01 X8.8658 Y20.3761 
G01 X8.8658 Y20.3467 
G01 X8.8639 Y20.3395 
G01 X8.8635 Y20.3321 
G01 X8.8544 Y20.3042 
G01 X8.8468 Y20.2758 
G01 X8.8431 Y20.2694 
G01 X8.8408 Y20.2624 
G01 X8.8248 Y20.2377 
G01 X8.8101 Y20.2123 
G01 X8.8049 Y20.2070 
G01 X8.8009 Y20.2008 
G01 X8.7791 Y20.1812 
G01 X8.7583 Y20.1604 
G01 X8.7518 Y20.1567 
G01 X8.7464 Y20.1518 
G01 X8.7202 Y20.1384 
G01 X8.6947 Y20.1237 
G01 X8.6876 Y20.1218 
G01 X8.6810 Y20.1185 
G01 X8.6523 Y20.1123 
G01 X8.6239 Y20.1047 
G01 X8.6165 Y20.1047 
G01 X8.6092 Y20.1032 
G01 X8.5799 Y20.1047 
G01 X8.5505 Y20.1047 
G01 X8.5434 Y20.1067 
G01 X8.5360 Y20.1070 
G01 X8.5081 Y20.1161 
G01 X8.4797 Y20.1237 
G01 X8.4733 Y20.1274 
G01 X8.4662 Y20.1297 
G01 X8.4416 Y20.1457 
G01 X8.4161 Y20.1604 
G01 X8.4109 Y20.1656 
G01 X8.4047 Y20.1697 
G01 X8.3851 Y20.1915 
G01 X8.3643 Y20.2123 
G01 X8.3606 Y20.2187 
G01 X8.3556 Y20.2242 
G01 X8.3423 Y20.2503 
G01 X8.3276 Y20.2758 
G01 X8.3257 Y20.2830 
G01 X8.2696 Y20.3929 
G01 X8.1756 Y20.5224 
G01 X8.0624 Y20.6356 
G01 X7.9329 Y20.7296 
G01 X7.7903 Y20.8023 
G01 X7.7294 Y20.8221 
G01 X7.7294 Y20.7124 
G01 X7.8327 Y20.6696 
G01 X7.9824 Y20.5696 
G01 X8.1096 Y20.4424 
G01 X8.2096 Y20.2928 
G01 X8.2785 Y20.1265 
G01 X8.3136 Y19.9500 
G01 X8.3136 Y19.7700 
G01 X8.2785 Y19.5935 
G01 X8.2096 Y19.4272 
G01 X8.1096 Y19.2776 
G01 X7.9824 Y19.1504 
G01 X7.8327 Y19.0504 
G01 X7.7294 Y19.0076 
G01 X7.7294 Y18.8979 
G01 X7.7903 Y18.9177 
G01 X7.9329 Y18.9904 
G01 X8.0624 Y19.0844 
G01 X8.1756 Y19.1976 
G01 X8.2696 Y19.3271 
G01 X8.3257 Y19.4370 
G01 X8.3276 Y19.4442 
G01 X8.3423 Y19.4697 
G01 X8.3556 Y19.4958 
G01 X8.3606 Y19.5013 
G01 X8.3643 Y19.5077 
G01 X8.3851 Y19.5285 
G01 X8.4047 Y19.5503 
G01 X8.4109 Y19.5543 
G01 X8.4161 Y19.5596 
G01 X8.4416 Y19.5743 
G01 X8.4662 Y19.5903 
G01 X8.4733 Y19.5926 
G01 X8.4797 Y19.5963 
G01 X8.5081 Y19.6039 
G01 X8.5360 Y19.6130 
G01 X8.5434 Y19.6133 
G01 X8.5505 Y19.6153 
G01 X8.5799 Y19.6153 
G01 X8.6092 Y19.6168 
G01 X8.6165 Y19.6153 
G01 X8.6239 Y19.6153 
G01 X8.6523 Y19.6076 
G01 X8.6810 Y19.6015 
G01 X8.6876 Y19.5982 
G01 X8.6947 Y19.5963 
G01 X8.7202 Y19.5816 
G01 X8.7464 Y19.5682 
G01 X8.7518 Y19.5633 
G01 X8.7583 Y19.5596 
G01 X8.7791 Y19.5388 
G01 X8.8009 Y19.5192 
G01 X8.8049 Y19.5130 
G01 X8.8101 Y19.5077 
G01 X8.8248 Y19.4822 
G01 X8.8408 Y19.4576 
G01 X8.8431 Y19.4506 
G01 X8.8468 Y19.4442 
G01 X8.8544 Y19.4158 
G01 X8.8635 Y19.3879 
G01 X8.8639 Y19.3805 
G01 X8.8658 Y19.3733 
G01 X8.8658 Y19.3439 
G01 X8.8673 Y19.3146 
G01 X8.8658 Y19.3074 
G01 X8.8658 Y18.9000 
G01 X8.8468 Y18.8291 
G01 X8.8101 Y18.7656 
G01 X6.4463 Y16.4017 
G01 X6.3944 Y16.3499 
G01 X6.3309 Y16.3132 
G01 X6.2600 Y16.2942 
G01 X4.1506 Y16.2942 
G01 X4.0798 Y16.3132 
G01 X4.0163 Y16.3499 
G01 X3.9644 Y16.4017 
G01 X3.6401 Y16.7260 
G01 X2.8399 Y16.7260 
G01 X2.2740 Y16.1601 
G01 X2.2740 Y15.3599 
G01 X2.8399 Y14.7940 
G00 Z3.0000 
G00 X2.8616 Y14.8464 
G01 Z-0.1100 F500.00 
G01 X2.3264 Y15.3816 F500.00 
G01 X2.3264 Y16.1384 
G01 X2.8616 Y16.6736 
G01 X3.6184 Y16.6736 
G01 X4.0502 Y16.2418 
G01 X6.3604 Y16.2418 
G01 X8.9182 Y18.7996 
G01 X8.9182 Y21.3634 
G01 X8.9510 Y21.4860 
G01 X9.0145 Y21.5958 
G01 X10.0145 Y22.5958 
G01 X10.1042 Y22.6855 
G01 X10.2140 Y22.7490 
G01 X10.3366 Y22.7818 
G01 X11.0417 Y22.7818 
G01 X11.0504 Y22.8027 
G01 X11.1504 Y22.9524 
G01 X11.2776 Y23.0796 
G01 X11.4272 Y23.1796 
G01 X11.5935 Y23.2485 
G01 X11.7700 Y23.2836 
G01 X11.9500 Y23.2836 
G01 X12.1265 Y23.2485 
G01 X12.2927 Y23.1796 
G01 X12.4424 Y23.0796 
G01 X12.5696 Y22.9524 
G01 X12.6696 Y22.8027 
G01 X12.7385 Y22.6365 
G01 X12.7736 Y22.4600 
G01 X12.7736 Y22.2800 
G01 X12.7385 Y22.1035 
G01 X12.6696 Y21.9372 
G01 X12.5696 Y21.7876 
G01 X12.4424 Y21.6604 
G01 X12.2927 Y21.5604 
G01 X12.1265 Y21.4915 
G01 X11.9500 Y21.4564 
G01 X11.7700 Y21.4564 
G01 X11.5935 Y21.4915 
G01 X11.4272 Y21.5604 
G01 X11.2776 Y21.6604 
G01 X11.1504 Y21.7876 
G01 X11.1299 Y21.8182 
G01 X10.5996 Y21.8182 
G01 X9.8818 Y21.1004 
G01 X9.8818 Y18.5366 
G01 X9.8490 Y18.4140 
G01 X9.7855 Y18.3042 
G01 X9.6958 Y18.2145 
G01 X6.8558 Y15.3745 
G01 X6.7460 Y15.3110 
G01 X6.6234 Y15.2782 
G01 X4.0502 Y15.2782 
G01 X3.6184 Y14.8464 
G01 X2.8616 Y14.8464 
G00 Z3.0000 
G00 X2.8399 Y17.3340 
G01 Z-0.1100 F500.00 
G01 X3.6401 Y17.3340 F500.00 
G01 X4.2060 Y17.8999 
G01 X4.2060 Y18.7001 
G01 X3.8417 Y19.0644 
G01 X3.7899 Y19.1163 
G01 X3.7532 Y19.1798 
G01 X3.7342 Y19.2506 
G01 X3.7342 Y19.4000 
G01 X3.7532 Y19.4709 
G01 X3.7899 Y19.5344 
G01 X5.7137 Y21.4583 
G01 X5.7656 Y21.5101 
G01 X5.8291 Y21.5468 
G01 X5.9000 Y21.5658 
G01 X6.8160 Y21.5658 
G01 X6.8342 Y21.5682 
G01 X6.8525 Y21.5658 
G01 X6.8709 Y21.5658 
G01 X6.8887 Y21.5610 
G01 X6.9070 Y21.5586 
G01 X6.9240 Y21.5516 
G01 X6.9418 Y21.5468 
G01 X6.9577 Y21.5376 
G01 X7.2078 Y21.4340 
G01 X7.2762 Y21.4340 
G01 X7.2907 Y21.4363 
G01 X7.3126 Y21.4340 
G01 X7.4874 Y21.4340 
G01 X7.5093 Y21.4363 
G01 X7.5238 Y21.4340 
G01 X7.5922 Y21.4340 
G01 X7.9472 Y21.5811 
G01 X8.2189 Y21.8528 
G01 X8.3660 Y22.2078 
G01 X8.3660 Y22.5922 
G01 X8.2189 Y22.9472 
G01 X7.9472 Y23.2189 
G01 X7.5922 Y23.3660 
G01 X7.2078 Y23.3660 
G01 X6.8528 Y23.2189 
G01 X6.5811 Y22.9472 
G01 X6.5296 Y22.8231 
G01 X6.5249 Y22.8053 
G01 X6.5157 Y22.7893 
G01 X6.5086 Y22.7723 
G01 X6.4974 Y22.7577 
G01 X6.4882 Y22.7417 
G01 X6.4752 Y22.7287 
G01 X6.4640 Y22.7141 
G01 X6.4494 Y22.7029 
G01 X6.4363 Y22.6899 
G01 X6.4204 Y22.6806 
G01 X6.4058 Y22.6694 
G01 X6.3888 Y22.6624 
G01 X6.3728 Y22.6532 
G01 X6.3550 Y22.6484 
G01 X6.3380 Y22.6414 
G01 X6.3197 Y22.6390 
G01 X6.3019 Y22.6342 
G01 X6.2835 Y22.6342 
G01 X6.2653 Y22.6318 
G01 X6.2470 Y22.6342 
G01 X5.4937 Y22.6342 
G01 X5.2974 Y22.5529 
G01 X5.1339 Y22.3894 
G01 X2.7471 Y20.0026 
G01 X2.6658 Y19.8063 
G01 X2.6658 Y19.2440 
G01 X2.6658 Y19.1706 
G01 X2.6468 Y19.0998 
G01 X2.6101 Y19.0363 
G01 X2.2740 Y18.7001 
G01 X2.2740 Y17.8999 
G01 X2.8399 Y17.3340 
G00 Z3.0000 
G00 X2.8616 Y17.3864 
G01 Z-0.1100 F500.00 
G01 X2.3264 Y17.9216 F500.00 
G01 X2.3264 Y18.6784 
G01 X2.7182 Y19.0702 
G01 X2.7182 Y19.7634 
G01 X2.7510 Y19.8860 
G01 X2.8145 Y19.9958 
G01 X5.2145 Y22.3958 
G01 X5.3042 Y22.4855 
G01 X5.4140 Y22.5490 
G01 X5.5366 Y22.5818 
G01 X6.5047 Y22.5818 
G01 X6.5215 Y22.6665 
G01 X6.5904 Y22.8328 
G01 X6.6904 Y22.9824 
G01 X6.8176 Y23.1096 
G01 X6.9672 Y23.2096 
G01 X7.1335 Y23.2785 
G01 X7.3100 Y23.3136 
G01 X7.4900 Y23.3136 
G01 X7.6665 Y23.2785 
G01 X7.8327 Y23.2096 
G01 X7.9824 Y23.1096 
G01 X8.1096 Y22.9824 
G01 X8.2096 Y22.8328 
G01 X8.2785 Y22.6665 
G01 X8.3136 Y22.4900 
G01 X8.3136 Y22.3100 
G01 X8.2785 Y22.1335 
G01 X8.2096 Y21.9672 
G01 X8.1096 Y21.8176 
G01 X7.9824 Y21.6904 
G01 X7.8327 Y21.5904 
G01 X7.6665 Y21.5215 
G01 X7.4900 Y21.4864 
G01 X7.3100 Y21.4864 
G01 X7.1335 Y21.5215 
G01 X6.9672 Y21.5904 
G01 X6.9256 Y21.6182 
G01 X5.7996 Y21.6182 
G01 X3.6818 Y19.5004 
G01 X3.6818 Y19.1502 
G01 X4.1536 Y18.6784 
G01 X4.1536 Y17.9216 
G01 X3.6184 Y17.3864 
G01 X2.8616 Y17.3864 
G00 Z3.0000 
G00 X2.8616 Y22.4664 
G01 Z-0.1100 F500.00 
G01 X2.4200 Y22.9080 F500.00 
G01 X2.3340 Y22.9310 
G01 X2.2242 Y22.9945 
G01 X1.2042 Y24.0145 
G01 X1.1145 Y24.1042 
G01 X1.0510 Y24.2140 
G01 X1.0182 Y24.3366 
G01 X1.0182 Y45.8634 
G01 X1.0510 Y45.9860 
G01 X1.1145 Y46.0958 
G01 X7.3145 Y52.2958 
G01 X7.4042 Y52.3855 
G01 X7.5140 Y52.4490 
G01 X7.6366 Y52.4818 
G01 X9.8426 Y52.4818 
G01 X9.8426 Y52.8645 
G01 X9.8748 Y53.0263 
G01 X9.9379 Y53.1787 
G01 X10.0295 Y53.3158 
G01 X10.1462 Y53.4325 
G01 X10.2833 Y53.5241 
G01 X10.4357 Y53.5872 
G01 X10.5975 Y53.6194 
G01 X10.7625 Y53.6194 
G01 X10.9243 Y53.5872 
G01 X11.0767 Y53.5241 
G01 X11.2138 Y53.4325 
G01 X11.3305 Y53.3158 
G01 X11.4221 Y53.1787 
G01 X11.4852 Y53.0263 
G01 X11.5174 Y52.8645 
G01 X11.5174 Y51.1755 
G01 X11.4852 Y51.0137 
G01 X11.4221 Y50.8613 
G01 X11.3305 Y50.7242 
G01 X11.2138 Y50.6075 
G01 X11.0767 Y50.5159 
G01 X10.9243 Y50.4528 
G01 X10.7625 Y50.4206 
G01 X10.5975 Y50.4206 
G01 X10.4357 Y50.4528 
G01 X10.2833 Y50.5159 
G01 X10.1462 Y50.6075 
G01 X10.0295 Y50.7242 
G01 X9.9379 Y50.8613 
G01 X9.8748 Y51.0137 
G01 X9.8426 Y51.1755 
G01 X9.8426 Y51.5182 
G01 X7.8996 Y51.5182 
G01 X1.9818 Y45.6004 
G01 X1.9818 Y24.5996 
G01 X2.5747 Y24.0067 
G01 X2.8616 Y24.2936 
G01 X3.6184 Y24.2936 
G01 X4.1536 Y23.7584 
G01 X4.1536 Y23.0016 
G01 X3.6184 Y22.4664 
G01 X2.8616 Y22.4664 
G00 Z3.0000 
G00 X3.5654 Y24.9032 
G01 Z-0.1100 F500.00 
G01 X3.6612 Y24.9032 F500.00 
G01 X4.2568 Y25.4988 
G01 X4.2568 Y25.5946 
G01 X4.1536 Y25.5946 
G01 X4.1536 Y25.5416 
G01 X3.6184 Y25.0064 
G01 X3.5654 Y25.0064 
G01 X3.5654 Y24.9032 
G00 Z3.0000 
G00 X4.1536 Y26.2454 
G01 Z-0.1100 F500.00 
G01 X4.2568 Y26.2454 F500.00 
G01 X4.2568 Y26.3412 
G01 X3.6309 Y26.9671 
G01 X3.5790 Y27.0189 
G01 X3.5654 Y27.0425 
G01 X3.5654 Y26.8336 
G01 X3.6184 Y26.8336 
G01 X4.1536 Y26.2984 
G01 X4.1536 Y26.2454 
G00 Z3.0000 
G00 X3.5654 Y27.3374 
G01 Z-0.1100 F500.00 
G01 X3.5790 Y27.3611 F500.00 
G01 X4.2568 Y28.0388 
G01 X4.2568 Y28.1346 
G01 X4.1536 Y28.1346 
G01 X4.1536 Y28.0816 
G01 X3.6184 Y27.5464 
G01 X3.5654 Y27.5464 
G01 X3.5654 Y27.3374 
G00 Z3.0000 
G00 X4.1536 Y28.7854 
G01 Z-0.1100 F500.00 
G01 X4.2568 Y28.7854 F500.00 
G01 X4.2568 Y28.8812 
G01 X3.6612 Y29.4768 
G01 X3.5654 Y29.4768 
G01 X3.5654 Y29.3736 
G01 X3.6184 Y29.3736 
G01 X4.1536 Y28.8384 
G01 X4.1536 Y28.7854 
G00 Z3.0000 
G00 X4.1004 Y30.5182 
G01 Z-0.1100 F500.00 
G01 X4.0502 Y30.5182 F500.00 
G01 X3.6184 Y30.0864 
G01 X2.8616 Y30.0864 
G01 X2.3264 Y30.6216 
G01 X2.3264 Y31.3784 
G01 X2.8616 Y31.9136 
G01 X3.6184 Y31.9136 
G01 X4.0502 Y31.4818 
G01 X4.3634 Y31.4818 
G01 X4.4860 Y31.4490 
G01 X4.5958 Y31.3855 
G01 X7.6958 Y28.2855 
G01 X7.7855 Y28.1958 
G01 X7.8490 Y28.0860 
G01 X7.8818 Y27.9634 
G01 X7.8818 Y25.7168 
G01 X7.9824 Y25.6496 
G01 X8.1096 Y25.5224 
G01 X8.1768 Y25.4218 
G01 X11.1032 Y25.4218 
G01 X11.1504 Y25.4924 
G01 X11.2776 Y25.6196 
G01 X11.4272 Y25.7196 
G01 X11.5935 Y25.7885 
G01 X11.7700 Y25.8236 
G01 X11.9500 Y25.8236 
G01 X12.1265 Y25.7885 
G01 X12.2927 Y25.7196 
G01 X12.4424 Y25.6196 
G01 X12.5696 Y25.4924 
G01 X12.6368 Y25.3918 
G01 X15.4364 Y25.3918 
G01 X15.5304 Y25.5324 
G01 X15.6576 Y25.6596 
G01 X15.8072 Y25.7596 
G01 X15.9735 Y25.8285 
G01 X16.1500 Y25.8636 
G01 X16.3300 Y25.8636 
G01 X16.4486 Y25.8400 
G01 X19.3045 Y28.6958 
G01 X19.3942 Y28.7855 
G01 X19.5040 Y28.8490 
G01 X19.6266 Y28.8818 
G01 X32.6182 Y28.8818 
G01 X32.6182 Y30.9634 
G01 X32.6510 Y31.0860 
G01 X32.7145 Y31.1958 
G01 X38.0145 Y36.4958 
G01 X38.1042 Y36.5855 
G01 X38.2140 Y36.6490 
G01 X38.3366 Y36.6818 
G01 X39.0679 Y36.6818 
G01 X39.6005 Y37.2144 
G01 X40.3995 Y37.2144 
G01 X40.9644 Y36.6495 
G01 X40.9644 Y35.8505 
G01 X40.3995 Y35.2856 
G01 X39.6005 Y35.2856 
G01 X39.1679 Y35.7182 
G01 X38.5996 Y35.7182 
G01 X33.5818 Y30.7004 
G01 X33.5818 Y28.5996 
G01 X35.9358 Y26.2455 
G01 X36.0255 Y26.1558 
G01 X36.0890 Y26.0460 
G01 X36.1218 Y25.9234 
G01 X36.1218 Y25.8490 
G01 X36.2871 Y25.7386 
G01 X36.4286 Y25.5971 
G01 X36.5397 Y25.4309 
G01 X36.6162 Y25.2461 
G01 X36.6552 Y25.0500 
G01 X36.6552 Y24.8500 
G01 X36.6162 Y24.6539 
G01 X36.5397 Y24.4691 
G01 X36.4286 Y24.3028 
G01 X36.2871 Y24.1614 
G01 X36.1718 Y24.0844 
G01 X36.1718 Y17.7490 
G01 X36.3372 Y17.6386 
G01 X36.4786 Y17.4972 
G01 X36.5824 Y17.3418 
G01 X40.6731 Y17.3418 
G01 X40.7404 Y17.4424 
G01 X40.8676 Y17.5696 
G01 X41.0172 Y17.6696 
G01 X41.1835 Y17.7385 
G01 X41.3600 Y17.7736 
G01 X41.5400 Y17.7736 
G01 X41.7165 Y17.7385 
G01 X41.8828 Y17.6696 
G01 X42.0324 Y17.5696 
G01 X42.1596 Y17.4424 
G01 X42.2596 Y17.2928 
G01 X42.3285 Y17.1265 
G01 X42.3636 Y16.9500 
G01 X42.3636 Y16.7700 
G01 X42.3285 Y16.5935 
G01 X42.2596 Y16.4272 
G01 X42.1596 Y16.2776 
G01 X42.0324 Y16.1504 
G01 X41.9218 Y16.0765 
G01 X41.9218 Y13.6368 
G01 X42.0224 Y13.5696 
G01 X42.1496 Y13.4424 
G01 X42.2496 Y13.2927 
G01 X42.3185 Y13.1265 
G01 X42.3536 Y12.9500 
G01 X42.3536 Y12.7700 
G01 X42.3185 Y12.5935 
G01 X42.2496 Y12.4272 
G01 X42.1496 Y12.2776 
G01 X42.0224 Y12.1504 
G01 X41.9518 Y12.1032 
G01 X41.9518 Y9.1368 
G01 X42.0524 Y9.0696 
G01 X42.1796 Y8.9424 
G01 X42.2796 Y8.7927 
G01 X42.3485 Y8.6265 
G01 X42.3836 Y8.4500 
G01 X42.3836 Y8.2700 
G01 X42.3485 Y8.0935 
G01 X42.2796 Y7.9272 
G01 X42.1796 Y7.7776 
G01 X42.0524 Y7.6504 
G01 X41.9418 Y7.5765 
G01 X41.9418 Y4.8368 
G01 X42.0424 Y4.7696 
G01 X42.1696 Y4.6424 
G01 X42.2696 Y4.4928 
G01 X42.3385 Y4.3265 
G01 X42.3736 Y4.1500 
G01 X42.3736 Y3.9700 
G01 X42.3385 Y3.7935 
G01 X42.2696 Y3.6272 
G01 X42.1696 Y3.4776 
G01 X42.0424 Y3.3504 
G01 X41.8927 Y3.2504 
G01 X41.7265 Y3.1815 
G01 X41.5500 Y3.1464 
G01 X41.3700 Y3.1464 
G01 X41.1935 Y3.1815 
G01 X41.0272 Y3.2504 
G01 X40.8776 Y3.3504 
G01 X40.7504 Y3.4776 
G01 X40.6504 Y3.6272 
G01 X40.5815 Y3.7935 
G01 X40.5464 Y3.9700 
G01 X40.5464 Y4.1500 
G01 X40.5815 Y4.3265 
G01 X40.6504 Y4.4928 
G01 X40.7504 Y4.6424 
G01 X40.8776 Y4.7696 
G01 X40.9782 Y4.8368 
G01 X40.9782 Y7.5898 
G01 X40.8876 Y7.6504 
G01 X40.7604 Y7.7776 
G01 X40.6604 Y7.9272 
G01 X40.6434 Y7.9682 
G01 X36.6890 Y7.9682 
G01 X36.5786 Y7.8028 
G01 X36.4372 Y7.6614 
G01 X36.2709 Y7.5503 
G01 X36.0861 Y7.4738 
G01 X35.8900 Y7.4348 
G01 X35.6900 Y7.4348 
G01 X35.4939 Y7.4738 
G01 X35.3091 Y7.5503 
G01 X35.1428 Y7.6614 
G01 X35.0014 Y7.8028 
G01 X34.8903 Y7.9691 
G01 X34.8138 Y8.1539 
G01 X34.7748 Y8.3500 
G01 X34.7748 Y8.5500 
G01 X34.8138 Y8.7461 
G01 X34.8903 Y8.9309 
G01 X35.0014 Y9.0971 
G01 X35.1428 Y9.2386 
G01 X35.3091 Y9.3497 
G01 X35.4939 Y9.4262 
G01 X35.6900 Y9.4652 
G01 X35.8900 Y9.4652 
G01 X36.0861 Y9.4262 
G01 X36.2709 Y9.3497 
G01 X36.4372 Y9.2386 
G01 X36.5786 Y9.0971 
G01 X36.6890 Y8.9318 
G01 X40.7533 Y8.9318 
G01 X40.7604 Y8.9424 
G01 X40.8876 Y9.0696 
G01 X40.9882 Y9.1368 
G01 X40.9882 Y12.0631 
G01 X40.8576 Y12.1504 
G01 X40.7304 Y12.2776 
G01 X40.6304 Y12.4272 
G01 X40.5615 Y12.5935 
G01 X40.5264 Y12.7700 
G01 X40.5264 Y12.9500 
G01 X40.5615 Y13.1265 
G01 X40.6304 Y13.2927 
G01 X40.7304 Y13.4424 
G01 X40.8576 Y13.5696 
G01 X40.9582 Y13.6368 
G01 X40.9582 Y16.0898 
G01 X40.8676 Y16.1504 
G01 X40.7404 Y16.2776 
G01 X40.6731 Y16.3782 
G01 X36.5934 Y16.3782 
G01 X36.5897 Y16.3691 
G01 X36.4786 Y16.2028 
G01 X36.3372 Y16.0614 
G01 X36.1709 Y15.9503 
G01 X35.9861 Y15.8738 
G01 X35.7900 Y15.8348 
G01 X35.5900 Y15.8348 
G01 X35.3939 Y15.8738 
G01 X35.2091 Y15.9503 
G01 X35.0428 Y16.0614 
G01 X34.9014 Y16.2028 
G01 X34.7903 Y16.3691 
G01 X34.7138 Y16.5539 
G01 X34.6748 Y16.7500 
G01 X34.6748 Y16.9500 
G01 X34.7138 Y17.1461 
G01 X34.7903 Y17.3309 
G01 X34.9014 Y17.4972 
G01 X35.0428 Y17.6386 
G01 X35.2082 Y17.7490 
G01 X35.2082 Y24.0300 
G01 X35.1591 Y24.0503 
G01 X34.9928 Y24.1614 
G01 X34.8514 Y24.3028 
G01 X34.7403 Y24.4691 
G01 X34.6638 Y24.6539 
G01 X34.6248 Y24.8500 
G01 X34.6248 Y25.0500 
G01 X34.6638 Y25.2461 
G01 X34.7403 Y25.4309 
G01 X34.8514 Y25.5971 
G01 X34.9928 Y25.7386 
G01 X35.0451 Y25.7735 
G01 X32.9004 Y27.9182 
G01 X19.8896 Y27.9182 
G01 X17.1300 Y25.1586 
G01 X17.1536 Y25.0400 
G01 X17.1536 Y24.8600 
G01 X17.1185 Y24.6835 
G01 X17.0496 Y24.5172 
G01 X16.9496 Y24.3676 
G01 X16.8224 Y24.2404 
G01 X16.6728 Y24.1404 
G01 X16.5065 Y24.0715 
G01 X16.3300 Y24.0364 
G01 X16.1500 Y24.0364 
G01 X15.9735 Y24.0715 
G01 X15.8072 Y24.1404 
G01 X15.6576 Y24.2404 
G01 X15.5304 Y24.3676 
G01 X15.4899 Y24.4282 
G01 X12.6368 Y24.4282 
G01 X12.5696 Y24.3276 
G01 X12.4424 Y24.2004 
G01 X12.2927 Y24.1004 
G01 X12.1265 Y24.0315 
G01 X11.9500 Y23.9964 
G01 X11.7700 Y23.9964 
G01 X11.5935 Y24.0315 
G01 X11.4272 Y24.1004 
G01 X11.2776 Y24.2004 
G01 X11.1504 Y24.3276 
G01 X11.0631 Y24.4582 
G01 X8.1768 Y24.4582 
G01 X8.1096 Y24.3576 
G01 X7.9824 Y24.2304 
G01 X7.8327 Y24.1304 
G01 X7.6665 Y24.0615 
G01 X7.4900 Y24.0264 
G01 X7.3100 Y24.0264 
G01 X7.1335 Y24.0615 
G01 X6.9672 Y24.1304 
G01 X6.8176 Y24.2304 
G01 X6.6904 Y24.3576 
G01 X6.5904 Y24.5072 
G01 X6.5215 Y24.6735 
G01 X6.4864 Y24.8500 
G01 X6.4864 Y25.0300 
G01 X6.5215 Y25.2065 
G01 X6.5904 Y25.3727 
G01 X6.6904 Y25.5224 
G01 X6.8176 Y25.6496 
G01 X6.9182 Y25.7168 
G01 X6.9182 Y27.7004 
G01 X4.1004 Y30.5182 
G00 Z3.0000 
G00 X3.6184 Y32.6264 
G01 Z-0.1100 F500.00 
G01 X2.8616 Y32.6264 F500.00 
G01 X2.3264 Y33.1616 
G01 X2.3264 Y33.9184 
G01 X2.8616 Y34.4536 
G01 X3.6184 Y34.4536 
G01 X4.1536 Y33.9184 
G01 X4.1536 Y33.1616 
G01 X3.6184 Y32.6264 
G00 Z3.0000 
G00 X3.6184 Y35.1664 
G01 Z-0.1100 F500.00 
G01 X2.8616 Y35.1664 F500.00 
G01 X2.3264 Y35.7016 
G01 X2.3264 Y36.4584 
G01 X2.8616 Y36.9936 
G01 X3.6184 Y36.9936 
G01 X4.1536 Y36.4584 
G01 X4.1536 Y35.7016 
G01 X3.6184 Y35.1664 
G00 Z3.0000 
G00 X11.1462 Y35.4427 
G01 Z-0.1100 F500.00 
G01 X11.6287 Y34.9602 F500.00 
G01 X12.2197 Y34.6190 
G01 X12.8788 Y34.4424 
G01 X13.5612 Y34.4424 
G01 X14.2203 Y34.6190 
G01 X14.8113 Y34.9602 
G01 X15.2938 Y35.4427 
G01 X15.6350 Y36.0337 
G01 X15.8116 Y36.6928 
G01 X15.8116 Y37.3752 
G01 X15.6350 Y38.0343 
G01 X15.2938 Y38.6253 
G01 X14.8113 Y39.1078 
G01 X14.2203 Y39.4490 
G01 X13.5612 Y39.6256 
G01 X12.8788 Y39.6256 
G01 X12.2197 Y39.4490 
G01 X11.6287 Y39.1078 
G01 X11.1462 Y38.6253 
G01 X10.8050 Y38.0343 
G01 X10.6284 Y37.3752 
G01 X10.6284 Y36.6928 
G01 X10.8050 Y36.0337 
G01 X11.1462 Y35.4427 
G00 Z3.0000 
G00 X11.1976 Y20.6056 
G01 Z-0.1100 F500.00 
G01 X11.0844 Y20.4924 F500.00 
G01 X10.9904 Y20.3629 
G01 X10.9177 Y20.2203 
G01 X10.8979 Y20.1594 
G01 X11.0076 Y20.1594 
G01 X11.0504 Y20.2628 
G01 X11.1504 Y20.4124 
G01 X11.2776 Y20.5396 
G01 X11.4272 Y20.6396 
G01 X11.5306 Y20.6824 
G01 X11.5306 Y20.7921 
G01 X11.4697 Y20.7723 
G01 X11.3271 Y20.6996 
G01 X11.1976 Y20.6056 
G00 Z3.0000 
G00 X11.0076 Y19.5006 
G01 Z-0.1100 F500.00 
G01 X10.8979 Y19.5006 F500.00 
G01 X10.9177 Y19.4397 
G01 X10.9904 Y19.2971 
G01 X11.0844 Y19.1676 
G01 X11.1976 Y19.0544 
G01 X11.3271 Y18.9604 
G01 X11.4697 Y18.8877 
G01 X11.5306 Y18.8679 
G01 X11.5306 Y18.9776 
G01 X11.4272 Y19.0204 
G01 X11.2776 Y19.1204 
G01 X11.1504 Y19.2476 
G01 X11.0504 Y19.3972 
G01 X11.0076 Y19.5006 
G00 Z3.0000 
G00 X15.2779 Y19.5406 
G01 Z-0.1100 F500.00 
G01 X15.2977 Y19.4797 F500.00 
G01 X15.3704 Y19.3371 
G01 X15.4644 Y19.2076 
G01 X15.5776 Y19.0944 
G01 X15.7071 Y19.0004 
G01 X15.8497 Y18.9277 
G01 X15.9106 Y18.9079 
G01 X15.9106 Y19.0176 
G01 X15.8072 Y19.0604 
G01 X15.6576 Y19.1604 
G01 X15.5304 Y19.2876 
G01 X15.4304 Y19.4372 
G01 X15.3876 Y19.5406 
G01 X15.2779 Y19.5406 
G00 Z3.0000 
G00 X15.2779 Y20.1994 
G01 Z-0.1100 F500.00 
G01 X15.3876 Y20.1994 F500.00 
G01 X15.4304 Y20.3027 
G01 X15.5304 Y20.4524 
G01 X15.6576 Y20.5796 
G01 X15.8072 Y20.6796 
G01 X15.9106 Y20.7224 
G01 X15.9106 Y20.8321 
G01 X15.8497 Y20.8123 
G01 X15.7071 Y20.7396 
G01 X15.5776 Y20.6456 
G01 X15.4644 Y20.5324 
G01 X15.3704 Y20.4029 
G01 X15.2977 Y20.2603 
G01 X15.2779 Y20.1994 
G00 Z3.0000 
G00 X16.5694 Y20.7224 
G01 Z-0.1100 F500.00 
G01 X16.6728 Y20.6796 F500.00 
G01 X16.8224 Y20.5796 
G01 X16.9496 Y20.4524 
G01 X17.0496 Y20.3027 
G01 X17.0924 Y20.1994 
G01 X17.2021 Y20.1994 
G01 X17.1823 Y20.2603 
G01 X17.1096 Y20.4029 
G01 X17.0156 Y20.5324 
G01 X16.9024 Y20.6456 
G01 X16.7729 Y20.7396 
G01 X16.6303 Y20.8123 
G01 X16.5694 Y20.8321 
G01 X16.5694 Y20.7224 
G00 Z3.0000 
G00 X16.5694 Y19.0176 
G01 Z-0.1100 F500.00 
G01 X16.5694 Y18.9079 F500.00 
G01 X16.6303 Y18.9277 
G01 X16.7729 Y19.0004 
G01 X16.9024 Y19.0944 
G01 X17.0156 Y19.2076 
G01 X17.1096 Y19.3371 
G01 X17.1823 Y19.4797 
G01 X17.2021 Y19.5406 
G01 X17.0924 Y19.5406 
G01 X17.0496 Y19.4372 
G01 X16.9496 Y19.2876 
G01 X16.8224 Y19.1604 
G01 X16.6728 Y19.0604 
G01 X16.5694 Y19.0176 
G00 Z3.0000 
G00 X15.9945 Y15.9758 
G01 Z-0.1100 F500.00 
G01 X22.8145 Y22.7958 F500.00 
G01 X22.9042 Y22.8855 
G01 X23.0140 Y22.9490 
G01 X23.1366 Y22.9818 
G01 X24.9408 Y22.9818 
G01 X24.9606 Y23.0015 
G01 X25.0811 Y23.0821 
G01 X25.2150 Y23.1375 
G01 X25.3571 Y23.1658 
G01 X26.8229 Y23.1658 
G01 X26.9650 Y23.1375 
G01 X27.0989 Y23.0821 
G01 X27.2194 Y23.0015 
G01 X27.3219 Y22.8990 
G01 X27.4025 Y22.7785 
G01 X27.4579 Y22.6446 
G01 X27.4862 Y22.5025 
G01 X27.4862 Y22.3575 
G01 X27.4579 Y22.2154 
G01 X27.4025 Y22.0815 
G01 X27.3219 Y21.9610 
G01 X27.2194 Y21.8585 
G01 X27.0989 Y21.7779 
G01 X26.9650 Y21.7225 
G01 X26.8229 Y21.6942 
G01 X25.3571 Y21.6942 
G01 X25.2150 Y21.7225 
G01 X25.0811 Y21.7779 
G01 X24.9606 Y21.8585 
G01 X24.8581 Y21.9610 
G01 X24.8198 Y22.0182 
G01 X23.3996 Y22.0182 
G01 X16.8618 Y15.4804 
G01 X16.8618 Y11.4990 
G01 X17.0271 Y11.3886 
G01 X17.1686 Y11.2471 
G01 X17.2797 Y11.0809 
G01 X17.3562 Y10.8961 
G01 X17.3952 Y10.7000 
G01 X17.3952 Y10.5000 
G01 X17.3562 Y10.3039 
G01 X17.2797 Y10.1191 
G01 X17.1686 Y9.9528 
G01 X17.0271 Y9.8114 
G01 X16.8609 Y9.7003 
G01 X16.6761 Y9.6238 
G01 X16.4800 Y9.5848 
G01 X16.2800 Y9.5848 
G01 X16.0839 Y9.6238 
G01 X15.8991 Y9.7003 
G01 X15.7328 Y9.8114 
G01 X15.5914 Y9.9528 
G01 X15.4803 Y10.1191 
G01 X15.4038 Y10.3039 
G01 X15.3648 Y10.5000 
G01 X15.3648 Y10.7000 
G01 X15.4038 Y10.8961 
G01 X15.4803 Y11.0809 
G01 X15.5914 Y11.2471 
G01 X15.7328 Y11.3886 
G01 X15.8982 Y11.4990 
G01 X15.8982 Y15.7434 
G01 X15.9310 Y15.8660 
G01 X15.9945 Y15.9758 
G00 Z3.0000 
G00 X15.9271 Y15.9826 
G01 Z-0.1100 F500.00 
G01 X15.8458 Y15.7863 F500.00 
G01 X15.8458 Y11.6543 
G01 X15.8268 Y11.5835 
G01 X15.7901 Y11.5199 
G01 X15.4749 Y11.2047 
G01 X15.3124 Y10.8124 
G01 X15.3124 Y10.3876 
G01 X15.4749 Y9.9953 
G01 X15.7753 Y9.6949 
G01 X16.1676 Y9.5324 
G01 X16.5924 Y9.5324 
G01 X16.9847 Y9.6949 
G01 X17.2851 Y9.9953 
G01 X17.4476 Y10.3876 
G01 X17.4476 Y10.8124 
G01 X17.2851 Y11.2047 
G01 X17.0217 Y11.4681 
G01 X16.9699 Y11.5199 
G01 X16.9332 Y11.5835 
G01 X16.9142 Y11.6543 
G01 X16.9142 Y15.3800 
G01 X16.9332 Y15.4509 
G01 X16.9699 Y15.5144 
G01 X23.3137 Y21.8583 
G01 X23.3656 Y21.9101 
G01 X23.4291 Y21.9468 
G01 X23.5000 Y21.9658 
G01 X24.7004 Y21.9658 
G01 X24.7712 Y21.9468 
G01 X24.8348 Y21.9101 
G01 X24.9831 Y21.7618 
G01 X25.2728 Y21.6418 
G01 X26.9072 Y21.6418 
G01 X27.1969 Y21.7618 
G01 X27.4186 Y21.9835 
G01 X27.5386 Y22.2732 
G01 X27.5386 Y22.5868 
G01 X27.4186 Y22.8765 
G01 X27.1969 Y23.0982 
G01 X26.9072 Y23.2182 
G01 X25.2728 Y23.2182 
G01 X24.9831 Y23.0982 
G01 X24.9748 Y23.0899 
G01 X24.9112 Y23.0532 
G01 X24.8404 Y23.0342 
G01 X23.0937 Y23.0342 
G01 X22.8974 Y22.9529 
G01 X22.7339 Y22.7893 
G01 X15.9271 Y15.9826 
G00 Z3.0000 
G00 X15.8991 Y8.7997 
G01 Z-0.1100 F500.00 
G01 X16.0839 Y8.8762 F500.00 
G01 X16.2800 Y8.9152 
G01 X16.4800 Y8.9152 
G01 X16.6761 Y8.8762 
G01 X16.8609 Y8.7997 
G01 X17.0271 Y8.6886 
G01 X17.1686 Y8.5472 
G01 X17.2790 Y8.3818 
G01 X18.8004 Y8.3818 
G01 X19.9182 Y9.4996 
G01 X19.9182 Y12.2634 
G01 X19.9510 Y12.3860 
G01 X20.0145 Y12.4958 
G01 X22.3145 Y14.7958 
G01 X22.4042 Y14.8855 
G01 X22.5140 Y14.9490 
G01 X22.6366 Y14.9818 
G01 X24.9159 Y14.9818 
G01 X25.0211 Y15.0521 
G01 X25.1550 Y15.1075 
G01 X25.2971 Y15.1358 
G01 X26.7629 Y15.1358 
G01 X26.9050 Y15.1075 
G01 X27.0389 Y15.0521 
G01 X27.1594 Y14.9715 
G01 X27.2619 Y14.8690 
G01 X27.3425 Y14.7485 
G01 X27.3979 Y14.6146 
G01 X27.4262 Y14.4725 
G01 X27.4262 Y14.3275 
G01 X27.3979 Y14.1854 
G01 X27.3425 Y14.0515 
G01 X27.2619 Y13.9310 
G01 X27.1594 Y13.8285 
G01 X27.0389 Y13.7479 
G01 X26.9050 Y13.6925 
G01 X26.7629 Y13.6642 
G01 X25.2971 Y13.6642 
G01 X25.1550 Y13.6925 
G01 X25.0211 Y13.7479 
G01 X24.9006 Y13.8285 
G01 X24.7981 Y13.9310 
G01 X24.7398 Y14.0182 
G01 X22.8996 Y14.0182 
G01 X20.8818 Y12.0004 
G01 X20.8818 Y9.2366 
G01 X20.8490 Y9.1140 
G01 X20.7855 Y9.0042 
G01 X20.6958 Y8.9145 
G01 X19.2958 Y7.5145 
G01 X19.1860 Y7.4510 
G01 X19.0634 Y7.4182 
G01 X17.2790 Y7.4182 
G01 X17.1686 Y7.2528 
G01 X17.0271 Y7.1114 
G01 X16.8609 Y7.0003 
G01 X16.6761 Y6.9238 
G01 X16.4800 Y6.8848 
G01 X16.2800 Y6.8848 
G01 X16.0839 Y6.9238 
G01 X15.8991 Y7.0003 
G01 X15.7328 Y7.1114 
G01 X15.5914 Y7.2528 
G01 X15.4803 Y7.4191 
G01 X15.4038 Y7.6039 
G01 X15.3648 Y7.8000 
G01 X15.3648 Y8.0000 
G01 X15.4038 Y8.1961 
G01 X15.4803 Y8.3809 
G01 X15.5914 Y8.5472 
G01 X15.7328 Y8.6886 
G01 X15.8991 Y8.7997 
G00 Z3.0000 
G00 X15.7753 Y8.8051 
G01 Z-0.1100 F500.00 
G01 X15.4749 Y8.5047 F500.00 
G01 X15.3124 Y8.1124 
G01 X15.3124 Y7.6876 
G01 X15.4749 Y7.2953 
G01 X15.7753 Y6.9949 
G01 X16.0205 Y6.8934 
G01 X16.0787 Y6.8487 
G01 X16.1233 Y6.7905 
G01 X16.1514 Y6.7227 
G01 X16.1610 Y6.6500 
G01 X16.1514 Y6.5773 
G01 X16.1429 Y6.5568 
G01 X16.1233 Y6.5095 
G01 X16.0787 Y6.4513 
G01 X16.0205 Y6.4066 
G01 X15.9527 Y6.3786 
G01 X15.7753 Y6.3051 
G01 X15.4749 Y6.0047 
G01 X15.3124 Y5.6124 
G01 X15.3124 Y5.1876 
G01 X15.4749 Y4.7953 
G01 X15.7753 Y4.4949 
G01 X16.1676 Y4.3324 
G01 X16.5924 Y4.3324 
G01 X16.9847 Y4.4949 
G01 X17.2999 Y4.8101 
G01 X17.3635 Y4.8468 
G01 X17.4343 Y4.8658 
G01 X23.7063 Y4.8658 
G01 X23.9026 Y4.9471 
G01 X24.2137 Y5.2583 
G01 X24.2656 Y5.3101 
G01 X24.3291 Y5.3468 
G01 X24.4000 Y5.3658 
G01 X24.7674 Y5.3658 
G01 X24.7856 Y5.3682 
G01 X24.8039 Y5.3658 
G01 X24.8223 Y5.3658 
G01 X24.8401 Y5.3610 
G01 X24.8583 Y5.3586 
G01 X24.8753 Y5.3516 
G01 X24.8931 Y5.3468 
G01 X24.9091 Y5.3376 
G01 X25.2128 Y5.2118 
G01 X26.8472 Y5.2118 
G01 X27.1369 Y5.3318 
G01 X27.3586 Y5.5535 
G01 X27.4786 Y5.8432 
G01 X27.4786 Y6.1568 
G01 X27.3586 Y6.4465 
G01 X27.1369 Y6.6682 
G01 X26.8472 Y6.7882 
G01 X25.2128 Y6.7882 
G01 X24.9231 Y6.6682 
G01 X24.7966 Y6.5417 
G01 X24.7448 Y6.4899 
G01 X24.6812 Y6.4532 
G01 X24.6104 Y6.4342 
G01 X23.9937 Y6.4342 
G01 X23.7974 Y6.3529 
G01 X23.6339 Y6.1893 
G01 X23.4863 Y6.0417 
G01 X23.4344 Y5.9899 
G01 X23.3709 Y5.9532 
G01 X23.3000 Y5.9342 
G01 X17.4343 Y5.9342 
G01 X17.3635 Y5.9532 
G01 X17.2999 Y5.9899 
G01 X16.9847 Y6.3051 
G01 X16.8073 Y6.3786 
G01 X16.7395 Y6.4066 
G01 X16.6813 Y6.4513 
G01 X16.6367 Y6.5095 
G01 X16.6166 Y6.5580 
G01 X16.6086 Y6.5773 
G01 X16.5990 Y6.6500 
G01 X16.6086 Y6.7227 
G01 X16.6367 Y6.7905 
G01 X16.6813 Y6.8487 
G01 X16.7395 Y6.8934 
G01 X16.9847 Y6.9949 
G01 X17.2481 Y7.2583 
G01 X17.2999 Y7.3101 
G01 X17.3635 Y7.3468 
G01 X17.4343 Y7.3658 
G01 X19.1063 Y7.3658 
G01 X19.3026 Y7.4471 
G01 X20.6375 Y8.7820 
G01 X20.8529 Y8.9974 
G01 X20.9342 Y9.1937 
G01 X20.9342 Y11.9000 
G01 X20.9532 Y11.9709 
G01 X20.9899 Y12.0344 
G01 X22.8137 Y13.8583 
G01 X22.8656 Y13.9101 
G01 X22.9291 Y13.9468 
G01 X23.0000 Y13.9658 
G01 X24.6104 Y13.9658 
G01 X24.6812 Y13.9468 
G01 X24.7448 Y13.9101 
G01 X24.9231 Y13.7318 
G01 X25.2128 Y13.6118 
G01 X26.8472 Y13.6118 
G01 X27.1369 Y13.7318 
G01 X27.3586 Y13.9535 
G01 X27.4786 Y14.2432 
G01 X27.4786 Y14.5568 
G01 X27.3586 Y14.8465 
G01 X27.1369 Y15.0682 
G01 X26.8472 Y15.1882 
G01 X25.2128 Y15.1882 
G01 X24.9091 Y15.0624 
G01 X24.8931 Y15.0532 
G01 X24.8753 Y15.0484 
G01 X24.8583 Y15.0414 
G01 X24.8401 Y15.0390 
G01 X24.8223 Y15.0342 
G01 X24.8039 Y15.0342 
G01 X24.7856 Y15.0318 
G01 X24.7674 Y15.0342 
G01 X22.5937 Y15.0342 
G01 X22.3974 Y14.9529 
G01 X22.2339 Y14.7893 
G01 X19.9471 Y12.5026 
G01 X19.8658 Y12.3063 
G01 X19.8658 Y9.6000 
G01 X19.8468 Y9.5291 
G01 X19.8101 Y9.4656 
G01 X18.8863 Y8.5417 
G01 X18.8344 Y8.4899 
G01 X18.7709 Y8.4532 
G01 X18.7000 Y8.4342 
G01 X17.4343 Y8.4342 
G01 X17.3635 Y8.4532 
G01 X17.2999 Y8.4899 
G01 X16.9847 Y8.8051 
G01 X16.5924 Y8.9676 
G01 X16.1676 Y8.9676 
G01 X15.7753 Y8.8051 
G00 Z3.0000 
G00 X15.8991 Y6.2997 
G01 Z-0.1100 F500.00 
G01 X16.0839 Y6.3762 F500.00 
G01 X16.2800 Y6.4152 
G01 X16.4800 Y6.4152 
G01 X16.6761 Y6.3762 
G01 X16.8609 Y6.2997 
G01 X17.0271 Y6.1886 
G01 X17.1686 Y6.0472 
G01 X17.2790 Y5.8818 
G01 X23.4004 Y5.8818 
G01 X23.7145 Y6.1958 
G01 X23.8042 Y6.2855 
G01 X23.9140 Y6.3490 
G01 X24.0366 Y6.3818 
G01 X24.7398 Y6.3818 
G01 X24.7981 Y6.4690 
G01 X24.9006 Y6.5715 
G01 X25.0211 Y6.6521 
G01 X25.1550 Y6.7075 
G01 X25.2971 Y6.7358 
G01 X26.7629 Y6.7358 
G01 X26.9050 Y6.7075 
G01 X27.0389 Y6.6521 
G01 X27.1594 Y6.5715 
G01 X27.2619 Y6.4690 
G01 X27.3425 Y6.3485 
G01 X27.3979 Y6.2146 
G01 X27.4262 Y6.0725 
G01 X27.4262 Y5.9275 
G01 X27.3979 Y5.7854 
G01 X27.3425 Y5.6515 
G01 X27.2619 Y5.5310 
G01 X27.1594 Y5.4285 
G01 X27.0389 Y5.3479 
G01 X26.9050 Y5.2925 
G01 X26.7629 Y5.2642 
G01 X25.2971 Y5.2642 
G01 X25.1550 Y5.2925 
G01 X25.0211 Y5.3479 
G01 X24.9159 Y5.4182 
G01 X24.2996 Y5.4182 
G01 X23.8958 Y5.0145 
G01 X23.7860 Y4.9510 
G01 X23.6634 Y4.9182 
G01 X17.2790 Y4.9182 
G01 X17.1686 Y4.7528 
G01 X17.0271 Y4.6114 
G01 X16.8609 Y4.5003 
G01 X16.6761 Y4.4238 
G01 X16.4800 Y4.3848 
G01 X16.2800 Y4.3848 
G01 X16.0839 Y4.4238 
G01 X15.8991 Y4.5003 
G01 X15.7328 Y4.6114 
G01 X15.5914 Y4.7528 
G01 X15.4803 Y4.9191 
G01 X15.4038 Y5.1039 
G01 X15.3648 Y5.3000 
G01 X15.3648 Y5.5000 
G01 X15.4038 Y5.6961 
G01 X15.4803 Y5.8809 
G01 X15.5914 Y6.0472 
G01 X15.7328 Y6.1886 
G01 X15.8991 Y6.2997 
G00 Z3.0000 
G00 X24.7981 Y8.0710 
G01 Z-0.1100 F500.00 
G01 X24.7175 Y8.1915 F500.00 
G01 X24.6621 Y8.3254 
G01 X24.6338 Y8.4675 
G01 X24.6338 Y8.6125 
G01 X24.6621 Y8.7546 
G01 X24.7175 Y8.8885 
G01 X24.7981 Y9.0090 
G01 X24.9006 Y9.1115 
G01 X25.0211 Y9.1921 
G01 X25.1550 Y9.2475 
G01 X25.2971 Y9.2758 
G01 X26.7629 Y9.2758 
G01 X26.9050 Y9.2475 
G01 X27.0389 Y9.1921 
G01 X27.1594 Y9.1115 
G01 X27.2492 Y9.0218 
G01 X32.4111 Y9.0218 
G01 X32.4614 Y9.0971 
G01 X32.6028 Y9.2386 
G01 X32.7691 Y9.3497 
G01 X32.9539 Y9.4262 
G01 X33.1500 Y9.4652 
G01 X33.3500 Y9.4652 
G01 X33.5461 Y9.4262 
G01 X33.7309 Y9.3497 
G01 X33.8972 Y9.2386 
G01 X34.0386 Y9.0971 
G01 X34.1497 Y8.9309 
G01 X34.2262 Y8.7461 
G01 X34.2652 Y8.5500 
G01 X34.2652 Y8.3500 
G01 X34.2262 Y8.1539 
G01 X34.1497 Y7.9691 
G01 X34.0386 Y7.8028 
G01 X33.8972 Y7.6614 
G01 X33.7309 Y7.5503 
G01 X33.5461 Y7.4738 
G01 X33.3500 Y7.4348 
G01 X33.1500 Y7.4348 
G01 X32.9539 Y7.4738 
G01 X32.7691 Y7.5503 
G01 X32.6028 Y7.6614 
G01 X32.4614 Y7.8028 
G01 X32.3503 Y7.9691 
G01 X32.3134 Y8.0582 
G01 X27.2492 Y8.0582 
G01 X27.1594 Y7.9685 
G01 X27.0389 Y7.8879 
G01 X26.9050 Y7.8325 
G01 X26.7629 Y7.8042 
G01 X25.2971 Y7.8042 
G01 X25.1550 Y7.8325 
G01 X25.0211 Y7.8879 
G01 X24.9006 Y7.9685 
G01 X24.7981 Y8.0710 
G00 Z3.0000 
G00 X24.8230 Y11.2200 
G01 Z-0.1100 F500.00 
G01 X24.9299 Y11.1424 F500.00 
G01 X25.0475 Y11.0825 
G01 X25.1731 Y11.0417 
G01 X25.3036 Y11.0210 
G01 X25.7514 Y11.0210 
G01 X25.7514 Y11.1242 
G01 X25.2971 Y11.1242 
G01 X25.1550 Y11.1525 
G01 X25.0211 Y11.2079 
G01 X24.9006 Y11.2885 
G01 X24.7981 Y11.3910 
G01 X24.7175 Y11.5115 
G01 X24.6886 Y11.5814 
G01 X24.5779 Y11.5814 
G01 X24.5921 Y11.5379 
G01 X24.6520 Y11.4203 
G01 X24.7296 Y11.3134 
G01 X24.8230 Y11.2200 
G00 Z3.0000 
G00 X24.6886 Y12.1386 
G01 Z-0.1100 F500.00 
G01 X24.7175 Y12.2085 F500.00 
G01 X24.7981 Y12.3290 
G01 X24.9006 Y12.4315 
G01 X25.0211 Y12.5121 
G01 X25.1550 Y12.5675 
G01 X25.2971 Y12.5958 
G01 X25.7514 Y12.5958 
G01 X25.7514 Y12.6990 
G01 X25.3036 Y12.6990 
G01 X25.1731 Y12.6783 
G01 X25.0475 Y12.6375 
G01 X24.9299 Y12.5776 
G01 X24.8230 Y12.5000 
G01 X24.7296 Y12.4066 
G01 X24.6520 Y12.2997 
G01 X24.5921 Y12.1821 
G01 X24.5779 Y12.1386 
G01 X24.6886 Y12.1386 
G00 Z3.0000 
G00 X26.3086 Y12.5958 
G01 Z-0.1100 F500.00 
G01 X26.7629 Y12.5958 F500.00 
G01 X26.9050 Y12.5675 
G01 X27.0389 Y12.5121 
G01 X27.1594 Y12.4315 
G01 X27.2619 Y12.3290 
G01 X27.3425 Y12.2085 
G01 X27.3714 Y12.1386 
G01 X27.4821 Y12.1386 
G01 X27.4679 Y12.1821 
G01 X27.4080 Y12.2997 
G01 X27.3304 Y12.4066 
G01 X27.2370 Y12.5000 
G01 X27.1301 Y12.5776 
G01 X27.0125 Y12.6375 
G01 X26.8869 Y12.6783 
G01 X26.7564 Y12.6990 
G01 X26.3086 Y12.6990 
G01 X26.3086 Y12.5958 
G00 Z3.0000 
G00 X26.3086 Y11.1242 
G01 Z-0.1100 F500.00 
G01 X26.3086 Y11.0210 F500.00 
G01 X26.7564 Y11.0210 
G01 X26.8869 Y11.0417 
G01 X27.0125 Y11.0825 
G01 X27.1301 Y11.1424 
G01 X27.2370 Y11.2200 
G01 X27.3304 Y11.3134 
G01 X27.4080 Y11.4203 
G01 X27.4679 Y11.5379 
G01 X27.4820 Y11.5814 
G01 X27.3714 Y11.5814 
G01 X27.3425 Y11.5115 
G01 X27.2619 Y11.3910 
G01 X27.1594 Y11.2885 
G01 X27.0389 Y11.2079 
G01 X26.9050 Y11.1525 
G01 X26.7629 Y11.1242 
G01 X26.3086 Y11.1242 
G00 Z3.0000 
G00 X26.7629 Y16.2042 
G01 Z-0.1100 F500.00 
G01 X25.2971 Y16.2042 F500.00 
G01 X25.1550 Y16.2325 
G01 X25.0211 Y16.2879 
G01 X24.9006 Y16.3685 
G01 X24.7981 Y16.4710 
G01 X24.7175 Y16.5915 
G01 X24.6621 Y16.7254 
G01 X24.6338 Y16.8675 
G01 X24.6338 Y17.0125 
G01 X24.6621 Y17.1546 
G01 X24.7175 Y17.2885 
G01 X24.7981 Y17.4090 
G01 X24.9006 Y17.5115 
G01 X25.0211 Y17.5921 
G01 X25.1550 Y17.6475 
G01 X25.2971 Y17.6758 
G01 X26.7629 Y17.6758 
G01 X26.9050 Y17.6475 
G01 X27.0389 Y17.5921 
G01 X27.1594 Y17.5115 
G01 X27.2492 Y17.4218 
G01 X32.3111 Y17.4218 
G01 X32.3614 Y17.4972 
G01 X32.5028 Y17.6386 
G01 X32.6691 Y17.7497 
G01 X32.8539 Y17.8262 
G01 X33.0500 Y17.8652 
G01 X33.2500 Y17.8652 
G01 X33.4461 Y17.8262 
G01 X33.6309 Y17.7497 
G01 X33.7972 Y17.6386 
G01 X33.9386 Y17.4972 
G01 X34.0497 Y17.3309 
G01 X34.1262 Y17.1461 
G01 X34.1652 Y16.9500 
G01 X34.1652 Y16.7500 
G01 X34.1262 Y16.5539 
G01 X34.0497 Y16.3691 
G01 X33.9386 Y16.2028 
G01 X33.7972 Y16.0614 
G01 X33.6309 Y15.9503 
G01 X33.4461 Y15.8738 
G01 X33.2500 Y15.8348 
G01 X33.0500 Y15.8348 
G01 X32.8539 Y15.8738 
G01 X32.6691 Y15.9503 
G01 X32.5028 Y16.0614 
G01 X32.3614 Y16.2028 
G01 X32.2503 Y16.3691 
G01 X32.2134 Y16.4582 
G01 X27.2492 Y16.4582 
G01 X27.1594 Y16.3685 
G01 X27.0389 Y16.2879 
G01 X26.9050 Y16.2325 
G01 X26.7629 Y16.2042 
G00 Z3.0000 
G00 X26.8164 Y19.0510 
G01 Z-0.1100 F500.00 
G01 X26.9469 Y19.0717 F500.00 
G01 X27.0725 Y19.1125 
G01 X27.1901 Y19.1724 
G01 X27.2970 Y19.2500 
G01 X27.3904 Y19.3434 
G01 X27.4680 Y19.4503 
G01 X27.5279 Y19.5679 
G01 X27.5420 Y19.6114 
G01 X27.4314 Y19.6114 
G01 X27.4025 Y19.5415 
G01 X27.3219 Y19.4210 
G01 X27.2194 Y19.3185 
G01 X27.0989 Y19.2379 
G01 X26.9650 Y19.1825 
G01 X26.8229 Y19.1542 
G01 X26.3686 Y19.1542 
G01 X26.3686 Y19.0510 
G01 X26.8164 Y19.0510 
G00 Z3.0000 
G00 X25.8114 Y19.0510 
G01 Z-0.1100 F500.00 
G01 X25.8114 Y19.1542 F500.00 
G01 X25.3571 Y19.1542 
G01 X25.2150 Y19.1825 
G01 X25.0811 Y19.2379 
G01 X24.9606 Y19.3185 
G01 X24.8581 Y19.4210 
G01 X24.7775 Y19.5415 
G01 X24.7486 Y19.6114 
G01 X24.6379 Y19.6114 
G01 X24.6521 Y19.5679 
G01 X24.7120 Y19.4503 
G01 X24.7896 Y19.3434 
G01 X24.8830 Y19.2500 
G01 X24.9899 Y19.1724 
G01 X25.1075 Y19.1125 
G01 X25.2331 Y19.0717 
G01 X25.3636 Y19.0510 
G01 X25.8114 Y19.0510 
G00 Z3.0000 
G00 X25.8114 Y20.6258 
G01 Z-0.1100 F500.00 
G01 X25.8114 Y20.7290 F500.00 
G01 X25.3636 Y20.7290 
G01 X25.2331 Y20.7083 
G01 X25.1075 Y20.6675 
G01 X24.9899 Y20.6076 
G01 X24.8830 Y20.5300 
G01 X24.7896 Y20.4366 
G01 X24.7120 Y20.3297 
G01 X24.6521 Y20.2121 
G01 X24.6379 Y20.1686 
G01 X24.7486 Y20.1686 
G01 X24.7775 Y20.2385 
G01 X24.8581 Y20.3590 
G01 X24.9606 Y20.4615 
G01 X25.0811 Y20.5421 
G01 X25.2150 Y20.5975 
G01 X25.3571 Y20.6258 
G01 X25.8114 Y20.6258 
G00 Z3.0000 
G00 X26.3686 Y20.6258 
G01 Z-0.1100 F500.00 
G01 X26.8229 Y20.6258 F500.00 
G01 X26.9650 Y20.5975 
G01 X27.0989 Y20.5421 
G01 X27.2194 Y20.4615 
G01 X27.3219 Y20.3590 
G01 X27.4025 Y20.2385 
G01 X27.4314 Y20.1686 
G01 X27.5420 Y20.1686 
G01 X27.5279 Y20.2121 
G01 X27.4680 Y20.3297 
G01 X27.3904 Y20.4366 
G01 X27.2970 Y20.5300 
G01 X27.1901 Y20.6076 
G01 X27.0725 Y20.6675 
G01 X26.9469 Y20.7083 
G01 X26.8164 Y20.7290 
G01 X26.3686 Y20.7290 
G01 X26.3686 Y20.6258 
G00 Z3.0000 
G00 X26.8229 Y24.2342 
G01 Z-0.1100 F500.00 
G01 X25.3571 Y24.2342 F500.00 
G01 X25.2150 Y24.2625 
G01 X25.0811 Y24.3179 
G01 X24.9606 Y24.3985 
G01 X24.8581 Y24.5010 
G01 X24.7775 Y24.6215 
G01 X24.7221 Y24.7554 
G01 X24.6938 Y24.8975 
G01 X24.6938 Y25.0425 
G01 X24.7221 Y25.1846 
G01 X24.7775 Y25.3185 
G01 X24.8581 Y25.4390 
G01 X24.9606 Y25.5415 
G01 X25.0811 Y25.6221 
G01 X25.2150 Y25.6775 
G01 X25.3571 Y25.7058 
G01 X26.8229 Y25.7058 
G01 X26.9650 Y25.6775 
G01 X27.0989 Y25.6221 
G01 X27.2194 Y25.5415 
G01 X27.3092 Y25.4518 
G01 X32.2143 Y25.4518 
G01 X32.3114 Y25.5971 
G01 X32.4528 Y25.7386 
G01 X32.6191 Y25.8497 
G01 X32.8039 Y25.9262 
G01 X33.0000 Y25.9652 
G01 X33.2000 Y25.9652 
G01 X33.3961 Y25.9262 
G01 X33.5809 Y25.8497 
G01 X33.7471 Y25.7386 
G01 X33.8886 Y25.5971 
G01 X33.9997 Y25.4309 
G01 X34.0762 Y25.2461 
G01 X34.1152 Y25.0500 
G01 X34.1152 Y24.8500 
G01 X34.0762 Y24.6539 
G01 X33.9997 Y24.4691 
G01 X33.8886 Y24.3028 
G01 X33.7471 Y24.1614 
G01 X33.5809 Y24.0503 
G01 X33.3961 Y23.9738 
G01 X33.2000 Y23.9348 
G01 X33.0000 Y23.9348 
G01 X32.8039 Y23.9738 
G01 X32.6191 Y24.0503 
G01 X32.4528 Y24.1614 
G01 X32.3114 Y24.3028 
G01 X32.2003 Y24.4691 
G01 X32.1924 Y24.4882 
G01 X27.3092 Y24.4882 
G01 X27.2194 Y24.3985 
G01 X27.0989 Y24.3179 
G01 X26.9650 Y24.2625 
G01 X26.8229 Y24.2342 
G00 Z3.0000 
G00 X38.9324 Y23.2206 
G01 Z-0.1100 F500.00 
G01 X38.9324 Y23.1078 F500.00 
G01 X39.5578 Y22.4824 
G01 X39.6706 Y22.4824 
G01 X39.6706 Y22.5856 
G01 X39.6005 Y22.5856 
G01 X39.0356 Y23.1505 
G01 X39.0356 Y23.2206 
G01 X38.9324 Y23.2206 
G00 Z3.0000 
G00 X40.3294 Y22.5856 
G01 Z-0.1100 F500.00 
G01 X40.3294 Y22.4824 F500.00 
G01 X40.4422 Y22.4824 
G01 X41.0676 Y23.1078 
G01 X41.0676 Y23.2206 
G01 X40.9644 Y23.2206 
G01 X40.9644 Y23.1505 
G01 X40.3995 Y22.5856 
G01 X40.3294 Y22.5856 
G00 Z3.0000 
G00 X40.3995 Y25.1256 
G01 Z-0.1100 F500.00 
G01 X39.6005 Y25.1256 F500.00 
G01 X39.0356 Y25.6905 
G01 X39.0356 Y26.4895 
G01 X39.6005 Y27.0544 
G01 X40.3995 Y27.0544 
G01 X40.9644 Y26.4895 
G01 X40.9644 Y26.4818 
G01 X41.7634 Y26.4818 
G01 X41.8860 Y26.4490 
G01 X41.9958 Y26.3855 
G01 X42.0855 Y26.2958 
G01 X47.0596 Y21.3218 
G01 X50.6898 Y21.3218 
G01 X51.1216 Y21.7536 
G01 X51.8784 Y21.7536 
G01 X52.4136 Y21.2184 
G01 X52.4136 Y20.4616 
G01 X51.8784 Y19.9264 
G01 X51.1216 Y19.9264 
G01 X50.6898 Y20.3582 
G01 X46.7966 Y20.3582 
G01 X46.6740 Y20.3910 
G01 X46.5642 Y20.4545 
G01 X41.5004 Y25.5182 
G01 X40.7921 Y25.5182 
G01 X40.3995 Y25.1256 
G00 Z3.0000 
G00 X40.3995 Y27.6656 
G01 Z-0.1100 F500.00 
G01 X39.6005 Y27.6656 F500.00 
G01 X39.0356 Y28.2305 
G01 X39.0356 Y29.0295 
G01 X39.6005 Y29.5944 
G01 X40.3995 Y29.5944 
G01 X40.9121 Y29.0818 
G01 X42.2634 Y29.0818 
G01 X42.3860 Y29.0490 
G01 X42.4958 Y28.9855 
G01 X42.5855 Y28.8958 
G01 X47.6196 Y23.8618 
G01 X50.6898 Y23.8618 
G01 X51.1216 Y24.2936 
G01 X51.8784 Y24.2936 
G01 X52.4136 Y23.7584 
G01 X52.4136 Y23.0016 
G01 X51.8784 Y22.4664 
G01 X51.1216 Y22.4664 
G01 X50.6898 Y22.8982 
G01 X47.3566 Y22.8982 
G01 X47.2340 Y22.9310 
G01 X47.1242 Y22.9945 
G01 X42.0004 Y28.1182 
G01 X40.8521 Y28.1182 
G01 X40.3995 Y27.6656 
G00 Z3.0000 
G00 X40.3995 Y30.2056 
G01 Z-0.1100 F500.00 
G01 X39.6005 Y30.2056 F500.00 
G01 X39.0356 Y30.7705 
G01 X39.0356 Y31.5695 
G01 X39.6005 Y32.1344 
G01 X40.3995 Y32.1344 
G01 X40.9521 Y31.5818 
G01 X43.5634 Y31.5818 
G01 X43.6860 Y31.5490 
G01 X43.7958 Y31.4855 
G01 X43.8855 Y31.3958 
G01 X47.3556 Y27.9258 
G01 X50.6898 Y27.9258 
G01 X51.1216 Y28.3576 
G01 X51.8784 Y28.3576 
G01 X52.4136 Y27.8224 
G01 X52.4136 Y27.0656 
G01 X51.8784 Y26.5304 
G01 X51.1216 Y26.5304 
G01 X50.6898 Y26.9622 
G01 X47.0926 Y26.9622 
G01 X46.9700 Y26.9950 
G01 X46.8602 Y27.0585 
G01 X43.3004 Y30.6182 
G01 X40.8121 Y30.6182 
G01 X40.3995 Y30.2056 
G00 Z3.0000 
G00 X40.3995 Y32.7456 
G01 Z-0.1100 F500.00 
G01 X39.6005 Y32.7456 F500.00 
G01 X39.0356 Y33.3105 
G01 X39.0356 Y34.1095 
G01 X39.6005 Y34.6744 
G01 X40.3995 Y34.6744 
G01 X40.8921 Y34.1818 
G01 X44.3634 Y34.1818 
G01 X44.4860 Y34.1490 
G01 X44.5958 Y34.0855 
G01 X44.6855 Y33.9958 
G01 X48.2156 Y30.4658 
G01 X50.6898 Y30.4658 
G01 X51.1216 Y30.8976 
G01 X51.8784 Y30.8976 
G01 X52.4136 Y30.3624 
G01 X52.4136 Y29.6056 
G01 X51.8784 Y29.0704 
G01 X51.1216 Y29.0704 
G01 X50.6898 Y29.5022 
G01 X47.9526 Y29.5022 
G01 X47.8300 Y29.5350 
G01 X47.7202 Y29.5985 
G01 X44.1004 Y33.2182 
G01 X40.8721 Y33.2182 
G01 X40.3995 Y32.7456 
G00 Z3.0000 
G00 X40.5974 Y38.0471 
G01 Z-0.1100 F500.00 
G01 X40.7937 Y37.9658 F500.00 
G01 X42.5000 Y37.9658 
G01 X42.5709 Y37.9468 
G01 X42.6336 Y37.9106 
G01 X48.4734 Y32.0711 
G01 X48.6697 Y31.9898 
G01 X50.5893 Y31.9898 
G01 X50.6602 Y31.9708 
G01 X50.7237 Y31.9341 
G01 X51.0999 Y31.5580 
G01 X51.9001 Y31.5580 
G01 X52.4660 Y32.1239 
G01 X52.4660 Y32.9241 
G01 X51.9001 Y33.4900 
G01 X51.0999 Y33.4900 
G01 X50.7756 Y33.1657 
G01 X50.7237 Y33.1139 
G01 X50.6602 Y33.0772 
G01 X50.5893 Y33.0582 
G01 X49.0760 Y33.0582 
G01 X49.0051 Y33.0772 
G01 X48.9416 Y33.1139 
G01 X43.3180 Y38.7375 
G01 X43.2661 Y38.7893 
G01 X43.1026 Y38.9529 
G01 X42.9063 Y39.0342 
G01 X41.2000 Y39.0342 
G01 X41.1291 Y39.0532 
G01 X41.0656 Y39.0899 
G01 X39.0417 Y41.1137 
G01 X38.9899 Y41.1656 
G01 X38.9532 Y41.2291 
G01 X38.9342 Y41.3000 
G01 X38.9342 Y47.3000 
G01 X38.9532 Y47.3709 
G01 X38.9899 Y47.4344 
G01 X39.9767 Y48.4212 
G01 X40.0286 Y48.4731 
G01 X40.0921 Y48.5098 
G01 X40.1629 Y48.5287 
G01 X40.2363 Y48.5287 
G01 X40.2570 Y48.5232 
G01 X41.7344 Y48.5232 
G01 X41.8093 Y48.5981 
G01 X41.8093 Y50.0119 
G01 X41.7344 Y50.0868 
G01 X40.3206 Y50.0868 
G01 X40.2031 Y49.9693 
G01 X40.1900 Y49.9467 
G01 X40.1382 Y49.8949 
G01 X40.0746 Y49.8582 
G01 X40.0038 Y49.8392 
G01 X39.9987 Y49.8392 
G01 X39.8024 Y49.7579 
G01 X39.6389 Y49.5943 
G01 X37.9471 Y47.9026 
G01 X37.8658 Y47.7063 
G01 X37.8658 Y40.8937 
G01 X37.9471 Y40.6974 
G01 X38.1106 Y40.5339 
G01 X40.5974 Y38.0471 
G00 Z3.0000 
G00 X40.6042 Y38.1145 
G01 Z-0.1100 F500.00 
G01 X38.1042 Y40.6145 F500.00 
G01 X38.0145 Y40.7042 
G01 X37.9510 Y40.8140 
G01 X37.9182 Y40.9366 
G01 X37.9182 Y47.6634 
G01 X37.9510 Y47.7860 
G01 X38.0145 Y47.8958 
G01 X39.7195 Y49.6008 
G01 X39.8092 Y49.6905 
G01 X39.9190 Y49.7540 
G01 X40.0416 Y49.7868 
G01 X40.2981 Y49.7868 
G01 X40.2981 Y49.9740 
G01 X40.3096 Y50.0017 
G01 X40.3308 Y50.0229 
G01 X40.3585 Y50.0344 
G01 X41.6965 Y50.0344 
G01 X41.7242 Y50.0229 
G01 X41.7454 Y50.0017 
G01 X41.7569 Y49.9740 
G01 X41.7569 Y48.6360 
G01 X41.7454 Y48.6083 
G01 X41.7242 Y48.5871 
G01 X41.6965 Y48.5756 
G01 X40.3585 Y48.5756 
G01 X40.3308 Y48.5871 
G01 X40.3096 Y48.6083 
G01 X40.2981 Y48.6360 
G01 X40.2981 Y48.8167 
G01 X38.8818 Y47.4004 
G01 X38.8818 Y41.1996 
G01 X41.0996 Y38.9818 
G01 X42.8634 Y38.9818 
G01 X42.9860 Y38.9490 
G01 X43.0958 Y38.8855 
G01 X43.1855 Y38.7958 
G01 X48.9756 Y33.0058 
G01 X50.6898 Y33.0058 
G01 X51.1216 Y33.4376 
G01 X51.8784 Y33.4376 
G01 X52.4136 Y32.9024 
G01 X52.4136 Y32.1456 
G01 X51.8784 Y31.6104 
G01 X51.1216 Y31.6104 
G01 X50.6898 Y32.0422 
G01 X48.7126 Y32.0422 
G01 X48.5900 Y32.0750 
G01 X48.4802 Y32.1385 
G01 X42.6004 Y38.0182 
G01 X40.8366 Y38.0182 
G01 X40.7140 Y38.0510 
G01 X40.6042 Y38.1145 
G00 Z3.0000 
G00 X40.7489 Y40.8524 
G01 Z-0.1100 F500.00 
G01 X40.7489 Y40.9556 F500.00 
G01 X40.3585 Y40.9556 
G01 X40.3308 Y40.9671 
G01 X40.3096 Y40.9883 
G01 X40.2981 Y41.0160 
G01 X40.2981 Y41.4064 
G01 X40.1949 Y41.4064 
G01 X40.1949 Y41.0075 
G01 X40.2071 Y40.9621 
G01 X40.2306 Y40.9213 
G01 X40.2638 Y40.8881 
G01 X40.3046 Y40.8646 
G01 X40.3500 Y40.8524 
G01 X40.7489 Y40.8524 
G00 Z3.0000 
G00 X41.3061 Y40.8524 
G01 Z-0.1100 F500.00 
G01 X41.7050 Y40.8524 F500.00 
G01 X41.7504 Y40.8646 
G01 X41.7912 Y40.8881 
G01 X41.8244 Y40.9213 
G01 X41.8479 Y40.9621 
G01 X41.8601 Y41.0075 
G01 X41.8601 Y41.4064 
G01 X41.7569 Y41.4064 
G01 X41.7569 Y41.0160 
G01 X41.7454 Y40.9883 
G01 X41.7242 Y40.9671 
G01 X41.6965 Y40.9556 
G01 X41.3061 Y40.9556 
G01 X41.3061 Y40.8524 
G00 Z3.0000 
G00 X41.3061 Y42.4144 
G01 Z-0.1100 F500.00 
G01 X41.6965 Y42.4144 F500.00 
G01 X41.7242 Y42.4029 
G01 X41.7454 Y42.3817 
G01 X41.7569 Y42.3540 
G01 X41.7569 Y41.9636 
G01 X41.8601 Y41.9636 
G01 X41.8601 Y42.3625 
G01 X41.8479 Y42.4079 
G01 X41.8244 Y42.4487 
G01 X41.7912 Y42.4819 
G01 X41.7504 Y42.5054 
G01 X41.7050 Y42.5176 
G01 X41.3061 Y42.5176 
G01 X41.3061 Y42.4144 
G00 Z3.0000 
G00 X40.7489 Y42.4144 
G01 Z-0.1100 F500.00 
G01 X40.7489 Y42.5176 F500.00 
G01 X40.3500 Y42.5176 
G01 X40.3046 Y42.5054 
G01 X40.2638 Y42.4819 
G01 X40.2306 Y42.4487 
G01 X40.2071 Y42.4079 
G01 X40.1949 Y42.3625 
G01 X40.1949 Y41.9636 
G01 X40.2981 Y41.9636 
G01 X40.2981 Y42.3540 
G01 X40.3096 Y42.3817 
G01 X40.3308 Y42.4029 
G01 X40.3585 Y42.4144 
G01 X40.7489 Y42.4144 
G00 Z3.0000 
G00 X40.8720 Y43.4432 
G01 Z-0.1100 F500.00 
G01 X41.1830 Y43.4432 F500.00 
G01 X41.4703 Y43.5622 
G01 X41.6903 Y43.7821 
G01 X41.8093 Y44.0695 
G01 X41.8093 Y44.3805 
G01 X41.6903 Y44.6678 
G01 X41.4703 Y44.8878 
G01 X41.1830 Y45.0068 
G01 X40.8720 Y45.0068 
G01 X40.5846 Y44.8878 
G01 X40.3647 Y44.6678 
G01 X40.2457 Y44.3805 
G01 X40.2457 Y44.0695 
G01 X40.3647 Y43.7821 
G01 X40.5846 Y43.5622 
G01 X40.8720 Y43.4432 
G00 Z3.0000 
G00 X40.9557 Y43.4956 
G01 Z-0.1100 F500.00 
G01 X40.8147 Y43.5236 F500.00 
G01 X40.6820 Y43.5786 
G01 X40.5625 Y43.6584 
G01 X40.4609 Y43.7600 
G01 X40.3811 Y43.8795 
G01 X40.3261 Y44.0122 
G01 X40.2981 Y44.1532 
G01 X40.2981 Y44.2968 
G01 X40.3261 Y44.4378 
G01 X40.3811 Y44.5705 
G01 X40.4609 Y44.6900 
G01 X40.5625 Y44.7916 
G01 X40.6820 Y44.8714 
G01 X40.8147 Y44.9264 
G01 X40.9557 Y44.9544 
G01 X41.0993 Y44.9544 
G01 X41.2403 Y44.9264 
G01 X41.3730 Y44.8714 
G01 X41.4925 Y44.7916 
G01 X41.5941 Y44.6900 
G01 X41.6739 Y44.5705 
G01 X41.7289 Y44.4378 
G01 X41.7569 Y44.2968 
G01 X41.7569 Y44.1532 
G01 X41.7289 Y44.0122 
G01 X41.6739 Y43.8795 
G01 X41.5941 Y43.7600 
G01 X41.4925 Y43.6584 
G01 X41.3730 Y43.5786 
G01 X41.2403 Y43.5236 
G01 X41.0993 Y43.4956 
G01 X40.9557 Y43.4956 
G00 Z3.0000 
G00 X43.1246 Y43.5622 
G01 Z-0.1100 F500.00 
G01 X43.4120 Y43.4432 F500.00 
G01 X43.7230 Y43.4432 
G01 X44.0103 Y43.5622 
G01 X44.0583 Y43.6101 
G01 X44.1128 Y43.6416 
G01 X44.1218 Y43.6468 
G01 X44.1555 Y43.6558 
G01 X44.1926 Y43.6658 
G01 X45.0000 Y43.6658 
G01 X45.0709 Y43.6468 
G01 X45.1344 Y43.6101 
G01 X48.6583 Y40.0863 
G01 X48.7101 Y40.0344 
G01 X48.7468 Y39.9709 
G01 X48.7658 Y39.9000 
G01 X48.7658 Y38.1937 
G01 X48.8471 Y37.9974 
G01 X49.0106 Y37.8339 
G01 X49.6934 Y37.1511 
G01 X49.8897 Y37.0698 
G01 X50.5894 Y37.0698 
G01 X50.6602 Y37.0508 
G01 X50.7237 Y37.0141 
G01 X50.7756 Y36.9623 
G01 X51.0999 Y36.6380 
G01 X51.9001 Y36.6380 
G01 X52.4660 Y37.2039 
G01 X52.4660 Y38.0041 
G01 X51.9001 Y38.5700 
G01 X51.0999 Y38.5700 
G01 X50.7756 Y38.2457 
G01 X50.7237 Y38.1939 
G01 X50.6602 Y38.1572 
G01 X50.5894 Y38.1382 
G01 X50.2960 Y38.1382 
G01 X50.2251 Y38.1572 
G01 X50.1616 Y38.1939 
G01 X49.8899 Y38.4656 
G01 X49.8532 Y38.5291 
G01 X49.8342 Y38.6000 
G01 X49.8342 Y40.3063 
G01 X49.7529 Y40.5026 
G01 X45.8180 Y44.4375 
G01 X45.6026 Y44.6529 
G01 X45.4063 Y44.7342 
G01 X44.2426 Y44.7342 
G01 X44.2229 Y44.7395 
G01 X44.1718 Y44.7532 
G01 X44.1083 Y44.7899 
G01 X44.0564 Y44.8417 
G01 X44.0104 Y44.8878 
G01 X43.7230 Y45.0068 
G01 X43.4120 Y45.0068 
G01 X43.1246 Y44.8878 
G01 X42.9047 Y44.6678 
G01 X42.7857 Y44.3805 
G01 X42.7857 Y44.0695 
G01 X42.9047 Y43.7821 
G01 X43.1246 Y43.5622 
G00 Z3.0000 
G00 X43.2220 Y43.5786 
G01 Z-0.1100 F500.00 
G01 X43.1025 Y43.6584 F500.00 
G01 X43.0009 Y43.7600 
G01 X42.9211 Y43.8795 
G01 X42.8661 Y44.0122 
G01 X42.8381 Y44.1532 
G01 X42.8381 Y44.2968 
G01 X42.8661 Y44.4378 
G01 X42.9211 Y44.5705 
G01 X43.0009 Y44.6900 
G01 X43.1025 Y44.7916 
G01 X43.2220 Y44.8714 
G01 X43.3547 Y44.9264 
G01 X43.4957 Y44.9544 
G01 X43.6393 Y44.9544 
G01 X43.7803 Y44.9264 
G01 X43.9130 Y44.8714 
G01 X44.0325 Y44.7916 
G01 X44.1341 Y44.6900 
G01 X44.1395 Y44.6818 
G01 X45.3634 Y44.6818 
G01 X45.4860 Y44.6490 
G01 X45.5958 Y44.5855 
G01 X45.6855 Y44.4958 
G01 X49.6855 Y40.4958 
G01 X49.7490 Y40.3860 
G01 X49.7818 Y40.2634 
G01 X49.7818 Y38.4996 
G01 X50.1956 Y38.0858 
G01 X50.6898 Y38.0858 
G01 X51.1216 Y38.5176 
G01 X51.8784 Y38.5176 
G01 X52.4136 Y37.9824 
G01 X52.4136 Y37.2256 
G01 X51.8784 Y36.6904 
G01 X51.1216 Y36.6904 
G01 X50.6898 Y37.1222 
G01 X49.9326 Y37.1222 
G01 X49.8100 Y37.1550 
G01 X49.7002 Y37.2185 
G01 X49.0042 Y37.9145 
G01 X48.9145 Y38.0042 
G01 X48.8510 Y38.1140 
G01 X48.8182 Y38.2366 
G01 X48.8182 Y40.0004 
G01 X45.1004 Y43.7182 
G01 X44.0922 Y43.7182 
G01 X44.0325 Y43.6584 
G01 X43.9130 Y43.5786 
G01 X43.7803 Y43.5236 
G01 X43.6393 Y43.4956 
G01 X43.4957 Y43.4956 
G01 X43.3547 Y43.5236 
G01 X43.2220 Y43.5786 
G00 Z3.0000 
G00 X43.2220 Y42.3314 
G01 Z-0.1100 F500.00 
G01 X43.3547 Y42.3864 F500.00 
G01 X43.4957 Y42.4144 
G01 X43.6393 Y42.4144 
G01 X43.7803 Y42.3864 
G01 X43.9130 Y42.3314 
G01 X44.0325 Y42.2516 
G01 X44.1341 Y42.1500 
G01 X44.2139 Y42.0305 
G01 X44.2689 Y41.8978 
G01 X44.2969 Y41.7568 
G01 X44.2969 Y41.6132 
G01 X44.2689 Y41.4722 
G01 X44.2139 Y41.3395 
G01 X44.1341 Y41.2200 
G01 X44.0493 Y41.1353 
G01 X44.0493 Y41.0321 
G01 X49.5356 Y35.5458 
G01 X50.6898 Y35.5458 
G01 X51.1216 Y35.9776 
G01 X51.8784 Y35.9776 
G01 X52.4136 Y35.4424 
G01 X52.4136 Y34.6856 
G01 X51.8784 Y34.1504 
G01 X51.1216 Y34.1504 
G01 X50.6898 Y34.5822 
G01 X49.2726 Y34.5822 
G01 X49.1500 Y34.6150 
G01 X49.0402 Y34.6785 
G01 X43.2717 Y40.4470 
G01 X43.1820 Y40.5367 
G01 X43.1185 Y40.6465 
G01 X43.0857 Y40.7691 
G01 X43.0857 Y41.1353 
G01 X43.0009 Y41.2200 
G01 X42.9211 Y41.3395 
G01 X42.8661 Y41.4722 
G01 X42.8381 Y41.6132 
G01 X42.8381 Y41.7568 
G01 X42.8661 Y41.8978 
G01 X42.9211 Y42.0305 
G01 X43.0009 Y42.1500 
G01 X43.1025 Y42.2516 
G01 X43.2220 Y42.3314 
G00 Z3.0000 
G00 X43.1246 Y42.3478 
G01 Z-0.1100 F500.00 
G01 X42.9047 Y42.1278 F500.00 
G01 X42.7857 Y41.8405 
G01 X42.7857 Y41.5295 
G01 X42.9047 Y41.2422 
G01 X42.9258 Y41.2211 
G01 X42.9776 Y41.1692 
G01 X43.0053 Y41.1213 
G01 X43.0143 Y41.1057 
G01 X43.0233 Y41.0720 
G01 X43.0333 Y41.0349 
G01 X43.0333 Y40.7262 
G01 X43.1146 Y40.5299 
G01 X43.2781 Y40.3664 
G01 X49.0334 Y34.6111 
G01 X49.2297 Y34.5298 
G01 X50.5894 Y34.5298 
G01 X50.6602 Y34.5108 
G01 X50.7237 Y34.4741 
G01 X50.7756 Y34.4223 
G01 X51.0999 Y34.0980 
G01 X51.9001 Y34.0980 
G01 X52.4660 Y34.6639 
G01 X52.4660 Y35.4641 
G01 X51.9001 Y36.0300 
G01 X51.0999 Y36.0300 
G01 X50.7756 Y35.7057 
G01 X50.7237 Y35.6539 
G01 X50.6602 Y35.6172 
G01 X50.5894 Y35.5982 
G01 X49.6360 Y35.5982 
G01 X49.5651 Y35.6172 
G01 X49.5016 Y35.6539 
G01 X44.2945 Y40.8610 
G01 X44.2765 Y40.8789 
G01 X44.2678 Y40.8856 
G01 X44.2609 Y40.8945 
G01 X44.2429 Y40.9126 
G01 X44.2300 Y40.9349 
G01 X44.2231 Y40.9438 
G01 X44.2187 Y40.9544 
G01 X44.2062 Y40.9761 
G01 X44.1996 Y41.0005 
G01 X44.1950 Y41.0116 
G01 X44.1934 Y41.0237 
G01 X44.1872 Y41.0470 
G01 X44.1872 Y41.0714 
G01 X44.1855 Y41.0843 
G01 X44.1872 Y41.0975 
G01 X44.1872 Y41.1203 
G01 X44.1931 Y41.1426 
G01 X44.1950 Y41.1571 
G01 X44.2007 Y41.1707 
G01 X44.2062 Y41.1912 
G01 X44.2169 Y41.2098 
G01 X44.3493 Y41.5295 
G01 X44.3493 Y41.8405 
G01 X44.2303 Y42.1278 
G01 X44.0103 Y42.3478 
G01 X43.7230 Y42.4668 
G01 X43.4120 Y42.4668 
G01 X43.1246 Y42.3478 
G00 Z3.0000 
G00 X43.1246 Y46.1022 
G01 Z-0.1100 F500.00 
G01 X43.4120 Y45.9832 F500.00 
G01 X43.7230 Y45.9832 
G01 X44.0103 Y46.1022 
G01 X44.2303 Y46.3221 
G01 X44.3493 Y46.6095 
G01 X44.3493 Y46.9205 
G01 X44.2303 Y47.2078 
G01 X44.0103 Y47.4278 
G01 X43.7230 Y47.5468 
G01 X43.4120 Y47.5468 
G01 X43.1246 Y47.4278 
G01 X42.9047 Y47.2078 
G01 X42.7857 Y46.9205 
G01 X42.7857 Y46.6095 
G01 X42.9047 Y46.3221 
G01 X43.1246 Y46.1022 
G00 Z3.0000 
G00 X43.2220 Y46.1186 
G01 Z-0.1100 F500.00 
G01 X43.1025 Y46.1984 F500.00 
G01 X43.0009 Y46.3000 
G01 X42.9211 Y46.4195 
G01 X42.8661 Y46.5522 
G01 X42.8381 Y46.6932 
G01 X42.8381 Y46.8368 
G01 X42.8661 Y46.9778 
G01 X42.9211 Y47.1105 
G01 X43.0009 Y47.2300 
G01 X43.1025 Y47.3316 
G01 X43.2220 Y47.4114 
G01 X43.3547 Y47.4664 
G01 X43.4957 Y47.4944 
G01 X43.6393 Y47.4944 
G01 X43.7803 Y47.4664 
G01 X43.9130 Y47.4114 
G01 X44.0325 Y47.3316 
G01 X44.1341 Y47.2300 
G01 X44.2139 Y47.1105 
G01 X44.2689 Y46.9778 
G01 X44.2969 Y46.8368 
G01 X44.2969 Y46.6932 
G01 X44.2689 Y46.5522 
G01 X44.2139 Y46.4195 
G01 X44.1341 Y46.3000 
G01 X44.0325 Y46.1984 
G01 X43.9130 Y46.1186 
G01 X43.7803 Y46.0636 
G01 X43.6393 Y46.0356 
G01 X43.4957 Y46.0356 
G01 X43.3547 Y46.0636 
G01 X43.2220 Y46.1186 
G00 Z3.0000 
G00 X41.6903 Y46.3221 
G01 Z-0.1100 F500.00 
G01 X41.8093 Y46.6095 F500.00 
G01 X41.8093 Y46.9205 
G01 X41.6903 Y47.2078 
G01 X41.4703 Y47.4278 
G01 X41.1830 Y47.5468 
G01 X40.8720 Y47.5468 
G01 X40.5846 Y47.4278 
G01 X40.3647 Y47.2078 
G01 X40.2457 Y46.9205 
G01 X40.2457 Y46.6095 
G01 X40.3647 Y46.3221 
G01 X40.5846 Y46.1022 
G01 X40.8720 Y45.9832 
G01 X41.1830 Y45.9832 
G01 X41.4703 Y46.1022 
G01 X41.6903 Y46.3221 
G00 Z3.0000 
G00 X41.6739 Y46.4195 
G01 Z-0.1100 F500.00 
G01 X41.5941 Y46.3000 F500.00 
G01 X41.4925 Y46.1984 
G01 X41.3730 Y46.1186 
G01 X41.2403 Y46.0636 
G01 X41.0993 Y46.0356 
G01 X40.9557 Y46.0356 
G01 X40.8147 Y46.0636 
G01 X40.6820 Y46.1186 
G01 X40.5625 Y46.1984 
G01 X40.4609 Y46.3000 
G01 X40.3811 Y46.4195 
G01 X40.3261 Y46.5522 
G01 X40.2981 Y46.6932 
G01 X40.2981 Y46.8368 
G01 X40.3261 Y46.9778 
G01 X40.3811 Y47.1105 
G01 X40.4609 Y47.2300 
G01 X40.5625 Y47.3316 
G01 X40.6820 Y47.4114 
G01 X40.8147 Y47.4664 
G01 X40.9557 Y47.4944 
G01 X41.0993 Y47.4944 
G01 X41.2403 Y47.4664 
G01 X41.3730 Y47.4114 
G01 X41.4925 Y47.3316 
G01 X41.5941 Y47.2300 
G01 X41.6739 Y47.1105 
G01 X41.7289 Y46.9778 
G01 X41.7569 Y46.8368 
G01 X41.7569 Y46.6932 
G01 X41.7289 Y46.5522 
G01 X41.6739 Y46.4195 
G00 Z3.0000 
G00 X43.1246 Y48.6422 
G01 Z-0.1100 F500.00 
G01 X43.4120 Y48.5232 F500.00 
G01 X43.7230 Y48.5232 
G01 X44.0104 Y48.6422 
G01 X44.2303 Y48.8621 
G01 X44.3493 Y49.1495 
G01 X44.3493 Y49.4605 
G01 X44.2303 Y49.7478 
G01 X44.1617 Y49.8164 
G01 X44.1099 Y49.8683 
G01 X44.0732 Y49.9318 
G01 X44.0591 Y49.9845 
G01 X44.0542 Y50.0026 
G01 X44.0542 Y54.0509 
G01 X44.0732 Y54.1218 
G01 X44.1099 Y54.1853 
G01 X44.1617 Y54.2372 
G01 X44.4897 Y54.5651 
G01 X44.6638 Y54.9855 
G01 X44.6638 Y55.4405 
G01 X44.4897 Y55.8609 
G01 X44.1679 Y56.1827 
G01 X43.8356 Y56.3203 
G01 X43.8248 Y56.3226 
G01 X43.8018 Y56.3343 
G01 X43.7781 Y56.3441 
G01 X43.7693 Y56.3509 
G01 X43.7594 Y56.3559 
G01 X43.7403 Y56.3732 
G01 X43.7199 Y56.3888 
G01 X43.7131 Y56.3976 
G01 X43.7049 Y56.4050 
G01 X43.6909 Y56.4266 
G01 X43.6752 Y56.4470 
G01 X43.6710 Y56.4572 
G01 X43.6649 Y56.4665 
G01 X43.6570 Y56.4910 
G01 X43.6472 Y56.5148 
G01 X43.6457 Y56.5257 
G01 X43.6423 Y56.5363 
G01 X43.6409 Y56.5620 
G01 X43.6376 Y56.5875 
G01 X43.6390 Y56.5985 
G01 X43.6384 Y56.6095 
G01 X43.6438 Y56.6347 
G01 X43.6472 Y56.6602 
G01 X43.6514 Y56.6705 
G01 X43.6537 Y56.6813 
G01 X43.6654 Y56.7042 
G01 X43.6752 Y56.7280 
G01 X43.6820 Y56.7368 
G01 X43.6870 Y56.7467 
G01 X43.7042 Y56.7658 
G01 X43.7199 Y56.7862 
G01 X43.7287 Y56.7929 
G01 X43.7361 Y56.8012 
G01 X43.7577 Y56.8152 
G01 X43.7781 Y56.8308 
G01 X43.7883 Y56.8351 
G01 X43.7976 Y56.8411 
G01 X43.8221 Y56.8491 
G01 X43.8458 Y56.8589 
G01 X43.8568 Y56.8604 
G01 X43.9786 Y56.8999 
G01 X44.1461 Y56.9853 
G01 X44.2982 Y57.0958 
G01 X44.4312 Y57.2288 
G01 X44.5417 Y57.3809 
G01 X44.6271 Y57.5484 
G01 X44.6690 Y57.6776 
G01 X44.5605 Y57.6776 
G01 X44.5314 Y57.5880 
G01 X44.4534 Y57.4350 
G01 X44.3525 Y57.2960 
G01 X44.2310 Y57.1745 
G01 X44.0920 Y57.0735 
G01 X43.9389 Y56.9956 
G01 X43.7756 Y56.9425 
G01 X43.6059 Y56.9156 
G01 X43.4341 Y56.9156 
G01 X43.2644 Y56.9425 
G01 X43.1010 Y56.9956 
G01 X42.9480 Y57.0735 
G01 X42.8090 Y57.1745 
G01 X42.6875 Y57.2960 
G01 X42.5866 Y57.4350 
G01 X42.5086 Y57.5880 
G01 X42.4795 Y57.6776 
G01 X42.3709 Y57.6776 
G01 X42.4129 Y57.5484 
G01 X42.4983 Y57.3809 
G01 X42.6088 Y57.2288 
G01 X42.7418 Y57.0958 
G01 X42.8939 Y56.9853 
G01 X43.0614 Y56.8999 
G01 X43.1832 Y56.8604 
G01 X43.1941 Y56.8589 
G01 X43.2179 Y56.8491 
G01 X43.2424 Y56.8411 
G01 X43.2517 Y56.8351 
G01 X43.2619 Y56.8308 
G01 X43.2823 Y56.8152 
G01 X43.3039 Y56.8012 
G01 X43.3113 Y56.7929 
G01 X43.3201 Y56.7862 
G01 X43.3358 Y56.7658 
G01 X43.3530 Y56.7467 
G01 X43.3580 Y56.7368 
G01 X43.3648 Y56.7280 
G01 X43.3746 Y56.7042 
G01 X43.3863 Y56.6813 
G01 X43.3886 Y56.6705 
G01 X43.3928 Y56.6602 
G01 X43.3962 Y56.6347 
G01 X43.4016 Y56.6095 
G01 X43.4010 Y56.5985 
G01 X43.4024 Y56.5875 
G01 X43.3991 Y56.5620 
G01 X43.3977 Y56.5363 
G01 X43.3943 Y56.5257 
G01 X43.3928 Y56.5148 
G01 X43.3830 Y56.4910 
G01 X43.3750 Y56.4665 
G01 X43.3690 Y56.4572 
G01 X43.3648 Y56.4470 
G01 X43.3491 Y56.4266 
G01 X43.3351 Y56.4050 
G01 X43.3269 Y56.3976 
G01 X43.3201 Y56.3888 
G01 X43.2997 Y56.3732 
G01 X43.2806 Y56.3559 
G01 X43.2707 Y56.3509 
G01 X43.2619 Y56.3441 
G01 X43.2382 Y56.3343 
G01 X43.2152 Y56.3226 
G01 X43.2044 Y56.3203 
G01 X42.8721 Y56.1827 
G01 X42.6312 Y55.9417 
G01 X42.5793 Y55.8899 
G01 X42.5158 Y55.8532 
G01 X42.4449 Y55.8342 
G01 X14.5937 Y55.8342 
G01 X14.3974 Y55.7529 
G01 X14.2339 Y55.5893 
G01 X12.7671 Y54.1226 
G01 X12.6858 Y53.9263 
G01 X12.6858 Y53.6582 
G01 X12.6858 Y53.5849 
G01 X12.6668 Y53.5140 
G01 X12.6301 Y53.4505 
G01 X12.4657 Y53.2860 
G01 X12.3302 Y52.9590 
G01 X12.3302 Y51.0810 
G01 X12.4657 Y50.7540 
G01 X12.7160 Y50.5037 
G01 X13.0430 Y50.3682 
G01 X13.3970 Y50.3682 
G01 X13.7240 Y50.5037 
G01 X13.9743 Y50.7540 
G01 X14.1098 Y51.0810 
G01 X14.1098 Y52.9590 
G01 X13.9743 Y53.2860 
G01 X13.9309 Y53.3295 
G01 X13.8790 Y53.3814 
G01 X13.8423 Y53.4449 
G01 X13.8282 Y53.4976 
G01 X13.8233 Y53.5158 
G01 X13.8233 Y53.5891 
G01 X13.8423 Y53.6600 
G01 X13.8790 Y53.7235 
G01 X14.8137 Y54.6583 
G01 X14.8656 Y54.7101 
G01 X14.9291 Y54.7468 
G01 X15.0000 Y54.7658 
G01 X42.2628 Y54.7658 
G01 X42.2811 Y54.7682 
G01 X42.2993 Y54.7658 
G01 X42.3177 Y54.7658 
G01 X42.3355 Y54.7610 
G01 X42.3538 Y54.7586 
G01 X42.3708 Y54.7516 
G01 X42.3886 Y54.7468 
G01 X42.4045 Y54.7376 
G01 X42.4216 Y54.7306 
G01 X42.4362 Y54.7193 
G01 X42.4521 Y54.7101 
G01 X42.4651 Y54.6971 
G01 X42.4797 Y54.6859 
G01 X42.4909 Y54.6713 
G01 X42.5040 Y54.6583 
G01 X42.5132 Y54.6423 
G01 X42.5244 Y54.6277 
G01 X42.5314 Y54.6107 
G01 X42.5407 Y54.5947 
G01 X42.5454 Y54.5769 
G01 X42.5503 Y54.5651 
G01 X42.8783 Y54.2372 
G01 X42.9301 Y54.1853 
G01 X42.9668 Y54.1218 
G01 X42.9858 Y54.0509 
G01 X42.9858 Y49.9076 
G01 X42.9767 Y49.8738 
G01 X42.9668 Y49.8368 
G01 X42.9301 Y49.7733 
G01 X42.9047 Y49.7478 
G01 X42.7857 Y49.4605 
G01 X42.7857 Y49.1495 
G01 X42.9047 Y48.8621 
G01 X43.1246 Y48.6422 
G00 Z3.0000 
G00 X43.2220 Y48.6586 
G01 Z-0.1100 F500.00 
G01 X43.1025 Y48.7384 F500.00 
G01 X43.0009 Y48.8400 
G01 X42.9211 Y48.9595 
G01 X42.8661 Y49.0922 
G01 X42.8381 Y49.2332 
G01 X42.8381 Y49.3768 
G01 X42.8661 Y49.5178 
G01 X42.9211 Y49.6505 
G01 X43.0009 Y49.7700 
G01 X43.0382 Y49.8072 
G01 X43.0382 Y54.2336 
G01 X42.9480 Y54.2796 
G01 X42.8090 Y54.3805 
G01 X42.6875 Y54.5020 
G01 X42.5866 Y54.6410 
G01 X42.5086 Y54.7940 
G01 X42.5007 Y54.8182 
G01 X14.8996 Y54.8182 
G01 X13.7018 Y53.6204 
G01 X13.7018 Y53.4672 
G01 X13.7538 Y53.4325 
G01 X13.8704 Y53.3158 
G01 X13.9621 Y53.1787 
G01 X14.0252 Y53.0263 
G01 X14.0574 Y52.8645 
G01 X14.0574 Y51.1755 
G01 X14.0252 Y51.0137 
G01 X13.9621 Y50.8613 
G01 X13.8704 Y50.7242 
G01 X13.7538 Y50.6075 
G01 X13.6167 Y50.5159 
G01 X13.4643 Y50.4528 
G01 X13.3025 Y50.4206 
G01 X13.1375 Y50.4206 
G01 X12.9757 Y50.4528 
G01 X12.8233 Y50.5159 
G01 X12.6862 Y50.6075 
G01 X12.5695 Y50.7242 
G01 X12.4779 Y50.8613 
G01 X12.4148 Y51.0137 
G01 X12.3826 Y51.1755 
G01 X12.3826 Y52.8645 
G01 X12.4148 Y53.0263 
G01 X12.4779 Y53.1787 
G01 X12.5695 Y53.3158 
G01 X12.6862 Y53.4325 
G01 X12.7382 Y53.4672 
G01 X12.7382 Y53.8834 
G01 X12.7710 Y54.0060 
G01 X12.8345 Y54.1158 
G01 X14.3145 Y55.5958 
G01 X14.4042 Y55.6855 
G01 X14.5140 Y55.7490 
G01 X14.6366 Y55.7818 
G01 X42.5849 Y55.7818 
G01 X42.5866 Y55.7850 
G01 X42.6875 Y55.9240 
G01 X42.8090 Y56.0455 
G01 X42.9480 Y56.1464 
G01 X43.1010 Y56.2244 
G01 X43.2644 Y56.2775 
G01 X43.4341 Y56.3044 
G01 X43.6059 Y56.3044 
G01 X43.7756 Y56.2775 
G01 X43.9389 Y56.2244 
G01 X44.0920 Y56.1464 
G01 X44.2310 Y56.0455 
G01 X44.3525 Y55.9240 
G01 X44.4534 Y55.7850 
G01 X44.5314 Y55.6320 
G01 X44.5845 Y55.4686 
G01 X44.6114 Y55.2989 
G01 X44.6114 Y55.1271 
G01 X44.5845 Y54.9574 
G01 X44.5314 Y54.7940 
G01 X44.4534 Y54.6410 
G01 X44.3525 Y54.5020 
G01 X44.2310 Y54.3805 
G01 X44.0920 Y54.2796 
G01 X44.0018 Y54.2336 
G01 X44.0018 Y49.8920 
G01 X44.0325 Y49.8716 
G01 X44.1341 Y49.7700 
G01 X44.2139 Y49.6505 
G01 X44.2689 Y49.5178 
G01 X44.2969 Y49.3768 
G01 X44.2969 Y49.2332 
G01 X44.2689 Y49.0922 
G01 X44.2139 Y48.9595 
G01 X44.1341 Y48.8400 
G01 X44.0325 Y48.7384 
G01 X43.9130 Y48.6586 
G01 X43.7803 Y48.6036 
G01 X43.6393 Y48.5756 
G01 X43.4957 Y48.5756 
G01 X43.3547 Y48.6036 
G01 X43.2220 Y48.6586 
G00 Z3.0000 
G00 X50.5340 Y45.6241 
G01 Z-0.1100 F500.00 
G01 X50.5340 Y44.8239 F500.00 
G01 X51.0999 Y44.2580 
G01 X51.9001 Y44.2580 
G01 X52.4660 Y44.8239 
G01 X52.4660 Y45.6241 
G01 X51.9001 Y46.1900 
G01 X51.0999 Y46.1900 
G01 X50.5340 Y45.6241 
G00 Z3.0000 
G00 X50.5864 Y45.6024 
G01 Z-0.1100 F500.00 
G01 X51.1216 Y46.1376 F500.00 
G01 X51.8784 Y46.1376 
G01 X52.4136 Y45.6024 
G01 X52.4136 Y44.8456 
G01 X51.8784 Y44.3104 
G01 X51.1216 Y44.3104 
G01 X50.5864 Y44.8456 
G01 X50.5864 Y45.6024 
G00 Z3.0000 
G00 X51.0788 Y43.7008 
G01 Z-0.1100 F500.00 
G01 X50.4832 Y43.1052 F500.00 
G01 X50.4832 Y43.0094 
G01 X50.5864 Y43.0094 
G01 X50.5864 Y43.0624 
G01 X51.1216 Y43.5976 
G01 X51.1746 Y43.5976 
G01 X51.1746 Y43.7008 
G01 X51.0788 Y43.7008 
G00 Z3.0000 
G00 X51.8254 Y43.7008 
G01 Z-0.1100 F500.00 
G01 X51.8254 Y43.5976 F500.00 
G01 X51.8784 Y43.5976 
G01 X52.4136 Y43.0624 
G01 X52.4136 Y43.0094 
G01 X52.5168 Y43.0094 
G01 X52.5168 Y43.1052 
G01 X51.9212 Y43.7008 
G01 X51.8254 Y43.7008 
G00 Z3.0000 
G00 X51.8254 Y41.7704 
G01 Z-0.1100 F500.00 
G01 X51.8254 Y41.6672 F500.00 
G01 X51.9212 Y41.6672 
G01 X52.5168 Y42.2628 
G01 X52.5168 Y42.3586 
G01 X52.4136 Y42.3586 
G01 X52.4136 Y42.3056 
G01 X51.8784 Y41.7704 
G01 X51.8254 Y41.7704 
G00 Z3.0000 
G00 X51.1746 Y41.7704 
G01 Z-0.1100 F500.00 
G01 X51.1216 Y41.7704 F500.00 
