(.../pcb-gcode-3.6.2.4/pcb-gcode.ulp)
(Copyright 2005 - 2012 by John Johnson)
(See readme.txt for licensing terms.)
(This file generated from the board:)
(.../ELECTRONICS/e-garden/e-garden1/G1-4.brd)
(Current profile is .../pcb-gcode-3.6.2.4/profiles/generic.pp  )
(This file generated 1/11/17 5:26 PM)
(Settings from pcb-machine.h)
(spindle on time = 3.0000)
(spindle speed = 20000.0000)
(tool change at 0.0000 0.0000 20.4000 )
(feed rate xy = F0.00  )
(feed rate z  = F100.00 )
(Z Axis Settings)
(  High     Up        Down     Drill)
(12.0000 	3.0000 	-0.1100 	-2.0000 )
(Settings from pcb-defaults.h)
(isolate min = 0.0254)
(isolate max = 0.5080)
(isolate step = 0.1270)
(Generated top outlines, top drill, )
(Unit of measure: mm)
( Tool|       Size       |  Min Sub |  Max Sub |   Count )
( T01  0.800mm 0.0315in 0.0000in 0.0000in )
( T02  0.813mm 0.0320in 0.0000in 0.0000in )
( T03  0.900mm 0.0354in 0.0000in 0.0000in )
( T04  1.000mm 0.0394in 0.0000in 0.0000in )
( T05  1.016mm 0.0400in 0.0000in 0.0000in )
( T06  3.200mm 0.1260in 0.0000in 0.0000in )
( T07  3.302mm 0.1300in 0.0000in 0.0000in )
(Metric Mode)
G21
(Absolute Coordinates)
G90
S20000
G00 Z12.0000 
G00 X0.0000 Y0.0000 
M03
G04 P3.000000
M05
G00 Z20.4000 
M06 T01  ; 0.8000 
G01 Z0.0000 F100.00 
M06 
G00 Z3.0000 
M03
G04 P3.000000
G00 Z3.000000
G00 X41.0275 Y41.6850 
G01 Z-2.0000 F100.00 
G01 Z3.000000
(R3.0000  P1.000000)
G00 X41.0275 Y44.2250 
G01 Z-2.000000
G01 Z3.000000
G00 X41.0275 Y46.7650 
G01 Z-2.000000
G01 Z3.000000
G00 X41.0275 Y49.3050 
G01 Z-2.000000
G01 Z3.000000
G00 X43.5675 Y49.3050 
G01 Z-2.000000
G01 Z3.000000
G00 X43.5675 Y46.7650 
G01 Z-2.000000
G01 Z3.000000
G00 X43.5675 Y44.2250 
G01 Z-2.000000
G01 Z3.000000
G00 X43.5675 Y41.6850 
G01 Z-2.000000
G01 Z3.000000
M05
G00 Z20.4000 
G00 X0.0000 Y0.0000 
M06 T02  ; 0.8128 
G01 Z0.0000 F100.00 
M06 
G00 Z3.0000 
M03
G04 P3.000000
G00 Z3.000000
G00 X17.1900 Y13.7100 
G01 Z-2.0000 F100.00 
G01 Z3.000000
(R3.0000  P1.000000)
G00 X19.7300 Y13.7100 
G01 Z-2.000000
G01 Z3.000000
G00 X22.2700 Y13.7100 
G01 Z-2.000000
G01 Z3.000000
G00 X27.2700 Y22.4600 
G01 Z-2.000000
G01 Z3.000000
G00 X27.2700 Y25.0000 
G01 Z-2.000000
G01 Z3.000000
G00 X27.2700 Y27.5400 
G01 Z-2.000000
G01 Z3.000000
G00 X27.0300 Y29.7600 
G01 Z-2.000000
G01 Z3.000000
G00 X27.0300 Y32.3000 
G01 Z-2.000000
G01 Z3.000000
G00 X27.0300 Y34.8400 
G01 Z-2.000000
G01 Z3.000000
M05
G00 Z20.4000 
G00 X0.0000 Y0.0000 
M06 T03  ; 0.9000 
G01 Z0.0000 F100.00 
M06 
G00 Z3.0000 
M03
G04 P3.000000
G00 Z3.000000
G00 X5.5200 Y10.6000 
G01 Z-2.0000 F100.00 
G01 Z3.000000
(R3.0000  P1.000000)
G00 X15.6800 Y10.6000 
G01 Z-2.000000
G01 Z3.000000
G00 X33.8200 Y29.6000 
G01 Z-2.000000
G01 Z3.000000
G00 X33.8200 Y32.3000 
G01 Z-2.000000
G01 Z3.000000
G00 X43.9800 Y32.3000 
G01 Z-2.000000
G01 Z3.000000
G00 X43.9800 Y29.6000 
G01 Z-2.000000
G01 Z3.000000
G00 X47.5000 Y48.4200 
G01 Z-2.000000
G01 Z3.000000
G00 X47.5000 Y58.5800 
G01 Z-2.000000
G01 Z3.000000
M05
G00 Z20.4000 
G00 X0.0000 Y0.0000 
M06 T04  ; 1.0000 
G01 Z0.0000 F100.00 
M06 
G00 Z3.0000 
M03
G04 P3.000000
G00 Z3.000000
G00 X3.2400 Y5.6000 
G01 Z-2.0000 F100.00 
G01 Z3.000000
(R3.0000  P1.000000)
G00 X3.2400 Y8.1400 
G01 Z-2.000000
G01 Z3.000000
G00 X3.2400 Y10.6800 
G01 Z-2.000000
G01 Z3.000000
G00 X3.2400 Y13.2200 
G01 Z-2.000000
G01 Z3.000000
G00 X3.2400 Y15.7600 
G01 Z-2.000000
G01 Z3.000000
G00 X3.2400 Y18.3000 
G01 Z-2.000000
G01 Z3.000000
G00 X3.2400 Y23.3800 
G01 Z-2.000000
G01 Z3.000000
G00 X3.2400 Y25.9200 
G01 Z-2.000000
G01 Z3.000000
G00 X3.2400 Y28.4600 
G01 Z-2.000000
G01 Z3.000000
G00 X3.2400 Y31.0000 
G01 Z-2.000000
G01 Z3.000000
G00 X3.2400 Y33.5400 
G01 Z-2.000000
G01 Z3.000000
G00 X3.2400 Y36.0800 
G01 Z-2.000000
G01 Z3.000000
G00 X51.5000 Y35.0640 
G01 Z-2.000000
G01 Z3.000000
G00 X51.5000 Y32.5240 
G01 Z-2.000000
G01 Z3.000000
G00 X51.5000 Y29.9840 
G01 Z-2.000000
G01 Z3.000000
G00 X51.5000 Y27.4440 
G01 Z-2.000000
G01 Z3.000000
G00 X51.5000 Y23.3800 
G01 Z-2.000000
G01 Z3.000000
G00 X51.5000 Y20.8400 
G01 Z-2.000000
G01 Z3.000000
G00 X51.5000 Y18.3000 
G01 Z-2.000000
G01 Z3.000000
G00 X51.5000 Y15.7600 
G01 Z-2.000000
G01 Z3.000000
G00 X51.5000 Y13.2200 
G01 Z-2.000000
G01 Z3.000000
G00 X51.5000 Y10.6800 
G01 Z-2.000000
G01 Z3.000000
G00 X51.5000 Y8.1400 
G01 Z-2.000000
G01 Z3.000000
G00 X51.5000 Y5.6000 
G01 Z-2.000000
G01 Z3.000000
G00 X51.5000 Y37.6040 
G01 Z-2.000000
G01 Z3.000000
G00 X51.5000 Y40.1440 
G01 Z-2.000000
G01 Z3.000000
G00 X51.5000 Y42.6840 
G01 Z-2.000000
G01 Z3.000000
G00 X51.5000 Y45.2240 
G01 Z-2.000000
G01 Z3.000000
M05
G00 Z20.4000 
G00 X0.0000 Y0.0000 
M06 T05  ; 1.0160 
G01 Z0.0000 F100.00 
M06 
G00 Z3.0000 
M03
G04 P3.000000
G00 Z3.000000
G00 X7.4000 Y19.8600 
G01 Z-2.0000 F100.00 
G01 Z3.000000
(R3.0000  P1.000000)
G00 X7.4000 Y22.4000 
G01 Z-2.000000
G01 Z3.000000
G00 X7.4000 Y24.9400 
G01 Z-2.000000
G01 Z3.000000
G00 X11.8600 Y24.9100 
G01 Z-2.000000
G01 Z3.000000
G00 X11.8600 Y22.3700 
G01 Z-2.000000
G01 Z3.000000
G00 X11.8600 Y19.8300 
G01 Z-2.000000
G01 Z3.000000
G00 X16.2400 Y19.8700 
G01 Z-2.000000
G01 Z3.000000
G00 X16.2400 Y22.4100 
G01 Z-2.000000
G01 Z3.000000
G00 X16.2400 Y24.9500 
G01 Z-2.000000
G01 Z3.000000
G00 X21.0000 Y25.0000 
G01 Z-2.000000
G01 Z3.000000
G00 X21.0000 Y22.4600 
G01 Z-2.000000
G01 Z3.000000
G00 X25.9600 Y18.0000 
G01 Z-2.000000
G01 Z3.000000
G00 X28.5000 Y18.0000 
G01 Z-2.000000
G01 Z3.000000
G00 X27.8100 Y7.0000 
G01 Z-2.000000
G01 Z3.000000
G00 X25.2700 Y7.0000 
G01 Z-2.000000
G01 Z3.000000
G00 X22.7300 Y7.0000 
G01 Z-2.000000
G01 Z3.000000
G00 X20.1900 Y7.0000 
G01 Z-2.000000
G01 Z3.000000
G00 X17.6500 Y7.0000 
G01 Z-2.000000
G01 Z3.000000
G00 X30.3500 Y7.0000 
G01 Z-2.000000
G01 Z3.000000
G00 X40.4600 Y14.0000 
G01 Z-2.000000
G01 Z3.000000
G00 X43.0000 Y14.0000 
G01 Z-2.000000
G01 Z3.000000
G00 X45.5400 Y14.0000 
G01 Z-2.000000
G01 Z3.000000
G00 X45.5400 Y18.0000 
G01 Z-2.000000
G01 Z3.000000
G00 X43.0000 Y18.0000 
G01 Z-2.000000
G01 Z3.000000
G00 X40.4600 Y18.0000 
G01 Z-2.000000
G01 Z3.000000
G00 X40.4600 Y22.0000 
G01 Z-2.000000
G01 Z3.000000
G00 X43.0000 Y22.0000 
G01 Z-2.000000
G01 Z3.000000
G00 X45.5400 Y22.0000 
G01 Z-2.000000
G01 Z3.000000
G00 X45.5400 Y26.0000 
G01 Z-2.000000
G01 Z3.000000
G00 X43.0000 Y26.0000 
G01 Z-2.000000
G01 Z3.000000
G00 X40.4600 Y26.0000 
G01 Z-2.000000
G01 Z3.000000
G00 X21.0000 Y31.0000 
G01 Z-2.000000
G01 Z3.000000
G00 X21.0000 Y33.5400 
G01 Z-2.000000
G01 Z3.000000
G00 X15.7600 Y52.0200 
G01 Z-2.000000
G01 Z3.000000
G00 X13.2200 Y52.0200 
G01 Z-2.000000
G01 Z3.000000
G00 X10.6800 Y52.0200 
G01 Z-2.000000
G01 Z3.000000
G00 X43.5200 Y55.2130 
G01 Z-2.000000
G01 Z3.000000
G00 X43.5200 Y58.0070 
G01 Z-2.000000
G01 Z3.000000
G00 X47.5000 Y64.5000 
G01 Z-2.000000
G01 Z3.000000
G00 X50.0400 Y64.5000 
G01 Z-2.000000
G01 Z3.000000
M05
G00 Z20.4000 
G00 X0.0000 Y0.0000 
M06 T06  ; 3.2000 
G01 Z0.0000 F100.00 
M06 
G00 Z3.0000 
M03
G04 P3.000000
G00 Z3.000000
G00 X3.2400 Y55.1300 
G01 Z-2.0000 F100.00 
G01 Z3.000000
(R3.0000  P1.000000)
G00 X51.5000 Y53.8600 
G01 Z-2.000000
G01 Z3.000000
G00 X36.2600 Y3.0600 
G01 Z-2.000000
G01 Z3.000000
M05
G00 Z20.4000 
G00 X0.0000 Y0.0000 
M06 T07  ; 3.3020 
G01 Z0.0000 F100.00 
M06 
G00 Z3.0000 
M03
G04 P3.000000
G00 Z3.000000
G00 X13.2200 Y37.0340 
G01 Z-2.0000 F100.00 
G01 Z3.000000
(R3.0000  P1.000000)
T01 
G00 Z12.0000 
M05
M02
