(.../pcb-gcode-3.6.2.4/pcb-gcode.ulp)
(Copyright 2005 - 2012 by John Johnson)
(See readme.txt for licensing terms.)
(This file generated from the board:)
(.../ELECTRONICS/e-garden/e-garden1/G1-4.brd)
(Current profile is .../pcb-gcode-3.6.2.4/profiles/generic.pp  )
(This file generated 1/11/17 5:25 PM)
(Settings from pcb-machine.h)
(spindle on time = 3.0000)
(  Tool Size)
(0.1000 )
(spindle speed = 30000.0000)
(tool change at 0.0000 0.0000 20.4000 )
(feed rate xy = F500.00 )
(feed rate z  = F500.00 )
(Z Axis Settings)
(  High     Up        Down     Drill)
(12.0000 	3.0000 	-0.1100 	-2.0000 )
(Settings from pcb-defaults.h)
(isolate min = 0.0254)
(isolate max = 0.5080)
(isolate step = 0.1270)
(Generated top outlines, top drill, )
(Unit of measure: mm)
(Metric Mode)
G21
(Absolute Coordinates)
G90
S30000
G00 Z12.0000 
G00 X0.0000 Y0.0000 
M03
G04 P3.000000
G00 Z3.0000 
G00 X1.6148 Y1.9400 
G01 Z-0.1100 F500.00 
G01 X1.6148 Y1.9400 F500.00 
G01 X1.5962 Y1.9720 
G01 X1.5780 Y2.0034 
G01 X1.5680 Y2.0404 
G01 X1.5589 Y2.0743 
G01 X1.5588 Y2.1120 
G01 X1.5587 Y2.1476 
G01 X1.5284 Y22.9067 
G01 X1.5283 Y22.9436 
G01 X1.5283 Y22.9799 
G01 X1.5379 Y23.0161 
G01 X1.5471 Y23.0508 
G01 X1.5657 Y23.0830 
G01 X1.5837 Y23.1143 
G01 X1.6102 Y23.1409 
G01 X1.6355 Y23.1663 
G01 X1.6685 Y23.1854 
G01 X1.6990 Y23.2031 
G01 X1.7349 Y23.2127 
G01 X1.7698 Y23.2222 
G01 X1.8065 Y23.2222 
G01 X1.8432 Y23.2223 
G01 X1.8794 Y23.2126 
G01 X1.9141 Y23.2034 
G01 X1.9463 Y23.1849 
G01 X1.9777 Y23.1668 
G01 X2.0042 Y23.1403 
G01 X2.0296 Y23.1150 
G01 X2.2174 Y22.9271 
G01 X2.3360 Y22.8780 
G01 X2.3538 Y22.8732 
G01 X2.3697 Y22.8640 
G01 X2.3867 Y22.8570 
G01 X2.4014 Y22.8458 
G01 X2.4173 Y22.8366 
G01 X2.4303 Y22.8235 
G01 X2.4449 Y22.8123 
G01 X2.4562 Y22.7977 
G01 X2.8399 Y22.4140 
G01 X3.6401 Y22.4140 
G01 X4.2060 Y22.9799 
G01 X4.2060 Y23.7801 
G01 X3.6401 Y24.3460 
G01 X2.8399 Y24.3460 
G01 X2.7457 Y24.2519 
G01 X2.6822 Y24.2152 
G01 X2.6586 Y24.2089 
G01 X2.6114 Y24.1962 
G01 X2.5380 Y24.1962 
G01 X2.4671 Y24.2152 
G01 X2.4036 Y24.2519 
G01 X2.3800 Y24.2754 
G01 X2.3517 Y24.3037 
G01 X2.1417 Y24.5137 
G01 X2.0899 Y24.5656 
G01 X2.0532 Y24.6291 
G01 X2.0342 Y24.7000 
G01 X2.0342 Y25.0519 
G01 X2.0532 Y25.1228 
G01 X2.0899 Y25.1863 
G01 X2.1409 Y25.2374 
G01 X2.2053 Y25.2748 
G01 X2.2761 Y25.2938 
G01 X2.3495 Y25.2938 
G01 X2.4203 Y25.2748 
G01 X2.4839 Y25.2382 
G01 X2.5357 Y25.1863 
G01 X2.8188 Y24.9032 
G01 X2.9146 Y24.9032 
G01 X2.9146 Y25.0064 
G01 X2.8616 Y25.0064 
G01 X2.3264 Y25.5416 
G01 X2.3264 Y26.2984 
G01 X2.8616 Y26.8336 
G01 X2.9146 Y26.8336 
G01 X2.9146 Y27.5464 
G01 X2.8616 Y27.5464 
G01 X2.3264 Y28.0816 
G01 X2.3264 Y28.8384 
G01 X2.8616 Y29.3736 
G01 X2.9146 Y29.3736 
G01 X2.9146 Y29.4768 
G01 X2.8188 Y29.4768 
G01 X2.5357 Y29.1937 
G01 X2.4839 Y29.1418 
G01 X2.4203 Y29.1051 
G01 X2.3495 Y29.0862 
G01 X2.2761 Y29.0862 
G01 X2.2053 Y29.1051 
G01 X2.1417 Y29.1418 
G01 X2.0899 Y29.1937 
G01 X2.0532 Y29.2572 
G01 X2.0342 Y29.3281 
G01 X2.0342 Y30.2038 
G01 X2.0532 Y30.2746 
G01 X2.0899 Y30.3381 
G01 X2.1409 Y30.3892 
G01 X2.2053 Y30.4267 
G01 X2.2761 Y30.4457 
G01 X2.3495 Y30.4457 
G01 X2.4203 Y30.4267 
G01 X2.4839 Y30.3900 
G01 X2.5357 Y30.3381 
G01 X2.8399 Y30.0340 
G01 X3.6401 Y30.0340 
G01 X3.8524 Y30.2463 
G01 X3.9043 Y30.2981 
G01 X3.9678 Y30.3348 
G01 X4.0386 Y30.3538 
G01 X4.1120 Y30.3538 
G01 X4.1829 Y30.3348 
G01 X4.2464 Y30.2981 
G01 X6.7583 Y27.7863 
G01 X6.8101 Y27.7344 
G01 X6.8468 Y27.6709 
G01 X6.8658 Y27.6000 
G01 X6.8658 Y25.8506 
G01 X6.8605 Y25.8309 
G01 X6.8468 Y25.7798 
G01 X6.8101 Y25.7163 
G01 X6.7583 Y25.6644 
G01 X6.5811 Y25.4872 
G01 X6.4340 Y25.1321 
G01 X6.4340 Y24.7478 
G01 X6.5811 Y24.3928 
G01 X6.8528 Y24.1211 
G01 X7.2078 Y23.9740 
G01 X7.5922 Y23.9740 
G01 X7.9472 Y24.1211 
G01 X8.1244 Y24.2983 
G01 X8.1763 Y24.3501 
G01 X8.2398 Y24.3868 
G01 X8.2925 Y24.4009 
G01 X8.3106 Y24.4058 
G01 X10.9193 Y24.4058 
G01 X10.9902 Y24.3868 
G01 X11.0537 Y24.3501 
G01 X11.1056 Y24.2983 
G01 X11.3128 Y24.0911 
G01 X11.6678 Y23.9440 
G01 X12.0521 Y23.9440 
G01 X12.4072 Y24.0911 
G01 X12.5844 Y24.2683 
G01 X12.6363 Y24.3201 
G01 X12.6998 Y24.3568 
G01 X12.7525 Y24.3709 
G01 X12.7706 Y24.3758 
G01 X15.3694 Y24.3758 
G01 X15.3891 Y24.3705 
G01 X15.4402 Y24.3568 
G01 X15.5037 Y24.3201 
G01 X15.5556 Y24.2683 
G01 X15.6928 Y24.1311 
G01 X16.0478 Y23.9840 
G01 X16.3718 Y23.9840 
G01 X16.4279 Y23.9690 
G01 X16.4427 Y23.9650 
G01 X16.5062 Y23.9283 
G01 X16.5567 Y23.8778 
G01 X16.6089 Y23.8257 
G01 X16.6455 Y23.7621 
G01 X16.6570 Y23.7194 
G01 X16.6645 Y23.6913 
G01 X16.6645 Y23.6179 
G01 X16.6491 Y23.5602 
G01 X16.6455 Y23.5471 
G01 X16.6089 Y23.4835 
G01 X16.5570 Y23.4317 
G01 X16.4935 Y23.3950 
G01 X16.4507 Y23.3835 
G01 X16.4226 Y23.3760 
G01 X16.0478 Y23.3760 
G01 X15.6928 Y23.2289 
G01 X15.4087 Y22.9448 
G01 X15.4069 Y22.9417 
G01 X15.3939 Y22.9287 
G01 X15.3826 Y22.9141 
G01 X15.3680 Y22.9029 
G01 X15.3550 Y22.8899 
G01 X15.3390 Y22.8806 
G01 X15.3244 Y22.8694 
G01 X15.3074 Y22.8624 
G01 X15.2915 Y22.8532 
G01 X15.2737 Y22.8484 
G01 X15.2566 Y22.8414 
G01 X15.2384 Y22.8390 
G01 X15.2206 Y22.8342 
G01 X15.2022 Y22.8342 
G01 X15.1839 Y22.8318 
G01 X15.1657 Y22.8342 
G01 X14.4937 Y22.8342 
G01 X14.2974 Y22.7529 
G01 X14.1339 Y22.5893 
G01 X13.4471 Y21.9026 
G01 X13.3658 Y21.7063 
G01 X13.3658 Y20.2523 
G01 X13.3673 Y20.2230 
G01 X13.3658 Y20.2158 
G01 X13.3658 Y20.2084 
G01 X13.3582 Y20.1800 
G01 X13.3521 Y20.1512 
G01 X13.3487 Y20.1447 
G01 X13.3468 Y20.1375 
G01 X13.3321 Y20.1120 
G01 X13.3188 Y20.0859 
G01 X13.3138 Y20.0804 
G01 X13.3101 Y20.0740 
G01 X13.2893 Y20.0532 
G01 X13.2697 Y20.0314 
G01 X13.2635 Y20.0273 
G01 X13.2583 Y20.0221 
G01 X13.2328 Y20.0074 
G01 X13.2082 Y19.9914 
G01 X13.2011 Y19.9891 
G01 X13.1947 Y19.9854 
G01 X13.1663 Y19.9778 
G01 X13.1384 Y19.9688 
G01 X13.1310 Y19.9684 
G01 X13.1239 Y19.9664 
G01 X13.0945 Y19.9664 
G01 X13.0651 Y19.9649 
G01 X13.0579 Y19.9664 
G01 X13.0505 Y19.9664 
G01 X13.0221 Y19.9741 
G01 X12.9934 Y19.9802 
G01 X12.9868 Y19.9835 
G01 X12.9797 Y19.9854 
G01 X12.9542 Y20.0001 
G01 X12.9280 Y20.0135 
G01 X12.9225 Y20.0184 
G01 X12.9161 Y20.0221 
G01 X12.8953 Y20.0429 
G01 X12.8735 Y20.0626 
G01 X12.8695 Y20.0688 
G01 X12.8643 Y20.0740 
G01 X12.8496 Y20.0994 
G01 X12.8336 Y20.1241 
G01 X12.8313 Y20.1311 
G01 X12.8276 Y20.1375 
G01 X12.8200 Y20.1659 
G01 X12.8023 Y20.2203 
G01 X12.7296 Y20.3629 
G01 X12.6356 Y20.4924 
G01 X12.5224 Y20.6056 
G01 X12.3929 Y20.6996 
G01 X12.2503 Y20.7723 
G01 X12.1894 Y20.7921 
G01 X12.1894 Y20.6824 
G01 X12.2927 Y20.6396 
G01 X12.4424 Y20.5396 
G01 X12.5696 Y20.4124 
G01 X12.6696 Y20.2628 
G01 X12.7385 Y20.0965 
G01 X12.7736 Y19.9200 
G01 X12.7736 Y19.7400 
G01 X12.7385 Y19.5635 
G01 X12.6696 Y19.3972 
G01 X12.5696 Y19.2476 
G01 X12.4424 Y19.1204 
G01 X12.2927 Y19.0204 
G01 X12.1894 Y18.9776 
G01 X12.1894 Y18.8679 
G01 X12.2503 Y18.8877 
G01 X12.3929 Y18.9604 
G01 X12.5224 Y19.0544 
G01 X12.6356 Y19.1676 
G01 X12.7296 Y19.2971 
G01 X12.8023 Y19.4397 
G01 X12.8200 Y19.4941 
G01 X12.8276 Y19.5225 
G01 X12.8313 Y19.5289 
G01 X12.8336 Y19.5359 
G01 X12.8496 Y19.5605 
G01 X12.8643 Y19.5860 
G01 X12.8695 Y19.5912 
G01 X12.8735 Y19.5974 
G01 X12.8953 Y19.6171 
G01 X12.9161 Y19.6379 
G01 X12.9225 Y19.6416 
G01 X12.9280 Y19.6465 
G01 X12.9542 Y19.6598 
G01 X12.9797 Y19.6746 
G01 X12.9868 Y19.6765 
G01 X12.9934 Y19.6798 
G01 X13.0221 Y19.6859 
G01 X13.0505 Y19.6935 
G01 X13.0579 Y19.6935 
G01 X13.0651 Y19.6951 
G01 X13.0945 Y19.6935 
G01 X13.1239 Y19.6935 
G01 X13.1310 Y19.6916 
G01 X13.1384 Y19.6912 
G01 X13.1663 Y19.6822 
G01 X13.1947 Y19.6746 
G01 X13.2011 Y19.6709 
G01 X13.2082 Y19.6686 
G01 X13.2328 Y19.6526 
G01 X13.2583 Y19.6379 
G01 X13.2635 Y19.6326 
G01 X13.2697 Y19.6286 
G01 X13.2893 Y19.6068 
G01 X13.3101 Y19.5860 
G01 X13.3138 Y19.5796 
G01 X13.3188 Y19.5741 
G01 X13.3321 Y19.5480 
G01 X13.3468 Y19.5225 
G01 X13.3487 Y19.5153 
G01 X13.3521 Y19.5088 
G01 X13.3582 Y19.4800 
G01 X13.3658 Y19.4516 
G01 X13.3658 Y19.4442 
G01 X13.3673 Y19.4370 
G01 X13.3658 Y19.4077 
G01 X13.3658 Y18.8000 
G01 X13.3468 Y18.7291 
G01 X13.3101 Y18.6656 
G01 X12.3863 Y17.7417 
G01 X12.3344 Y17.6899 
G01 X12.2709 Y17.6532 
G01 X12.2000 Y17.6342 
G01 X10.7937 Y17.6342 
G01 X10.5974 Y17.5529 
G01 X10.4339 Y17.3893 
G01 X6.9063 Y13.8617 
G01 X6.8544 Y13.8099 
G01 X6.7909 Y13.7732 
G01 X6.7200 Y13.7542 
G01 X4.1506 Y13.7542 
G01 X4.0798 Y13.7732 
G01 X4.0163 Y13.8099 
G01 X3.6401 Y14.1860 
G01 X2.8399 Y14.1860 
G01 X2.2740 Y13.6201 
G01 X2.2740 Y12.8199 
G01 X2.8399 Y12.2540 
G01 X3.6401 Y12.2540 
G01 X3.9644 Y12.5783 
G01 X4.0163 Y12.6301 
G01 X4.0798 Y12.6668 
G01 X4.1506 Y12.6858 
G01 X7.1263 Y12.6858 
G01 X7.3226 Y12.7671 
G01 X11.0137 Y16.4583 
G01 X11.0656 Y16.5101 
G01 X11.1291 Y16.5468 
G01 X11.2000 Y16.5658 
G01 X12.6063 Y16.5658 
G01 X12.8026 Y16.6471 
G01 X14.1375 Y17.9820 
G01 X14.3529 Y18.1974 
G01 X14.4342 Y18.3937 
G01 X14.4342 Y21.3000 
G01 X14.4532 Y21.3709 
G01 X14.4899 Y21.4344 
G01 X14.7137 Y21.6583 
G01 X14.7656 Y21.7101 
G01 X14.8291 Y21.7468 
G01 X14.9000 Y21.7658 
G01 X15.4393 Y21.7658 
G01 X15.5102 Y21.7468 
G01 X15.5737 Y21.7101 
G01 X15.6928 Y21.5911 
G01 X16.0478 Y21.4440 
G01 X16.1162 Y21.4440 
G01 X16.1307 Y21.4463 
G01 X16.1526 Y21.4440 
G01 X16.3274 Y21.4440 
G01 X16.3493 Y21.4463 
G01 X16.3638 Y21.4440 
G01 X16.4322 Y21.4440 
G01 X16.7872 Y21.5911 
G01 X17.0589 Y21.8628 
G01 X17.2060 Y22.2178 
G01 X17.2060 Y22.5926 
G01 X17.2113 Y22.6124 
G01 X17.2250 Y22.6635 
G01 X17.2617 Y22.7270 
G01 X17.3135 Y22.7789 
G01 X17.3771 Y22.8155 
G01 X17.4479 Y22.8345 
G01 X17.5213 Y22.8345 
G01 X17.5411 Y22.8292 
G01 X17.5921 Y22.8155 
G01 X17.6557 Y22.7789 
G01 X17.7075 Y22.7270 
G01 X17.8583 Y22.5763 
G01 X17.9101 Y22.5244 
G01 X17.9468 Y22.4609 
G01 X17.9658 Y22.3900 
G01 X17.9658 Y20.8937 
G01 X18.0471 Y20.6974 
G01 X18.2106 Y20.5339 
G01 X19.1974 Y19.5471 
G01 X19.3937 Y19.4658 
G01 X25.2901 Y19.4658 
G01 X25.3084 Y19.4682 
G01 X25.3266 Y19.4658 
G01 X25.3451 Y19.4658 
G01 X25.3629 Y19.4610 
G01 X25.3811 Y19.4586 
G01 X25.3981 Y19.4516 
G01 X25.4159 Y19.4468 
G01 X25.4319 Y19.4376 
G01 X25.4489 Y19.4306 
G01 X25.4635 Y19.4193 
G01 X25.4794 Y19.4101 
G01 X25.4925 Y19.3971 
G01 X25.5071 Y19.3859 
G01 X25.5183 Y19.3713 
G01 X25.5313 Y19.3583 
G01 X25.5405 Y19.3423 
G01 X25.5517 Y19.3277 
G01 X25.5588 Y19.3107 
G01 X25.5680 Y19.2947 
G01 X25.5728 Y19.2769 
G01 X25.5798 Y19.2599 
G01 X25.5822 Y19.2417 
G01 X25.5870 Y19.2239 
G01 X25.5870 Y19.2055 
G01 X25.5894 Y19.1872 
G01 X25.5870 Y19.1689 
G01 X25.5870 Y19.1505 
G01 X25.5822 Y19.1327 
G01 X25.5798 Y19.1145 
G01 X25.5728 Y19.0975 
G01 X25.5680 Y19.0797 
G01 X25.5588 Y19.0637 
G01 X25.5517 Y19.0467 
G01 X25.5405 Y19.0321 
G01 X25.5313 Y19.0161 
G01 X25.5183 Y19.0031 
G01 X25.5071 Y18.9885 
G01 X25.4925 Y18.9773 
G01 X25.4794 Y18.9643 
G01 X25.4635 Y18.9550 
G01 X25.4489 Y18.9438 
G01 X25.4319 Y18.9368 
G01 X25.4159 Y18.9276 
G01 X25.3981 Y18.9228 
G01 X25.3552 Y18.9051 
G01 X25.0919 Y18.6417 
G01 X25.0400 Y18.5899 
G01 X24.9765 Y18.5532 
G01 X24.9057 Y18.5342 
G01 X22.8937 Y18.5342 
G01 X22.6974 Y18.4529 
G01 X22.5339 Y18.2893 
G01 X21.8171 Y17.5726 
G01 X21.7358 Y17.3763 
G01 X21.7358 Y15.0296 
G01 X21.7168 Y14.9587 
G01 X21.6801 Y14.8952 
G01 X21.6018 Y14.8169 
G01 X21.4818 Y14.5272 
G01 X21.4818 Y12.8928 
G01 X21.6018 Y12.6031 
G01 X21.8235 Y12.3814 
G01 X22.1132 Y12.2614 
G01 X22.4268 Y12.2614 
G01 X22.7165 Y12.3814 
G01 X22.9382 Y12.6031 
G01 X23.0582 Y12.8928 
G01 X23.0582 Y14.5272 
G01 X22.9382 Y14.8169 
G01 X22.9117 Y14.8433 
G01 X22.8599 Y14.8952 
G01 X22.8232 Y14.9587 
G01 X22.8042 Y15.0296 
G01 X22.8042 Y16.9700 
G01 X22.8232 Y17.0409 
G01 X22.8599 Y17.1044 
G01 X23.1137 Y17.3583 
G01 X23.1656 Y17.4101 
G01 X23.2291 Y17.4468 
G01 X23.3000 Y17.4658 
G01 X24.9057 Y17.4658 
G01 X24.9765 Y17.4468 
G01 X25.0400 Y17.4101 
G01 X25.3553 Y17.0949 
G01 X25.7476 Y16.9324 
G01 X26.1724 Y16.9324 
G01 X26.5647 Y17.0949 
G01 X26.8651 Y17.3953 
G01 X26.9586 Y17.6210 
G01 X26.9866 Y17.6888 
G01 X27.0313 Y17.7470 
G01 X27.0895 Y17.7916 
G01 X27.1573 Y17.8197 
G01 X27.1634 Y17.8205 
G01 X27.2300 Y17.8293 
G01 X27.3027 Y17.8197 
G01 X27.3705 Y17.7916 
G01 X27.4287 Y17.7470 
G01 X27.4734 Y17.6888 
G01 X27.5949 Y17.3953 
G01 X27.8583 Y17.1319 
G01 X27.9101 Y17.0800 
G01 X27.9468 Y17.0165 
G01 X27.9658 Y16.9457 
G01 X27.9658 Y15.3000 
G01 X27.9468 Y15.2291 
G01 X27.9101 Y15.1656 
G01 X22.3863 Y9.6417 
G01 X22.3344 Y9.5899 
G01 X22.2709 Y9.5532 
G01 X22.2000 Y9.5342 
G01 X18.8937 Y9.5342 
G01 X18.6974 Y9.4529 
G01 X17.4125 Y8.1680 
G01 X17.3689 Y8.1243 
G01 X17.3170 Y8.0725 
G01 X17.2535 Y8.0358 
G01 X17.2457 Y8.0337 
G01 X16.6332 Y7.4212 
G01 X16.6332 Y6.5788 
G01 X17.1763 Y6.0357 
G01 X17.2282 Y5.9839 
G01 X17.2648 Y5.9203 
G01 X17.2838 Y5.8495 
G01 X17.2838 Y5.7761 
G01 X17.2648 Y5.7053 
G01 X17.2282 Y5.6417 
G01 X17.1763 Y5.5899 
G01 X17.1128 Y5.5532 
G01 X17.0419 Y5.5342 
G01 X6.6800 Y5.5342 
G01 X6.6091 Y5.5532 
G01 X6.5456 Y5.5899 
G01 X4.3135 Y7.8219 
G01 X4.2617 Y7.8738 
G01 X4.2250 Y7.9373 
G01 X4.2060 Y8.0082 
G01 X4.2060 Y8.5401 
G01 X3.6401 Y9.1060 
G01 X2.8399 Y9.1060 
G01 X2.2740 Y8.5401 
G01 X2.2740 Y7.7399 
G01 X2.8399 Y7.1740 
G01 X3.3718 Y7.1740 
G01 X3.4279 Y7.1590 
G01 X3.4426 Y7.1550 
G01 X3.5062 Y7.1183 
G01 X3.5567 Y7.0678 
G01 X3.6089 Y7.0157 
G01 X3.6455 Y6.9521 
G01 X3.6570 Y6.9094 
G01 X3.6645 Y6.8813 
G01 X3.6645 Y6.8079 
G01 X3.6491 Y6.7502 
G01 X3.6455 Y6.7371 
G01 X3.6089 Y6.6735 
G01 X3.5570 Y6.6217 
G01 X3.4935 Y6.5850 
G01 X3.4507 Y6.5735 
G01 X3.4226 Y6.5660 
G01 X2.8399 Y6.5660 
G01 X2.2740 Y6.0001 
G01 X2.2740 Y5.1999 
G01 X2.8399 Y4.6340 
G01 X3.3718 Y4.6340 
G01 X3.4427 Y4.6150 
G01 X3.5062 Y4.5783 
G01 X5.3220 Y2.7625 
G01 X5.5374 Y2.5471 
G01 X5.7337 Y2.4658 
G01 X21.1063 Y2.4658 
G01 X21.3026 Y2.5471 
G01 X22.9675 Y4.2120 
G01 X23.1829 Y4.4274 
G01 X23.2642 Y4.6237 
G01 X23.2642 Y6.0175 
G01 X23.2832 Y6.0884 
G01 X23.3199 Y6.1519 
G01 X23.3717 Y6.2038 
G01 X23.8281 Y6.6602 
G01 X23.8925 Y6.6976 
G01 X23.9633 Y6.7166 
G01 X24.0367 Y6.7166 
G01 X24.1075 Y6.6976 
G01 X24.1711 Y6.6610 
G01 X24.2229 Y6.6091 
G01 X24.8488 Y5.9832 
G01 X25.6912 Y5.9832 
G01 X26.3681 Y6.6602 
G01 X26.4325 Y6.6976 
G01 X26.5033 Y6.7166 
G01 X26.5767 Y6.7166 
G01 X26.6475 Y6.6976 
G01 X26.7111 Y6.6610 
G01 X26.7629 Y6.6091 
G01 X27.3888 Y5.9832 
G01 X28.2312 Y5.9832 
G01 X28.8722 Y6.6242 
G01 X28.9365 Y6.6617 
G01 X29.0074 Y6.6807 
G01 X29.0808 Y6.6807 
G01 X29.1516 Y6.6617 
G01 X29.2151 Y6.6250 
G01 X29.2670 Y6.5732 
G01 X29.9078 Y5.9324 
G01 X30.0206 Y5.9324 
G01 X30.0206 Y6.0356 
G01 X29.9505 Y6.0356 
G01 X29.3856 Y6.6005 
G01 X29.3856 Y7.3995 
G01 X29.9505 Y7.9644 
G01 X30.7495 Y7.9644 
G01 X31.3144 Y7.3995 
G01 X31.3144 Y7.3294 
G01 X31.4176 Y7.3294 
G01 X31.4176 Y7.4422 
G01 X30.8956 Y7.9643 
G01 X30.8437 Y8.0161 
G01 X30.8070 Y8.0797 
G01 X30.7880 Y8.1505 
G01 X30.7880 Y8.2239 
G01 X30.8070 Y8.2947 
G01 X30.8437 Y8.3583 
G01 X30.8955 Y8.4101 
G01 X30.9591 Y8.4468 
G01 X31.0299 Y8.4658 
G01 X49.1063 Y8.4658 
G01 X49.3026 Y8.5471 
G01 X49.4661 Y8.7106 
G01 X50.5617 Y9.8063 
G01 X50.6136 Y9.8581 
G01 X50.6771 Y9.8948 
G01 X50.7480 Y9.9138 
G01 X50.8213 Y9.9138 
G01 X50.8922 Y9.8948 
G01 X50.9557 Y9.8581 
G01 X51.0999 Y9.7140 
G01 X51.9001 Y9.7140 
G01 X52.4660 Y10.2799 
G01 X52.4660 Y11.0801 
G01 X51.9001 Y11.6460 
G01 X51.0999 Y11.6460 
G01 X50.7756 Y11.3217 
G01 X50.7237 Y11.2699 
G01 X50.6602 Y11.2332 
G01 X50.5893 Y11.2142 
G01 X50.5737 Y11.2142 
G01 X50.3774 Y11.1329 
G01 X48.8863 Y9.6417 
G01 X48.8344 Y9.5899 
G01 X48.7709 Y9.5532 
G01 X48.7000 Y9.5342 
G01 X48.4256 Y9.5342 
G01 X48.4058 Y9.5395 
G01 X48.3547 Y9.5532 
G01 X48.2912 Y9.5899 
G01 X48.2401 Y9.6409 
G01 X48.2026 Y9.7053 
G01 X48.1837 Y9.7761 
G01 X48.1837 Y9.8495 
G01 X48.1890 Y9.8693 
G01 X48.2026 Y9.9203 
G01 X48.2393 Y9.9839 
G01 X48.2912 Y10.0357 
G01 X48.4661 Y10.2106 
G01 X50.5817 Y12.3263 
G01 X50.6336 Y12.3781 
G01 X50.6971 Y12.4148 
G01 X50.7680 Y12.4338 
G01 X50.8414 Y12.4338 
G01 X50.8611 Y12.4285 
G01 X50.9122 Y12.4148 
G01 X50.9757 Y12.3781 
G01 X51.0276 Y12.3263 
G01 X51.0999 Y12.2540 
G01 X51.9001 Y12.2540 
G01 X52.4660 Y12.8199 
G01 X52.4660 Y13.6201 
G01 X51.9001 Y14.1860 
G01 X51.0999 Y14.1860 
G01 X50.7586 Y13.8447 
G01 X50.7474 Y13.8301 
G01 X50.7328 Y13.8189 
G01 X50.7197 Y13.8059 
G01 X50.7038 Y13.7966 
G01 X50.6892 Y13.7854 
G01 X50.6722 Y13.7784 
G01 X50.6562 Y13.7692 
G01 X50.6384 Y13.7644 
G01 X50.4174 Y13.6729 
G01 X47.8863 Y11.1417 
G01 X47.8344 Y11.0899 
G01 X47.7709 Y11.0532 
G01 X47.7000 Y11.0342 
G01 X47.4256 Y11.0342 
G01 X47.4058 Y11.0395 
G01 X47.3547 Y11.0532 
G01 X47.2912 Y11.0899 
G01 X47.2401 Y11.1409 
G01 X47.2026 Y11.2053 
G01 X47.1837 Y11.2761 
G01 X47.1837 Y11.3495 
G01 X47.1890 Y11.3693 
G01 X47.2026 Y11.4203 
G01 X47.2393 Y11.4839 
G01 X47.2912 Y11.5357 
G01 X47.4661 Y11.7106 
G01 X50.6017 Y14.8463 
G01 X50.6536 Y14.8981 
G01 X50.7171 Y14.9348 
G01 X50.7880 Y14.9538 
G01 X50.8613 Y14.9538 
G01 X50.9322 Y14.9348 
G01 X50.9957 Y14.8981 
G01 X51.0999 Y14.7940 
G01 X51.9001 Y14.7940 
G01 X52.4660 Y15.3599 
G01 X52.4660 Y16.1601 
G01 X51.9001 Y16.7260 
G01 X51.0999 Y16.7260 
G01 X50.7303 Y16.3564 
G01 X50.7191 Y16.3418 
G01 X50.7045 Y16.3306 
G01 X50.6915 Y16.3176 
G01 X50.6755 Y16.3084 
G01 X50.6609 Y16.2972 
G01 X50.6439 Y16.2901 
G01 X50.6279 Y16.2809 
G01 X50.6101 Y16.2761 
G01 X50.4574 Y16.2129 
G01 X46.8863 Y12.6417 
G01 X46.8344 Y12.5899 
G01 X46.7709 Y12.5532 
G01 X46.7000 Y12.5342 
G01 X46.0926 Y12.5342 
G01 X46.0854 Y12.5327 
G01 X46.0560 Y12.5342 
G01 X46.0267 Y12.5342 
G01 X46.0195 Y12.5361 
G01 X46.0121 Y12.5365 
G01 X45.9842 Y12.5456 
G01 X45.9558 Y12.5532 
G01 X45.9494 Y12.5569 
G01 X45.9424 Y12.5592 
G01 X45.9177 Y12.5752 
G01 X45.8923 Y12.5899 
G01 X45.8870 Y12.5951 
G01 X45.8808 Y12.5991 
G01 X45.8612 Y12.6210 
G01 X45.8404 Y12.6417 
G01 X45.8367 Y12.6481 
G01 X45.8317 Y12.6536 
G01 X45.8184 Y12.6798 
G01 X45.8037 Y12.7053 
G01 X45.8018 Y12.7124 
G01 X45.7985 Y12.7190 
G01 X45.7923 Y12.7477 
G01 X45.7847 Y12.7761 
G01 X45.7847 Y12.7835 
G01 X45.7832 Y12.7908 
G01 X45.7847 Y12.8201 
G01 X45.7847 Y12.8495 
G01 X45.7867 Y12.8566 
G01 X45.7870 Y12.8640 
G01 X45.7961 Y12.8919 
G01 X45.8037 Y12.9203 
G01 X45.8074 Y12.9267 
G01 X45.8097 Y12.9338 
G01 X45.8257 Y12.9584 
G01 X45.8404 Y12.9839 
G01 X45.8456 Y12.9891 
G01 X45.8497 Y12.9953 
G01 X45.8715 Y13.0150 
G01 X45.8923 Y13.0357 
G01 X45.8987 Y13.0394 
G01 X45.9042 Y13.0444 
G01 X45.9303 Y13.0577 
G01 X45.9558 Y13.0724 
G01 X45.9630 Y13.0743 
G01 X46.0729 Y13.1303 
G01 X46.2024 Y13.2244 
G01 X46.3156 Y13.3376 
G01 X46.4096 Y13.4671 
G01 X46.4823 Y13.6097 
G01 X46.5021 Y13.6706 
G01 X46.3924 Y13.6706 
G01 X46.3496 Y13.5672 
G01 X46.2496 Y13.4176 
G01 X46.1224 Y13.2904 
G01 X45.9727 Y13.1904 
G01 X45.8065 Y13.1215 
G01 X45.6300 Y13.0864 
G01 X45.4500 Y13.0864 
G01 X45.2735 Y13.1215 
G01 X45.1072 Y13.1904 
G01 X44.9576 Y13.2904 
G01 X44.8304 Y13.4176 
G01 X44.7304 Y13.5672 
G01 X44.6876 Y13.6706 
G01 X44.5779 Y13.6706 
G01 X44.5977 Y13.6097 
G01 X44.6704 Y13.4671 
G01 X44.7644 Y13.3376 
G01 X44.8776 Y13.2244 
G01 X45.0071 Y13.1303 
G01 X45.1170 Y13.0743 
G01 X45.1242 Y13.0724 
G01 X45.1496 Y13.0577 
G01 X45.1758 Y13.0444 
G01 X45.1813 Y13.0394 
G01 X45.1877 Y13.0357 
G01 X45.2085 Y13.0150 
G01 X45.2303 Y12.9953 
G01 X45.2344 Y12.9891 
G01 X45.2396 Y12.9839 
G01 X45.2543 Y12.9584 
G01 X45.2703 Y12.9338 
G01 X45.2726 Y12.9267 
G01 X45.2763 Y12.9203 
G01 X45.2839 Y12.8919 
G01 X45.2930 Y12.8640 
G01 X45.2933 Y12.8566 
G01 X45.2953 Y12.8495 
G01 X45.2953 Y12.8201 
G01 X45.2968 Y12.7908 
G01 X45.2953 Y12.7835 
G01 X45.2953 Y12.7761 
G01 X45.2876 Y12.7477 
G01 X45.2815 Y12.7190 
G01 X45.2782 Y12.7124 
G01 X45.2763 Y12.7053 
G01 X45.2616 Y12.6798 
G01 X45.2482 Y12.6536 
G01 X45.2433 Y12.6481 
G01 X45.2396 Y12.6417 
G01 X45.2188 Y12.6210 
G01 X45.1992 Y12.5991 
G01 X45.1930 Y12.5951 
G01 X45.1877 Y12.5899 
G01 X45.1623 Y12.5752 
G01 X45.1376 Y12.5592 
G01 X45.1306 Y12.5569 
G01 X45.1242 Y12.5532 
G01 X45.0958 Y12.5456 
G01 X45.0679 Y12.5365 
G01 X45.0605 Y12.5361 
G01 X45.0533 Y12.5342 
G01 X45.0239 Y12.5342 
G01 X44.9946 Y12.5327 
G01 X44.9874 Y12.5342 
G01 X44.3000 Y12.5342 
G01 X44.2291 Y12.5532 
G01 X44.1656 Y12.5899 
G01 X43.7837 Y12.9717 
G01 X43.7319 Y13.0236 
G01 X43.6952 Y13.0871 
G01 X43.6762 Y13.1580 
G01 X43.6762 Y13.2313 
G01 X43.6952 Y13.3022 
G01 X43.7319 Y13.3657 
G01 X43.8189 Y13.4528 
G01 X43.9660 Y13.8078 
G01 X43.9660 Y13.8762 
G01 X43.9637 Y13.8907 
G01 X43.9660 Y13.9126 
G01 X43.9660 Y14.0874 
G01 X43.9637 Y14.1093 
G01 X43.9660 Y14.1238 
G01 X43.9660 Y14.1921 
G01 X43.8189 Y14.5472 
G01 X43.5472 Y14.8189 
G01 X43.1921 Y14.9660 
G01 X42.8078 Y14.9660 
G01 X42.4528 Y14.8189 
G01 X42.1811 Y14.5472 
G01 X42.0340 Y14.1921 
G01 X42.0340 Y13.8078 
G01 X42.1811 Y13.4528 
G01 X42.3583 Y13.2756 
G01 X42.4101 Y13.2237 
G01 X42.4468 Y13.1602 
G01 X42.4658 Y13.0893 
G01 X42.4658 Y12.8937 
G01 X42.5471 Y12.6974 
G01 X42.7106 Y12.5339 
G01 X43.7088 Y11.5357 
G01 X43.7607 Y11.4839 
G01 X43.7973 Y11.4203 
G01 X43.8163 Y11.3495 
G01 X43.8163 Y11.2761 
G01 X43.7973 Y11.2053 
G01 X43.7607 Y11.1417 
G01 X43.7088 Y11.0899 
G01 X43.6453 Y11.0532 
G01 X43.5744 Y11.0342 
G01 X27.8937 Y11.0342 
G01 X27.6974 Y10.9529 
G01 X25.2625 Y8.5180 
G01 X25.0471 Y8.3026 
G01 X25.0070 Y8.2057 
G01 X25.0022 Y8.1879 
G01 X24.9930 Y8.1719 
G01 X24.9859 Y8.1549 
G01 X24.9747 Y8.1403 
G01 X24.9655 Y8.1243 
G01 X24.9525 Y8.1113 
G01 X24.9413 Y8.0967 
G01 X24.9267 Y8.0855 
G01 X24.9137 Y8.0725 
G01 X24.8977 Y8.0633 
G01 X24.8873 Y8.0553 
G01 X24.2229 Y7.3909 
G01 X24.1711 Y7.3390 
G01 X24.1075 Y7.3023 
G01 X24.0367 Y7.2834 
G01 X23.9633 Y7.2834 
G01 X23.8925 Y7.3023 
G01 X23.8289 Y7.3390 
G01 X23.1512 Y8.0168 
G01 X22.9411 Y8.0168 
G01 X22.9229 Y8.0144 
G01 X22.9046 Y8.0168 
G01 X22.8862 Y8.0168 
G01 X22.8684 Y8.0216 
G01 X22.8501 Y8.0240 
G01 X22.8331 Y8.0310 
G01 X22.8153 Y8.0358 
G01 X22.7994 Y8.0450 
G01 X22.7824 Y8.0520 
G01 X22.7678 Y8.0633 
G01 X22.7518 Y8.0725 
G01 X22.7388 Y8.0855 
G01 X22.7242 Y8.0967 
G01 X22.7130 Y8.1113 
G01 X22.6999 Y8.1243 
G01 X22.6907 Y8.1403 
G01 X22.6795 Y8.1549 
G01 X22.6725 Y8.1719 
G01 X22.6633 Y8.1879 
G01 X22.6585 Y8.2057 
G01 X22.6514 Y8.2227 
G01 X22.6490 Y8.2409 
G01 X22.6443 Y8.2587 
G01 X22.6443 Y8.2772 
G01 X22.6419 Y8.2954 
G01 X22.6443 Y8.3137 
G01 X22.6443 Y8.3321 
G01 X22.6491 Y8.3499 
G01 X22.6515 Y8.3681 
G01 X22.6585 Y8.3851 
G01 X22.6633 Y8.4029 
G01 X22.6725 Y8.4189 
G01 X22.6795 Y8.4359 
G01 X22.6907 Y8.4505 
G01 X22.6999 Y8.4665 
G01 X22.7130 Y8.4795 
G01 X22.7242 Y8.4941 
G01 X22.7388 Y8.5053 
G01 X22.7518 Y8.5183 
G01 X22.7678 Y8.5275 
G01 X22.7824 Y8.5388 
G01 X22.7994 Y8.5458 
G01 X22.8038 Y8.5484 
G01 X22.9661 Y8.7106 
G01 X28.9529 Y14.6974 
G01 X29.0342 Y14.8937 
G01 X29.0342 Y16.9457 
G01 X29.0532 Y17.0165 
G01 X29.0899 Y17.0800 
G01 X29.3681 Y17.3583 
G01 X29.4199 Y17.4101 
G01 X29.4835 Y17.4468 
G01 X29.5543 Y17.4658 
G01 X39.5493 Y17.4658 
G01 X39.6202 Y17.4468 
G01 X39.6837 Y17.4101 
G01 X39.8183 Y17.2756 
G01 X39.8701 Y17.2237 
G01 X39.9068 Y17.1602 
G01 X39.9258 Y17.0893 
G01 X39.9258 Y14.9106 
G01 X39.9068 Y14.8398 
G01 X39.8701 Y14.7763 
G01 X39.6411 Y14.5472 
G01 X39.4940 Y14.1921 
G01 X39.4940 Y13.8078 
G01 X39.6411 Y13.4528 
G01 X39.9128 Y13.1811 
G01 X40.2678 Y13.0340 
G01 X40.6521 Y13.0340 
G01 X41.0072 Y13.1811 
G01 X41.2789 Y13.4528 
G01 X41.4260 Y13.8078 
G01 X41.4260 Y14.1921 
G01 X41.2789 Y14.5472 
G01 X41.1017 Y14.7244 
G01 X41.0499 Y14.7763 
G01 X41.0132 Y14.8398 
G01 X40.9942 Y14.9106 
G01 X40.9942 Y17.0893 
G01 X41.0132 Y17.1602 
G01 X41.0499 Y17.2237 
G01 X41.2789 Y17.4528 
G01 X41.4260 Y17.8078 
G01 X41.4260 Y18.1922 
G01 X41.2789 Y18.5472 
G01 X41.1017 Y18.7244 
G01 X41.0499 Y18.7763 
G01 X41.0132 Y18.8398 
G01 X40.9942 Y18.9106 
G01 X40.9942 Y21.0893 
G01 X41.0132 Y21.1602 
G01 X41.0499 Y21.2237 
G01 X41.1017 Y21.2756 
G01 X41.2789 Y21.4528 
G01 X41.4260 Y21.8078 
G01 X41.4260 Y22.1922 
G01 X41.2789 Y22.5472 
G01 X41.1417 Y22.6844 
G01 X41.0899 Y22.7363 
G01 X41.0532 Y22.7998 
G01 X41.0342 Y22.8706 
G01 X41.0342 Y25.1293 
G01 X41.0532 Y25.2002 
G01 X41.0899 Y25.2637 
G01 X41.2789 Y25.4528 
G01 X41.4260 Y25.8078 
G01 X41.4260 Y26.1922 
G01 X41.2789 Y26.5472 
G01 X41.0072 Y26.8189 
G01 X40.6521 Y26.9660 
G01 X40.2678 Y26.9660 
G01 X39.9128 Y26.8189 
G01 X39.6411 Y26.5472 
G01 X39.4940 Y26.1922 
G01 X39.4940 Y25.8078 
G01 X39.6411 Y25.4528 
G01 X39.8583 Y25.2356 
G01 X39.9101 Y25.1837 
G01 X39.9468 Y25.1202 
G01 X39.9658 Y25.0493 
G01 X39.9658 Y22.9506 
G01 X39.9468 Y22.8798 
G01 X39.9101 Y22.8163 
G01 X39.6411 Y22.5472 
G01 X39.4940 Y22.1922 
G01 X39.4940 Y21.8078 
G01 X39.6411 Y21.4528 
G01 X39.8183 Y21.2756 
G01 X39.8701 Y21.2237 
G01 X39.9068 Y21.1602 
G01 X39.9258 Y21.0893 
G01 X39.9258 Y18.9106 
G01 X39.9068 Y18.8398 
G01 X39.8701 Y18.7763 
G01 X39.7356 Y18.6417 
G01 X39.6837 Y18.5899 
G01 X39.6202 Y18.5532 
G01 X39.5493 Y18.5342 
G01 X29.5543 Y18.5342 
G01 X29.4835 Y18.5532 
G01 X29.4199 Y18.5899 
G01 X29.1417 Y18.8681 
G01 X29.0899 Y18.9199 
G01 X29.0532 Y18.9835 
G01 X29.0342 Y19.0543 
G01 X29.0342 Y19.1063 
G01 X28.9529 Y19.3026 
G01 X28.0180 Y20.2375 
G01 X27.8026 Y20.4529 
G01 X27.6063 Y20.5342 
G01 X19.8000 Y20.5342 
G01 X19.7291 Y20.5532 
G01 X19.6656 Y20.5899 
G01 X19.0899 Y21.1656 
G01 X19.0532 Y21.2291 
G01 X19.0342 Y21.3000 
G01 X19.0342 Y22.7963 
G01 X18.9529 Y22.9926 
G01 X18.0312 Y23.9143 
G01 X17.9793 Y23.9661 
G01 X17.9427 Y24.0297 
G01 X17.9237 Y24.1005 
G01 X17.9237 Y24.1739 
G01 X17.9427 Y24.2447 
G01 X17.9793 Y24.3083 
G01 X18.0312 Y24.3601 
G01 X18.0947 Y24.3968 
G01 X18.1656 Y24.4158 
G01 X19.9957 Y24.4158 
G01 X20.0665 Y24.3968 
G01 X20.1300 Y24.3601 
G01 X20.3953 Y24.0949 
G01 X20.6888 Y23.9734 
G01 X20.7470 Y23.9287 
G01 X20.7916 Y23.8705 
G01 X20.8197 Y23.8027 
G01 X20.8293 Y23.7300 
G01 X20.8197 Y23.6573 
G01 X20.7916 Y23.5895 
G01 X20.7470 Y23.5313 
G01 X20.6888 Y23.4866 
G01 X20.6210 Y23.4586 
G01 X20.3953 Y23.3651 
G01 X20.0949 Y23.0647 
G01 X19.9324 Y22.6724 
G01 X19.9324 Y22.2476 
G01 X20.0949 Y21.8553 
G01 X20.3953 Y21.5549 
G01 X20.7876 Y21.3924 
G01 X21.2124 Y21.3924 
G01 X21.6047 Y21.5549 
G01 X21.8681 Y21.8183 
G01 X21.9199 Y21.8701 
G01 X21.9835 Y21.9068 
G01 X22.0543 Y21.9258 
G01 X25.9504 Y21.9258 
G01 X26.0212 Y21.9068 
G01 X26.0848 Y21.8701 
G01 X26.1631 Y21.7918 
G01 X26.4528 Y21.6718 
G01 X28.0872 Y21.6718 
G01 X28.3769 Y21.7918 
G01 X28.5986 Y22.0135 
G01 X28.7186 Y22.3032 
G01 X28.7186 Y22.6168 
G01 X28.5986 Y22.9065 
G01 X28.3769 Y23.1282 
G01 X28.0872 Y23.2482 
G01 X26.4528 Y23.2482 
G01 X26.1631 Y23.1282 
G01 X26.1366 Y23.1017 
G01 X26.0848 Y23.0499 
G01 X26.0212 Y23.0132 
G01 X25.9504 Y22.9942 
G01 X22.0543 Y22.9942 
G01 X21.9835 Y23.0132 
G01 X21.9199 Y23.0499 
G01 X21.6047 Y23.3651 
G01 X21.3790 Y23.4586 
G01 X21.3112 Y23.4866 
G01 X21.2530 Y23.5313 
G01 X21.2084 Y23.5895 
G01 X21.1803 Y23.6573 
G01 X21.1795 Y23.6634 
G01 X21.1707 Y23.7300 
G01 X21.1803 Y23.8027 
G01 X21.2084 Y23.8705 
G01 X21.2530 Y23.9287 
G01 X21.3112 Y23.9734 
G01 X21.6047 Y24.0949 
G01 X21.9051 Y24.3953 
G01 X22.0676 Y24.7876 
G01 X22.0676 Y25.2124 
G01 X21.9051 Y25.6047 
G01 X21.6417 Y25.8681 
G01 X21.5899 Y25.9199 
G01 X21.5532 Y25.9835 
G01 X21.5342 Y26.0543 
G01 X21.5342 Y29.9457 
G01 X21.5532 Y30.0165 
G01 X21.5899 Y30.0800 
G01 X21.9051 Y30.3953 
G01 X22.0676 Y30.7876 
G01 X22.0676 Y31.2124 
G01 X21.9051 Y31.6047 
G01 X21.6047 Y31.9051 
G01 X21.3112 Y32.0266 
G01 X21.2530 Y32.0713 
G01 X21.2084 Y32.1295 
G01 X21.1803 Y32.1973 
G01 X21.1707 Y32.2700 
G01 X21.1803 Y32.3427 
G01 X21.2084 Y32.4105 
G01 X21.2530 Y32.4687 
G01 X21.3112 Y32.5134 
G01 X21.3790 Y32.5414 
G01 X21.6047 Y32.6349 
G01 X21.8681 Y32.8983 
G01 X21.9199 Y32.9501 
G01 X21.9835 Y32.9868 
G01 X22.0543 Y33.0058 
G01 X23.6463 Y33.0058 
G01 X23.8426 Y33.0871 
G01 X25.1137 Y34.3583 
G01 X25.1656 Y34.4101 
G01 X25.2291 Y34.4468 
G01 X25.3000 Y34.4658 
G01 X25.5504 Y34.4658 
G01 X25.6212 Y34.4468 
G01 X25.6848 Y34.4101 
G01 X25.9231 Y34.1718 
G01 X26.2128 Y34.0518 
G01 X27.8472 Y34.0518 
G01 X28.1369 Y34.1718 
G01 X28.3586 Y34.3935 
G01 X28.4786 Y34.6832 
G01 X28.4786 Y34.9968 
G01 X28.3586 Y35.2865 
G01 X28.1369 Y35.5082 
G01 X27.8472 Y35.6282 
G01 X26.2128 Y35.6282 
G01 X26.0540 Y35.5624 
G01 X26.0380 Y35.5532 
G01 X26.0202 Y35.5484 
G01 X26.0032 Y35.5414 
G01 X25.9849 Y35.5390 
G01 X25.9671 Y35.5342 
G01 X25.9487 Y35.5342 
G01 X25.9305 Y35.5318 
G01 X25.9122 Y35.5342 
G01 X24.8937 Y35.5342 
G01 X24.6974 Y35.4529 
G01 X24.5339 Y35.2893 
G01 X23.4263 Y34.1817 
G01 X23.3744 Y34.1299 
G01 X23.3109 Y34.0932 
G01 X23.2400 Y34.0742 
G01 X22.0543 Y34.0742 
G01 X21.9835 Y34.0932 
G01 X21.9199 Y34.1299 
G01 X21.6047 Y34.4451 
G01 X21.2124 Y34.6076 
G01 X20.7876 Y34.6076 
G01 X20.3953 Y34.4451 
G01 X20.0949 Y34.1447 
G01 X19.9324 Y33.7524 
G01 X19.9324 Y33.3276 
G01 X20.0949 Y32.9353 
G01 X20.3953 Y32.6349 
G01 X20.6210 Y32.5414 
G01 X20.6888 Y32.5134 
G01 X20.7470 Y32.4687 
G01 X20.7916 Y32.4105 
G01 X20.8197 Y32.3427 
G01 X20.8205 Y32.3366 
G01 X20.8293 Y32.2700 
G01 X20.8197 Y32.1973 
G01 X20.7916 Y32.1295 
G01 X20.7470 Y32.0713 
G01 X20.6888 Y32.0266 
G01 X20.3953 Y31.9051 
G01 X20.0949 Y31.6047 
G01 X19.9324 Y31.2124 
G01 X19.9324 Y30.7876 
G01 X20.0949 Y30.3953 
G01 X20.3583 Y30.1319 
G01 X20.4101 Y30.0800 
G01 X20.4468 Y30.0165 
G01 X20.4658 Y29.9457 
G01 X20.4658 Y26.0543 
G01 X20.4468 Y25.9835 
G01 X20.4101 Y25.9199 
G01 X20.0819 Y25.5917 
G01 X20.0300 Y25.5399 
G01 X19.9665 Y25.5032 
G01 X19.8957 Y25.4842 
G01 X17.1506 Y25.4842 
G01 X17.0798 Y25.5032 
G01 X17.0163 Y25.5399 
G01 X16.7872 Y25.7689 
G01 X16.4322 Y25.9160 
G01 X16.0478 Y25.9160 
G01 X15.6928 Y25.7689 
G01 X15.4756 Y25.5517 
G01 X15.4237 Y25.4999 
G01 X15.3602 Y25.4632 
G01 X15.2894 Y25.4442 
G01 X12.7706 Y25.4442 
G01 X12.7508 Y25.4495 
G01 X12.6998 Y25.4632 
G01 X12.6363 Y25.4999 
G01 X12.5844 Y25.5517 
G01 X12.4072 Y25.7289 
G01 X12.0521 Y25.8760 
G01 X11.6678 Y25.8760 
G01 X11.3128 Y25.7289 
G01 X11.1656 Y25.5817 
G01 X11.1137 Y25.5299 
G01 X11.0502 Y25.4932 
G01 X10.9975 Y25.4791 
G01 X10.9794 Y25.4742 
G01 X8.3106 Y25.4742 
G01 X8.2398 Y25.4932 
G01 X8.1763 Y25.5299 
G01 X8.0417 Y25.6644 
G01 X7.9899 Y25.7163 
G01 X7.9532 Y25.7798 
G01 X7.9342 Y25.8506 
G01 X7.9342 Y28.0063 
G01 X7.8529 Y28.2026 
G01 X7.6893 Y28.3661 
G01 X4.6026 Y31.4529 
G01 X4.4063 Y31.5342 
G01 X4.1506 Y31.5342 
G01 X4.0798 Y31.5532 
G01 X4.0163 Y31.5899 
G01 X3.6401 Y31.9660 
G01 X2.8399 Y31.9660 
G01 X2.5357 Y31.6619 
G01 X2.4839 Y31.6100 
G01 X2.4203 Y31.5733 
G01 X2.3495 Y31.5543 
G01 X2.2761 Y31.5543 
G01 X2.2053 Y31.5733 
G01 X2.1417 Y31.6100 
G01 X2.0899 Y31.6619 
G01 X2.0532 Y31.7254 
G01 X2.0342 Y31.7962 
G01 X2.0342 Y32.7438 
G01 X2.0532 Y32.8146 
G01 X2.0899 Y32.8781 
G01 X2.1409 Y32.9292 
G01 X2.2053 Y32.9667 
G01 X2.2761 Y32.9857 
G01 X2.3495 Y32.9857 
G01 X2.4203 Y32.9667 
G01 X2.4839 Y32.9300 
G01 X2.5357 Y32.8781 
G01 X2.8399 Y32.5740 
G01 X3.6401 Y32.5740 
G01 X4.2060 Y33.1399 
G01 X4.2060 Y33.9401 
G01 X3.6401 Y34.5060 
G01 X2.8399 Y34.5060 
G01 X2.5357 Y34.2019 
G01 X2.4839 Y34.1500 
G01 X2.4203 Y34.1133 
G01 X2.3495 Y34.0943 
G01 X2.2761 Y34.0943 
G01 X2.2053 Y34.1133 
G01 X2.1417 Y34.1500 
G01 X2.0899 Y34.2019 
G01 X2.0532 Y34.2654 
G01 X2.0342 Y34.3362 
G01 X2.0342 Y35.2838 
G01 X2.0532 Y35.3546 
G01 X2.0899 Y35.4181 
G01 X2.1409 Y35.4692 
G01 X2.2053 Y35.5067 
G01 X2.2761 Y35.5257 
G01 X2.3495 Y35.5257 
G01 X2.4203 Y35.5067 
G01 X2.4839 Y35.4700 
G01 X2.5357 Y35.4181 
G01 X2.8399 Y35.1140 
G01 X3.6401 Y35.1140 
G01 X4.2060 Y35.6799 
G01 X4.2060 Y36.4801 
G01 X3.6401 Y37.0460 
G01 X2.8399 Y37.0460 
G01 X2.5357 Y36.7419 
G01 X2.4839 Y36.6900 
G01 X2.4203 Y36.6533 
G01 X2.3495 Y36.6343 
G01 X2.2761 Y36.6343 
G01 X2.2053 Y36.6533 
G01 X2.1417 Y36.6900 
G01 X2.0899 Y36.7419 
G01 X2.0532 Y36.8054 
G01 X2.0342 Y36.8762 
G01 X2.0342 Y45.5000 
G01 X2.0532 Y45.5709 
G01 X2.0899 Y45.6344 
G01 X7.8137 Y51.3583 
G01 X7.8656 Y51.4101 
G01 X7.9291 Y51.4468 
G01 X8.0000 Y51.4658 
G01 X9.5483 Y51.4658 
G01 X9.6191 Y51.4468 
G01 X9.6827 Y51.4101 
G01 X9.7345 Y51.3583 
G01 X9.7712 Y51.2947 
G01 X9.7902 Y51.2239 
G01 X9.7902 Y51.0810 
G01 X9.9257 Y50.7540 
G01 X10.1760 Y50.5037 
G01 X10.5030 Y50.3682 
G01 X10.8570 Y50.3682 
G01 X11.1840 Y50.5037 
G01 X11.4343 Y50.7540 
G01 X11.5698 Y51.0810 
G01 X11.5698 Y52.9590 
G01 X11.4343 Y53.2860 
G01 X11.1840 Y53.5363 
G01 X10.8570 Y53.6718 
G01 X10.5030 Y53.6718 
G01 X10.1760 Y53.5363 
G01 X9.9257 Y53.2860 
G01 X9.7902 Y52.9590 
G01 X9.7902 Y52.7761 
G01 X9.7712 Y52.7053 
G01 X9.7345 Y52.6417 
G01 X9.6827 Y52.5899 
G01 X9.6191 Y52.5532 
G01 X9.5483 Y52.5342 
G01 X7.5937 Y52.5342 
G01 X7.3974 Y52.4529 
G01 X7.2339 Y52.2893 
G01 X1.9681 Y47.0236 
G01 X1.9428 Y46.9982 
G01 X1.9099 Y46.9791 
G01 X1.8793 Y46.9614 
G01 X1.8434 Y46.9517 
G01 X1.8085 Y46.9423 
G01 X1.7718 Y46.9423 
G01 X1.7351 Y46.9422 
G01 X1.6989 Y46.9518 
G01 X1.6642 Y46.9611 
G01 X1.6321 Y46.9796 
G01 X1.6006 Y46.9977 
G01 X1.5741 Y47.0241 
G01 X1.5487 Y47.0495 
G01 X1.5296 Y47.0824 
G01 X1.5119 Y47.1129 
G01 X1.5023 Y47.1488 
G01 X1.4928 Y47.1838 
G01 X1.4928 Y47.2200 
G01 X1.4848 Y52.6904 
G01 X1.4847 Y52.7272 
G01 X1.4847 Y52.7635 
G01 X1.4941 Y52.7988 
G01 X1.5035 Y52.8344 
G01 X1.5212 Y52.8650 
G01 X1.5401 Y52.8980 
G01 X1.5660 Y52.9239 
G01 X1.5919 Y52.9499 
G01 X1.6249 Y52.9690 
G01 X1.6554 Y52.9867 
G01 X1.6913 Y52.9964 
G01 X1.7262 Y53.0058 
G01 X1.7629 Y53.0058 
G01 X1.7996 Y53.0059 
G01 X1.8349 Y52.9965 
G01 X1.8705 Y52.9870 
G01 X1.9010 Y52.9694 
G01 X1.9341 Y52.9504 
G01 X2.2594 Y52.7625 
G01 X2.9055 Y52.5894 
G01 X3.5745 Y52.5894 
G01 X4.2206 Y52.7625 
G01 X4.8000 Y53.0970 
G01 X5.2730 Y53.5700 
G01 X5.6075 Y54.1494 
G01 X5.7806 Y54.7955 
G01 X5.7806 Y55.4645 
G01 X5.6075 Y56.1106 
G01 X5.2730 Y56.6900 
G01 X4.8000 Y57.1630 
G01 X4.2206 Y57.4975 
G01 X3.5745 Y57.6706 
G01 X2.9055 Y57.6706 
G01 X2.2594 Y57.4975 
G01 X1.8963 Y57.2879 
G01 X1.8642 Y57.2693 
G01 X1.8294 Y57.2599 
G01 X1.7934 Y57.2502 
G01 X1.7567 Y57.2501 
G01 X1.7200 Y57.2501 
G01 X1.6838 Y57.2597 
G01 X1.6491 Y57.2689 
G01 X1.6170 Y57.2874 
G01 X1.5856 Y57.3055 
G01 X1.5596 Y57.3314 
G01 X1.5336 Y57.3573 
G01 X1.5155 Y57.3887 
G01 X1.4968 Y57.4208 
G01 X1.4874 Y57.4556 
G01 X1.4777 Y57.4916 
G01 X1.4777 Y57.5279 
G01 X1.4624 Y67.9539 
G01 X1.4624 Y67.9908 
G01 X1.4623 Y68.0271 
G01 X1.4720 Y68.0633 
G01 X1.4812 Y68.0980 
G01 X1.4997 Y68.1301 
G01 X1.5178 Y68.1615 
G01 X1.5443 Y68.1881 
G01 X1.5696 Y68.2135 
G01 X1.6025 Y68.2326 
G01 X1.6331 Y68.2503 
G01 X1.6690 Y68.2599 
G01 X1.7039 Y68.2693 
G01 X1.7406 Y68.2694 
G01 X1.7772 Y68.2695 
G01 X52.8341 Y68.2694 
G01 X52.8702 Y68.2695 
G01 X52.9063 Y68.2599 
G01 X52.9411 Y68.2507 
G01 X52.9736 Y68.2321 
G01 X53.0048 Y68.2142 
G01 X53.0310 Y68.1881 
G01 X53.0568 Y68.1625 
G01 X53.0757 Y68.1300 
G01 X53.0937 Y68.0991 
G01 X53.1035 Y68.0627 
G01 X53.1129 Y68.0283 
G01 X53.1130 Y67.9910 
G01 X53.1471 Y56.3623 
G01 X53.1472 Y56.3255 
G01 X53.1473 Y56.2893 
G01 X53.1378 Y56.2537 
G01 X53.1285 Y56.2184 
G01 X53.1103 Y56.1868 
G01 X53.0920 Y56.1548 
G01 X53.0661 Y56.1288 
G01 X53.0403 Y56.1027 
G01 X53.0077 Y56.0838 
G01 X52.9769 Y56.0659 
G01 X52.9405 Y56.0560 
G01 X52.9061 Y56.0467 
G01 X52.8688 Y56.0466 
G01 X52.8327 Y56.0465 
G01 X52.7971 Y56.0559 
G01 X52.7618 Y56.0653 
G01 X52.7302 Y56.0834 
G01 X52.6982 Y56.1017 
G01 X52.4806 Y56.2275 
G01 X51.8345 Y56.4006 
G01 X51.1655 Y56.4006 
G01 X50.5194 Y56.2275 
G01 X49.9400 Y55.8930 
G01 X49.4670 Y55.4200 
G01 X49.1325 Y54.8406 
G01 X48.9594 Y54.1945 
G01 X48.9594 Y53.5255 
G01 X49.1325 Y52.8794 
G01 X49.4670 Y52.3000 
G01 X49.9400 Y51.8270 
G01 X50.5194 Y51.4925 
G01 X51.1655 Y51.3194 
G01 X51.8345 Y51.3194 
G01 X52.4806 Y51.4925 
G01 X52.7430 Y51.6440 
G01 X52.7747 Y51.6624 
G01 X52.8106 Y51.6722 
G01 X52.8455 Y51.6816 
G01 X52.8827 Y51.6817 
G01 X52.9189 Y51.6818 
G01 X52.9550 Y51.6723 
G01 X52.9898 Y51.6631 
G01 X53.0222 Y51.6445 
G01 X53.0534 Y51.6266 
G01 X53.0794 Y51.6007 
G01 X53.1054 Y51.5749 
G01 X53.1239 Y51.5431 
G01 X53.1423 Y51.5114 
G01 X53.1520 Y51.4756 
G01 X53.1615 Y51.4406 
G01 X53.1616 Y51.4033 
G01 X53.3057 Y2.2443 
G01 X53.3058 Y2.2070 
G01 X53.3059 Y2.1711 
G01 X53.2962 Y2.1343 
G01 X53.2872 Y2.1001 
G01 X53.2684 Y2.0674 
G01 X53.2507 Y2.0365 
G01 X53.2251 Y2.0108 
G01 X53.1989 Y1.9845 
G01 X53.1673 Y1.9661 
G01 X53.1355 Y1.9476 
G01 X53.0993 Y1.9378 
G01 X53.0647 Y1.9284 
G01 X53.0274 Y1.9283 
G01 X52.9914 Y1.9282 
G01 X38.9800 Y1.9021 
G01 X38.9437 Y1.9021 
G01 X38.9069 Y1.9020 
G01 X38.8722 Y1.9112 
G01 X38.8360 Y1.9208 
G01 X38.8046 Y1.9389 
G01 X38.7724 Y1.9574 
G01 X38.7460 Y1.9837 
G01 X38.7204 Y2.0092 
G01 X38.7014 Y2.0420 
G01 X38.6836 Y2.0726 
G01 X38.6738 Y2.1088 
G01 X38.6645 Y2.1435 
G01 X38.6644 Y2.1802 
G01 X38.6644 Y2.2168 
G01 X38.6737 Y2.2519 
G01 X38.6832 Y2.2877 
G01 X38.8006 Y2.7255 
G01 X38.8006 Y3.3945 
G01 X38.6275 Y4.0406 
G01 X38.2930 Y4.6200 
G01 X37.8200 Y5.0930 
G01 X37.2406 Y5.4275 
G01 X36.5945 Y5.6006 
G01 X35.9255 Y5.6006 
G01 X35.2794 Y5.4275 
G01 X34.7000 Y5.0930 
G01 X34.2270 Y4.6200 
G01 X33.8925 Y4.0406 
G01 X33.7194 Y3.3945 
G01 X33.7194 Y2.7255 
G01 X33.8487 Y2.2430 
G01 X33.8582 Y2.2079 
G01 X33.8582 Y2.1712 
G01 X33.8583 Y2.1345 
G01 X33.8489 Y2.0991 
G01 X33.8395 Y2.0636 
G01 X33.8211 Y2.0316 
G01 X33.8029 Y2.0000 
G01 X33.7770 Y1.9740 
G01 X33.7511 Y1.9480 
G01 X33.7196 Y1.9298 
G01 X33.6877 Y1.9112 
G01 X33.6523 Y1.9017 
G01 X33.6168 Y1.8921 
G01 X33.5800 Y1.8921 
G01 X1.8745 Y1.8329 
G01 X1.8391 Y1.8329 
G01 X1.8012 Y1.8328 
G01 X1.7690 Y1.8414 
G01 X1.7304 Y1.8517 
G01 X1.6995 Y1.8694 
G01 X1.6668 Y1.8882 
G01 X1.6410 Y1.9139 
G01 X1.6148 Y1.9400 
G00 Z3.0000 
G00 X2.3264 Y5.2216 
G01 Z-0.1100 F500.00 
G01 X2.3264 Y5.9784 F500.00 
G01 X2.8616 Y6.5136 
G01 X3.6184 Y6.5136 
G01 X4.1536 Y5.9784 
G01 X4.1536 Y5.3678 
G01 X6.0396 Y3.4818 
G01 X20.8004 Y3.4818 
G01 X22.2482 Y4.9296 
G01 X22.2482 Y6.1179 
G01 X21.7656 Y6.6005 
G01 X21.7656 Y7.3995 
G01 X22.3305 Y7.9644 
G01 X23.1295 Y7.9644 
G01 X23.6944 Y7.3995 
G01 X23.6944 Y6.6005 
G01 X23.2118 Y6.1179 
G01 X23.2118 Y4.6666 
G01 X23.1790 Y4.5440 
G01 X23.1155 Y4.4342 
G01 X23.0258 Y4.3445 
G01 X21.2958 Y2.6145 
G01 X21.1860 Y2.5510 
G01 X21.0634 Y2.5182 
G01 X5.7766 Y2.5182 
G01 X5.6540 Y2.5510 
G01 X5.5442 Y2.6145 
G01 X5.4545 Y2.7042 
G01 X3.4722 Y4.6864 
G01 X2.8616 Y4.6864 
G01 X2.3264 Y5.2216 
G00 Z3.0000 
G00 X2.3264 Y7.7616 
G01 Z-0.1100 F500.00 
G01 X2.3264 Y8.5184 F500.00 
G01 X2.8616 Y9.0536 
G01 X3.6184 Y9.0536 
G01 X4.1536 Y8.5184 
G01 X4.1536 Y7.9078 
G01 X6.5796 Y5.4818 
G01 X18.8004 Y5.4818 
G01 X19.5724 Y6.2538 
G01 X19.2256 Y6.6005 
G01 X19.2256 Y7.3995 
G01 X19.7905 Y7.9644 
G01 X20.5895 Y7.9644 
G01 X21.1544 Y7.3995 
G01 X21.1544 Y6.6005 
G01 X20.6686 Y6.1148 
G01 X20.6390 Y6.0040 
G01 X20.5755 Y5.8942 
G01 X20.4858 Y5.8045 
G01 X19.2958 Y4.6145 
G01 X19.1860 Y4.5510 
G01 X19.0634 Y4.5182 
G01 X6.3166 Y4.5182 
G01 X6.1940 Y4.5510 
G01 X6.0842 Y4.6145 
G01 X5.9945 Y4.7042 
G01 X3.4722 Y7.2264 
G01 X2.8616 Y7.2264 
G01 X2.3264 Y7.7616 
G00 Z3.0000 
G00 X2.8399 Y9.7140 
G01 Z-0.1100 F500.00 
G01 X3.6401 Y9.7140 F500.00 
G01 X3.9644 Y10.0383 
G01 X4.0163 Y10.0901 
G01 X4.0798 Y10.1268 
G01 X4.1506 Y10.1458 
G01 X4.3482 Y10.1458 
G01 X4.3664 Y10.1482 
G01 X4.3847 Y10.1458 
G01 X4.4031 Y10.1458 
G01 X4.4209 Y10.1410 
G01 X4.4391 Y10.1386 
G01 X4.4561 Y10.1316 
G01 X4.4740 Y10.1268 
G01 X4.4899 Y10.1176 
G01 X4.5069 Y10.1106 
G01 X4.5215 Y10.0993 
G01 X4.5375 Y10.0901 
G01 X4.5505 Y10.0771 
G01 X4.5651 Y10.0659 
G01 X4.5763 Y10.0513 
G01 X4.5894 Y10.0383 
G01 X4.5986 Y10.0223 
G01 X4.6098 Y10.0077 
G01 X4.6149 Y9.9953 
G01 X4.9153 Y9.6949 
G01 X5.3076 Y9.5324 
G01 X5.7324 Y9.5324 
G01 X6.1247 Y9.6949 
G01 X6.4251 Y9.9953 
G01 X6.5876 Y10.3876 
G01 X6.5876 Y10.8124 
G01 X6.4251 Y11.2047 
G01 X6.1247 Y11.5051 
G01 X5.7324 Y11.6676 
G01 X5.3076 Y11.6676 
G01 X4.9153 Y11.5051 
G01 X4.7319 Y11.3217 
G01 X4.6800 Y11.2699 
G01 X4.6165 Y11.2332 
G01 X4.5457 Y11.2142 
G01 X4.1506 Y11.2142 
G01 X4.0798 Y11.2332 
G01 X4.0163 Y11.2699 
G01 X3.6401 Y11.6460 
G01 X2.8399 Y11.6460 
G01 X2.2740 Y11.0801 
G01 X2.2740 Y10.2799 
G01 X2.8399 Y9.7140 
G00 Z3.0000 
G00 X2.8616 Y9.7664 
G01 Z-0.1100 F500.00 
G01 X2.3264 Y10.3016 F500.00 
G01 X2.3264 Y11.0584 
G01 X2.8616 Y11.5936 
G01 X3.6184 Y11.5936 
G01 X4.0502 Y11.1618 
G01 X4.6744 Y11.1618 
G01 X4.7314 Y11.2471 
G01 X4.8728 Y11.3886 
G01 X5.0391 Y11.4997 
G01 X5.2239 Y11.5762 
G01 X5.4200 Y11.6152 
G01 X5.6200 Y11.6152 
G01 X5.8161 Y11.5762 
G01 X6.0009 Y11.4997 
G01 X6.1672 Y11.3886 
G01 X6.3086 Y11.2471 
G01 X6.4197 Y11.0809 
G01 X6.4962 Y10.8961 
G01 X6.5352 Y10.7000 
G01 X6.5352 Y10.5000 
G01 X6.4962 Y10.3039 
G01 X6.4197 Y10.1191 
G01 X6.3086 Y9.9528 
G01 X6.1672 Y9.8114 
G01 X6.0009 Y9.7003 
G01 X5.8161 Y9.6238 
G01 X5.6200 Y9.5848 
G01 X5.4200 Y9.5848 
G01 X5.2239 Y9.6238 
G01 X5.0391 Y9.7003 
G01 X4.8728 Y9.8114 
G01 X4.7314 Y9.9528 
G01 X4.6203 Y10.1191 
G01 X4.5876 Y10.1982 
G01 X4.0502 Y10.1982 
G01 X3.6184 Y9.7664 
G01 X2.8616 Y9.7664 
G00 Z3.0000 
G00 X2.8616 Y12.3064 
G01 Z-0.1100 F500.00 
G01 X2.3264 Y12.8416 F500.00 
G01 X2.3264 Y13.5984 
G01 X2.8616 Y14.1336 
G01 X3.6184 Y14.1336 
G01 X4.0502 Y13.7018 
G01 X6.8204 Y13.7018 
G01 X10.5145 Y17.3958 
G01 X10.6042 Y17.4855 
G01 X10.7140 Y17.5490 
G01 X10.8366 Y17.5818 
G01 X12.3004 Y17.5818 
G01 X13.4182 Y18.6996 
G01 X13.4182 Y21.6634 
G01 X13.4510 Y21.7860 
G01 X13.5145 Y21.8958 
G01 X14.2145 Y22.5958 
G01 X14.3042 Y22.6855 
G01 X14.4140 Y22.7490 
G01 X14.5366 Y22.7818 
G01 X15.4051 Y22.7818 
G01 X15.4304 Y22.8427 
G01 X15.5304 Y22.9924 
G01 X15.6576 Y23.1196 
G01 X15.8072 Y23.2196 
G01 X15.9735 Y23.2885 
G01 X16.1500 Y23.3236 
G01 X16.3300 Y23.3236 
G01 X16.5065 Y23.2885 
G01 X16.6728 Y23.2196 
G01 X16.8224 Y23.1196 
G01 X16.9496 Y22.9924 
G01 X17.0496 Y22.8427 
G01 X17.1185 Y22.6765 
G01 X17.1536 Y22.5000 
G01 X17.1536 Y22.3200 
G01 X17.1185 Y22.1435 
G01 X17.0496 Y21.9772 
G01 X16.9496 Y21.8276 
G01 X16.8224 Y21.7004 
G01 X16.6728 Y21.6004 
G01 X16.5065 Y21.5315 
G01 X16.3300 Y21.4964 
G01 X16.1500 Y21.4964 
G01 X15.9735 Y21.5315 
G01 X15.8072 Y21.6004 
G01 X15.6576 Y21.7004 
G01 X15.5398 Y21.8182 
G01 X14.7996 Y21.8182 
G01 X14.3818 Y21.4004 
G01 X14.3818 Y18.4366 
G01 X14.3490 Y18.3140 
G01 X14.2855 Y18.2042 
G01 X14.1958 Y18.1145 
G01 X12.7958 Y16.7145 
G01 X12.6860 Y16.6510 
G01 X12.5634 Y16.6182 
G01 X11.0996 Y16.6182 
G01 X7.3158 Y12.8345 
G01 X7.2060 Y12.7710 
G01 X7.0834 Y12.7382 
G01 X4.0502 Y12.7382 
G01 X3.6184 Y12.3064 
G01 X2.8616 Y12.3064 
G00 Z3.0000 
G00 X2.8399 Y14.7940 
G01 Z-0.1100 F500.00 
G01 X3.6401 Y14.7940 F500.00 
G01 X3.9644 Y15.1183 
G01 X4.0163 Y15.1701 
G01 X4.0798 Y15.2068 
G01 X4.1506 Y15.2258 
G01 X6.6663 Y15.2258 
G01 X6.8626 Y15.3071 
G01 X9.6893 Y18.1339 
G01 X9.8529 Y18.2974 
G01 X9.9342 Y18.4937 
G01 X9.9342 Y21.0000 
G01 X9.9532 Y21.0709 
G01 X9.9899 Y21.1344 
G01 X10.5137 Y21.6583 
G01 X10.5656 Y21.7101 
G01 X10.6291 Y21.7468 
G01 X10.7000 Y21.7658 
G01 X11.0193 Y21.7658 
G01 X11.0902 Y21.7468 
G01 X11.1537 Y21.7101 
G01 X11.3128 Y21.5511 
G01 X11.6678 Y21.4040 
G01 X11.7361 Y21.4040 
G01 X11.7507 Y21.4063 
G01 X11.7726 Y21.4040 
G01 X11.9474 Y21.4040 
G01 X11.9693 Y21.4063 
G01 X11.9839 Y21.4040 
G01 X12.0521 Y21.4040 
G01 X12.4072 Y21.5511 
G01 X12.6789 Y21.8228 
G01 X12.8260 Y22.1778 
G01 X12.8260 Y22.5621 
G01 X12.6789 Y22.9172 
G01 X12.4072 Y23.1889 
G01 X12.0521 Y23.3360 
G01 X11.6678 Y23.3360 
G01 X11.3128 Y23.1889 
G01 X11.0656 Y22.9417 
G01 X11.0137 Y22.8899 
G01 X10.9502 Y22.8532 
G01 X10.8793 Y22.8342 
G01 X10.2937 Y22.8342 
G01 X10.0974 Y22.7529 
G01 X9.9339 Y22.5894 
G01 X9.1625 Y21.8180 
G01 X9.1106 Y21.7661 
G01 X8.9471 Y21.6026 
G01 X8.8658 Y21.4063 
G01 X8.8658 Y20.4126 
G01 X8.8673 Y20.4054 
G01 X8.8658 Y20.3761 
G01 X8.8658 Y20.3467 
G01 X8.8639 Y20.3395 
G01 X8.8635 Y20.3321 
G01 X8.8544 Y20.3042 
G01 X8.8468 Y20.2758 
G01 X8.8431 Y20.2694 
G01 X8.8408 Y20.2624 
G01 X8.8248 Y20.2377 
G01 X8.8101 Y20.2123 
G01 X8.8049 Y20.2070 
G01 X8.8009 Y20.2008 
G01 X8.7791 Y20.1812 
G01 X8.7583 Y20.1604 
G01 X8.7518 Y20.1567 
G01 X8.7464 Y20.1518 
G01 X8.7202 Y20.1384 
G01 X8.6947 Y20.1237 
G01 X8.6876 Y20.1218 
G01 X8.6810 Y20.1185 
G01 X8.6523 Y20.1123 
G01 X8.6239 Y20.1047 
G01 X8.6165 Y20.1047 
G01 X8.6092 Y20.1032 
G01 X8.5799 Y20.1047 
G01 X8.5505 Y20.1047 
G01 X8.5434 Y20.1067 
G01 X8.5360 Y20.1070 
G01 X8.5081 Y20.1161 
G01 X8.4797 Y20.1237 
G01 X8.4733 Y20.1274 
G01 X8.4662 Y20.1297 
G01 X8.4416 Y20.1457 
G01 X8.4161 Y20.1604 
G01 X8.4109 Y20.1656 
G01 X8.4047 Y20.1697 
G01 X8.3851 Y20.1915 
G01 X8.3643 Y20.2123 
G01 X8.3606 Y20.2187 
G01 X8.3556 Y20.2242 
G01 X8.3423 Y20.2503 
G01 X8.3276 Y20.2758 
G01 X8.3257 Y20.2830 
G01 X8.2696 Y20.3929 
G01 X8.1756 Y20.5224 
G01 X8.0624 Y20.6356 
G01 X7.9329 Y20.7296 
G01 X7.7903 Y20.8023 
G01 X7.7294 Y20.8221 
G01 X7.7294 Y20.7124 
G01 X7.8327 Y20.6696 
G01 X7.9824 Y20.5696 
G01 X8.1096 Y20.4424 
G01 X8.2096 Y20.2928 
G01 X8.2785 Y20.1265 
G01 X8.3136 Y19.9500 
G01 X8.3136 Y19.7700 
G01 X8.2785 Y19.5935 
G01 X8.2096 Y19.4272 
G01 X8.1096 Y19.2776 
G01 X7.9824 Y19.1504 
G01 X7.8327 Y19.0504 
G01 X7.7294 Y19.0076 
G01 X7.7294 Y18.8979 
G01 X7.7903 Y18.9177 
G01 X7.9329 Y18.9904 
G01 X8.0624 Y19.0844 
G01 X8.1756 Y19.1976 
G01 X8.2696 Y19.3271 
G01 X8.3257 Y19.4370 
G01 X8.3276 Y19.4442 
G01 X8.3423 Y19.4697 
G01 X8.3556 Y19.4958 
G01 X8.3606 Y19.5013 
G01 X8.3643 Y19.5077 
G01 X8.3851 Y19.5285 
G01 X8.4047 Y19.5503 
G01 X8.4109 Y19.5543 
G01 X8.4161 Y19.5596 
G01 X8.4416 Y19.5743 
G01 X8.4662 Y19.5903 
G01 X8.4733 Y19.5926 
G01 X8.4797 Y19.5963 
G01 X8.5081 Y19.6039 
G01 X8.5360 Y19.6130 
G01 X8.5434 Y19.6133 
G01 X8.5505 Y19.6153 
G01 X8.5799 Y19.6153 
G01 X8.6092 Y19.6168 
G01 X8.6165 Y19.6153 
G01 X8.6239 Y19.6153 
G01 X8.6523 Y19.6076 
G01 X8.6810 Y19.6015 
G01 X8.6876 Y19.5982 
G01 X8.6947 Y19.5963 
G01 X8.7202 Y19.5816 
G01 X8.7464 Y19.5682 
G01 X8.7518 Y19.5633 
G01 X8.7583 Y19.5596 
G01 X8.7791 Y19.5388 
G01 X8.8009 Y19.5192 
G01 X8.8049 Y19.5130 
G01 X8.8101 Y19.5077 
G01 X8.8248 Y19.4822 
G01 X8.8408 Y19.4576 
G01 X8.8431 Y19.4506 
G01 X8.8468 Y19.4442 
G01 X8.8544 Y19.4158 
G01 X8.8635 Y19.3879 
G01 X8.8639 Y19.3805 
G01 X8.8658 Y19.3733 
G01 X8.8658 Y19.3439 
G01 X8.8673 Y19.3146 
G01 X8.8658 Y19.3074 
G01 X8.8658 Y18.9000 
G01 X8.8468 Y18.8291 
G01 X8.8101 Y18.7656 
G01 X6.4463 Y16.4017 
G01 X6.3944 Y16.3499 
G01 X6.3309 Y16.3132 
G01 X6.2600 Y16.2942 
G01 X4.1506 Y16.2942 
G01 X4.0798 Y16.3132 
G01 X4.0163 Y16.3499 
G01 X3.9644 Y16.4017 
G01 X3.6401 Y16.7260 
G01 X2.8399 Y16.7260 
G01 X2.2740 Y16.1601 
G01 X2.2740 Y15.3599 
G01 X2.8399 Y14.7940 
G00 Z3.0000 
G00 X2.8616 Y14.8464 
G01 Z-0.1100 F500.00 
G01 X2.3264 Y15.3816 F500.00 
G01 X2.3264 Y16.1384 
G01 X2.8616 Y16.6736 
G01 X3.6184 Y16.6736 
G01 X4.0502 Y16.2418 
G01 X6.3604 Y16.2418 
G01 X8.9182 Y18.7996 
G01 X8.9182 Y21.3634 
G01 X8.9510 Y21.4860 
G01 X9.0145 Y21.5958 
G01 X10.0145 Y22.5958 
G01 X10.1042 Y22.6855 
G01 X10.2140 Y22.7490 
G01 X10.3366 Y22.7818 
G01 X11.0417 Y22.7818 
G01 X11.0504 Y22.8027 
G01 X11.1504 Y22.9524 
G01 X11.2776 Y23.0796 
G01 X11.4272 Y23.1796 
G01 X11.5935 Y23.2485 
G01 X11.7700 Y23.2836 
G01 X11.9500 Y23.2836 
G01 X12.1265 Y23.2485 
G01 X12.2927 Y23.1796 
G01 X12.4424 Y23.0796 
G01 X12.5696 Y22.9524 
G01 X12.6696 Y22.8027 
G01 X12.7385 Y22.6365 
G01 X12.7736 Y22.4600 
G01 X12.7736 Y22.2800 
G01 X12.7385 Y22.1035 
G01 X12.6696 Y21.9372 
G01 X12.5696 Y21.7876 
G01 X12.4424 Y21.6604 
G01 X12.2927 Y21.5604 
G01 X12.1265 Y21.4915 
G01 X11.9500 Y21.4564 
G01 X11.7700 Y21.4564 
G01 X11.5935 Y21.4915 
G01 X11.4272 Y21.5604 
G01 X11.2776 Y21.6604 
G01 X11.1504 Y21.7876 
G01 X11.1299 Y21.8182 
G01 X10.5996 Y21.8182 
G01 X9.8818 Y21.1004 
G01 X9.8818 Y18.5366 
G01 X9.8490 Y18.4140 
G01 X9.7855 Y18.3042 
G01 X9.6958 Y18.2145 
G01 X6.9455 Y15.4642 
G01 X6.8558 Y15.3745 
G01 X6.7460 Y15.3110 
G01 X6.6234 Y15.2782 
G01 X4.0502 Y15.2782 
G01 X3.6184 Y14.8464 
G01 X2.8616 Y14.8464 
G00 Z3.0000 
G00 X2.8399 Y17.3340 
G01 Z-0.1100 F500.00 
G01 X3.6401 Y17.3340 F500.00 
G01 X4.2060 Y17.8999 
G01 X4.2060 Y18.7001 
G01 X3.8417 Y19.0644 
G01 X3.7899 Y19.1163 
G01 X3.7532 Y19.1798 
G01 X3.7342 Y19.2506 
G01 X3.7342 Y19.4000 
G01 X3.7532 Y19.4709 
G01 X3.7899 Y19.5344 
G01 X5.7137 Y21.4583 
G01 X5.7656 Y21.5101 
G01 X5.8291 Y21.5468 
G01 X5.9000 Y21.5658 
G01 X6.8160 Y21.5658 
G01 X6.8342 Y21.5682 
G01 X6.8525 Y21.5658 
G01 X6.8709 Y21.5658 
G01 X6.8887 Y21.5610 
G01 X6.9070 Y21.5586 
G01 X6.9240 Y21.5516 
G01 X6.9418 Y21.5468 
G01 X6.9577 Y21.5376 
G01 X7.2078 Y21.4340 
G01 X7.2761 Y21.4340 
G01 X7.2907 Y21.4363 
G01 X7.3126 Y21.4340 
G01 X7.4874 Y21.4340 
G01 X7.5093 Y21.4363 
G01 X7.5238 Y21.4340 
G01 X7.5922 Y21.4340 
G01 X7.9472 Y21.5811 
G01 X8.2189 Y21.8528 
G01 X8.3660 Y22.2078 
G01 X8.3660 Y22.5922 
G01 X8.2189 Y22.9472 
G01 X7.9472 Y23.2189 
G01 X7.5922 Y23.3660 
G01 X7.2078 Y23.3660 
G01 X6.8528 Y23.2189 
G01 X6.5811 Y22.9472 
G01 X6.5296 Y22.8231 
G01 X6.5249 Y22.8053 
G01 X6.5157 Y22.7893 
G01 X6.5086 Y22.7723 
G01 X6.4974 Y22.7577 
G01 X6.4882 Y22.7417 
G01 X6.4752 Y22.7287 
G01 X6.4640 Y22.7141 
G01 X6.4494 Y22.7029 
G01 X6.4363 Y22.6899 
G01 X6.4204 Y22.6806 
G01 X6.4058 Y22.6694 
G01 X6.3888 Y22.6624 
G01 X6.3728 Y22.6532 
G01 X6.3550 Y22.6484 
G01 X6.3380 Y22.6414 
G01 X6.3197 Y22.6390 
G01 X6.3019 Y22.6342 
G01 X6.2835 Y22.6342 
G01 X6.2653 Y22.6318 
G01 X6.2470 Y22.6342 
G01 X5.4937 Y22.6342 
G01 X5.2974 Y22.5529 
G01 X5.1339 Y22.3893 
G01 X2.7471 Y20.0026 
G01 X2.6658 Y19.8063 
G01 X2.6658 Y19.2440 
G01 X2.6658 Y19.1706 
G01 X2.6468 Y19.0998 
G01 X2.6101 Y19.0363 
G01 X2.2740 Y18.7001 
G01 X2.2740 Y17.8999 
G01 X2.8399 Y17.3340 
G00 Z3.0000 
G00 X2.8616 Y17.3864 
G01 Z-0.1100 F500.00 
G01 X2.3264 Y17.9216 F500.00 
G01 X2.3264 Y18.6784 
G01 X2.7182 Y19.0702 
G01 X2.7182 Y19.7634 
G01 X2.7510 Y19.8860 
G01 X2.8145 Y19.9958 
G01 X5.2145 Y22.3958 
G01 X5.3042 Y22.4855 
G01 X5.4140 Y22.5490 
G01 X5.5366 Y22.5818 
G01 X6.5047 Y22.5818 
G01 X6.5215 Y22.6665 
G01 X6.5904 Y22.8328 
G01 X6.6904 Y22.9824 
G01 X6.8176 Y23.1096 
G01 X6.9672 Y23.2096 
G01 X7.1335 Y23.2785 
G01 X7.3100 Y23.3136 
G01 X7.4900 Y23.3136 
G01 X7.6665 Y23.2785 
G01 X7.8327 Y23.2096 
G01 X7.9824 Y23.1096 
G01 X8.1096 Y22.9824 
G01 X8.2096 Y22.8328 
G01 X8.2785 Y22.6665 
G01 X8.3136 Y22.4900 
G01 X8.3136 Y22.3100 
G01 X8.2785 Y22.1335 
G01 X8.2096 Y21.9672 
G01 X8.1096 Y21.8176 
G01 X7.9824 Y21.6904 
G01 X7.8327 Y21.5904 
G01 X7.6665 Y21.5215 
G01 X7.4900 Y21.4864 
G01 X7.3100 Y21.4864 
G01 X7.1335 Y21.5215 
G01 X6.9672 Y21.5904 
G01 X6.9256 Y21.6182 
G01 X5.7996 Y21.6182 
G01 X3.6818 Y19.5004 
G01 X3.6818 Y19.1502 
G01 X4.1536 Y18.6784 
G01 X4.1536 Y17.9216 
G01 X3.6184 Y17.3864 
G01 X2.8616 Y17.3864 
G00 Z3.0000 
G00 X2.8616 Y22.4664 
G01 Z-0.1100 F500.00 
G01 X2.4200 Y22.9080 F500.00 
G01 X2.3340 Y22.9310 
G01 X2.2242 Y22.9945 
G01 X1.2042 Y24.0145 
G01 X1.1145 Y24.1042 
G01 X1.0510 Y24.2140 
G01 X1.0182 Y24.3366 
G01 X1.0182 Y45.8634 
G01 X1.0510 Y45.9860 
G01 X1.1145 Y46.0958 
G01 X7.3145 Y52.2958 
G01 X7.4042 Y52.3855 
G01 X7.5140 Y52.4490 
G01 X7.6366 Y52.4818 
G01 X9.8426 Y52.4818 
G01 X9.8426 Y52.8645 
G01 X9.8748 Y53.0263 
G01 X9.9379 Y53.1787 
G01 X10.0295 Y53.3158 
G01 X10.1462 Y53.4325 
G01 X10.2833 Y53.5241 
G01 X10.4357 Y53.5872 
G01 X10.5975 Y53.6194 
G01 X10.7625 Y53.6194 
G01 X10.9243 Y53.5872 
G01 X11.0767 Y53.5241 
G01 X11.2138 Y53.4325 
G01 X11.3305 Y53.3158 
G01 X11.4221 Y53.1787 
G01 X11.4852 Y53.0263 
G01 X11.5174 Y52.8645 
G01 X11.5174 Y51.1755 
G01 X11.4852 Y51.0137 
G01 X11.4221 Y50.8613 
G01 X11.3305 Y50.7242 
G01 X11.2138 Y50.6075 
G01 X11.0767 Y50.5159 
G01 X10.9243 Y50.4528 
G01 X10.7625 Y50.4206 
G01 X10.5975 Y50.4206 
G01 X10.4357 Y50.4528 
G01 X10.2833 Y50.5159 
G01 X10.1462 Y50.6075 
G01 X10.0295 Y50.7242 
G01 X9.9379 Y50.8613 
G01 X9.8748 Y51.0137 
G01 X9.8426 Y51.1755 
G01 X9.8426 Y51.5182 
G01 X7.8996 Y51.5182 
G01 X1.9818 Y45.6004 
G01 X1.9818 Y24.5996 
G01 X2.5747 Y24.0067 
G01 X2.8616 Y24.2936 
G01 X3.6184 Y24.2936 
G01 X4.1536 Y23.7584 
G01 X4.1536 Y23.0016 
G01 X3.6184 Y22.4664 
G01 X2.8616 Y22.4664 
G00 Z3.0000 
G00 X3.5654 Y24.9032 
G01 Z-0.1100 F500.00 
G01 X3.6612 Y24.9032 F500.00 
G01 X4.2568 Y25.4988 
G01 X4.2568 Y25.5946 
G01 X4.1536 Y25.5946 
G01 X4.1536 Y25.5416 
G01 X3.6184 Y25.0064 
G01 X3.5654 Y25.0064 
G01 X3.5654 Y24.9032 
G00 Z3.0000 
G00 X4.1536 Y26.2454 
G01 Z-0.1100 F500.00 
G01 X4.2568 Y26.2454 F500.00 
G01 X4.2568 Y26.3412 
G01 X3.6309 Y26.9671 
G01 X3.5790 Y27.0189 
G01 X3.5654 Y27.0425 
G01 X3.5654 Y26.8336 
G01 X3.6184 Y26.8336 
G01 X4.1536 Y26.2984 
G01 X4.1536 Y26.2454 
G00 Z3.0000 
G00 X3.5654 Y27.3374 
G01 Z-0.1100 F500.00 
G01 X3.5790 Y27.3611 F500.00 
G01 X4.2568 Y28.0388 
G01 X4.2568 Y28.1346 
G01 X4.1536 Y28.1346 
G01 X4.1536 Y28.0816 
G01 X3.6184 Y27.5464 
G01 X3.5654 Y27.5464 
G01 X3.5654 Y27.3374 
G00 Z3.0000 
G00 X4.1536 Y28.7854 
G01 Z-0.1100 F500.00 
G01 X4.2568 Y28.7854 F500.00 
G01 X4.2568 Y28.8812 
G01 X3.6612 Y29.4768 
G01 X3.5654 Y29.4768 
G01 X3.5654 Y29.3736 
G01 X3.6184 Y29.3736 
G01 X4.1536 Y28.8384 
G01 X4.1536 Y28.7854 
G00 Z3.0000 
G00 X4.1004 Y30.5182 
G01 Z-0.1100 F500.00 
G01 X4.0502 Y30.5182 F500.00 
G01 X3.6184 Y30.0864 
G01 X2.8616 Y30.0864 
G01 X2.3264 Y30.6216 
G01 X2.3264 Y31.3784 
G01 X2.8616 Y31.9136 
G01 X3.6184 Y31.9136 
G01 X4.0502 Y31.4818 
G01 X4.3634 Y31.4818 
G01 X4.4860 Y31.4490 
G01 X4.5958 Y31.3855 
G01 X7.6958 Y28.2855 
G01 X7.7855 Y28.1958 
G01 X7.8490 Y28.0860 
G01 X7.8818 Y27.9634 
G01 X7.8818 Y25.7168 
G01 X7.9824 Y25.6496 
G01 X8.1096 Y25.5224 
G01 X8.1768 Y25.4218 
G01 X11.1032 Y25.4218 
G01 X11.1504 Y25.4924 
G01 X11.2776 Y25.6196 
G01 X11.4272 Y25.7196 
G01 X11.5935 Y25.7885 
G01 X11.7700 Y25.8236 
G01 X11.9500 Y25.8236 
G01 X12.1265 Y25.7885 
G01 X12.2927 Y25.7196 
G01 X12.4424 Y25.6196 
G01 X12.5696 Y25.4924 
G01 X12.6368 Y25.3918 
G01 X15.4364 Y25.3918 
G01 X15.5304 Y25.5324 
G01 X15.6576 Y25.6596 
G01 X15.8072 Y25.7596 
G01 X15.9735 Y25.8285 
G01 X16.1500 Y25.8636 
G01 X16.3300 Y25.8636 
G01 X16.5065 Y25.8285 
G01 X16.6728 Y25.7596 
G01 X16.8224 Y25.6596 
G01 X16.9496 Y25.5324 
G01 X17.0168 Y25.4318 
G01 X20.0800 Y25.4318 
G01 X20.1003 Y25.4809 
G01 X20.2114 Y25.6471 
G01 X20.3528 Y25.7886 
G01 X20.5182 Y25.8990 
G01 X20.5182 Y30.1010 
G01 X20.3528 Y30.2114 
G01 X20.2114 Y30.3528 
G01 X20.1003 Y30.5191 
G01 X20.0238 Y30.7039 
G01 X19.9848 Y30.9000 
G01 X19.9848 Y31.1000 
G01 X20.0238 Y31.2961 
G01 X20.1003 Y31.4809 
G01 X20.2114 Y31.6471 
G01 X20.3528 Y31.7886 
G01 X20.5191 Y31.8997 
G01 X20.7039 Y31.9762 
G01 X20.9000 Y32.0152 
G01 X21.1000 Y32.0152 
G01 X21.2961 Y31.9762 
G01 X21.4809 Y31.8997 
G01 X21.6471 Y31.7886 
G01 X21.7886 Y31.6471 
G01 X21.8997 Y31.4809 
G01 X21.9762 Y31.2961 
G01 X22.0152 Y31.1000 
G01 X22.0152 Y30.9000 
G01 X21.9762 Y30.7039 
G01 X21.8997 Y30.5191 
G01 X21.7886 Y30.3528 
G01 X21.6471 Y30.2114 
G01 X21.4818 Y30.1010 
G01 X21.4818 Y25.8990 
G01 X21.6471 Y25.7886 
G01 X21.7886 Y25.6471 
G01 X21.8997 Y25.4809 
G01 X21.9762 Y25.2961 
G01 X22.0152 Y25.1000 
G01 X22.0152 Y24.9000 
G01 X21.9762 Y24.7039 
G01 X21.8997 Y24.5191 
G01 X21.7886 Y24.3528 
G01 X21.6471 Y24.2114 
G01 X21.4809 Y24.1003 
G01 X21.2961 Y24.0238 
G01 X21.1000 Y23.9848 
G01 X20.9000 Y23.9848 
G01 X20.7039 Y24.0238 
G01 X20.5191 Y24.1003 
G01 X20.3528 Y24.2114 
G01 X20.2114 Y24.3528 
G01 X20.1344 Y24.4682 
G01 X17.4032 Y24.4682 
G01 X18.8855 Y22.9858 
G01 X18.9490 Y22.8760 
G01 X18.9818 Y22.7534 
G01 X18.9818 Y21.1996 
G01 X19.6996 Y20.4818 
G01 X27.5634 Y20.4818 
G01 X27.6860 Y20.4490 
G01 X27.7958 Y20.3855 
G01 X27.8855 Y20.2958 
G01 X28.8855 Y19.2958 
G01 X28.9490 Y19.1860 
G01 X28.9818 Y19.0634 
G01 X28.9818 Y18.8990 
G01 X29.1471 Y18.7886 
G01 X29.2886 Y18.6471 
G01 X29.3990 Y18.4818 
G01 X39.6831 Y18.4818 
G01 X39.7504 Y18.5824 
G01 X39.8776 Y18.7096 
G01 X39.9782 Y18.7768 
G01 X39.9782 Y21.2232 
G01 X39.8776 Y21.2904 
G01 X39.7504 Y21.4176 
G01 X39.6504 Y21.5672 
G01 X39.5815 Y21.7335 
G01 X39.5464 Y21.9100 
G01 X39.5464 Y22.0900 
G01 X39.5815 Y22.2665 
G01 X39.6504 Y22.4327 
G01 X39.7504 Y22.5824 
G01 X39.8776 Y22.7096 
G01 X40.0182 Y22.8036 
G01 X40.0182 Y25.1964 
G01 X39.8776 Y25.2904 
G01 X39.7504 Y25.4176 
G01 X39.6504 Y25.5672 
G01 X39.5815 Y25.7335 
G01 X39.5464 Y25.9100 
G01 X39.5464 Y26.0900 
G01 X39.5815 Y26.2665 
G01 X39.6504 Y26.4327 
G01 X39.7504 Y26.5824 
G01 X39.8776 Y26.7096 
G01 X40.0272 Y26.8096 
G01 X40.1935 Y26.8785 
G01 X40.3700 Y26.9136 
G01 X40.5500 Y26.9136 
G01 X40.7265 Y26.8785 
G01 X40.8927 Y26.8096 
G01 X41.0424 Y26.7096 
G01 X41.1696 Y26.5824 
G01 X41.2696 Y26.4327 
G01 X41.3385 Y26.2665 
G01 X41.3736 Y26.0900 
G01 X41.3736 Y25.9100 
G01 X41.3385 Y25.7335 
G01 X41.2696 Y25.5672 
G01 X41.1696 Y25.4176 
G01 X41.0424 Y25.2904 
G01 X40.9818 Y25.2499 
G01 X40.9818 Y22.7501 
G01 X41.0424 Y22.7096 
G01 X41.1696 Y22.5824 
G01 X41.2696 Y22.4327 
G01 X41.3385 Y22.2665 
G01 X41.3736 Y22.0900 
G01 X41.3736 Y21.9100 
G01 X41.3385 Y21.7335 
G01 X41.2696 Y21.5672 
G01 X41.1696 Y21.4176 
G01 X41.0424 Y21.2904 
G01 X40.9418 Y21.2232 
G01 X40.9418 Y18.7768 
G01 X41.0424 Y18.7096 
G01 X41.1696 Y18.5824 
G01 X41.2696 Y18.4327 
G01 X41.3385 Y18.2665 
G01 X41.3736 Y18.0900 
G01 X41.3736 Y17.9100 
G01 X41.3385 Y17.7335 
G01 X41.2696 Y17.5672 
G01 X41.1696 Y17.4176 
G01 X41.0424 Y17.2904 
G01 X40.9418 Y17.2232 
G01 X40.9418 Y14.7768 
G01 X41.0424 Y14.7096 
G01 X41.1696 Y14.5824 
G01 X41.2696 Y14.4328 
G01 X41.3385 Y14.2665 
G01 X41.3736 Y14.0900 
G01 X41.3736 Y13.9100 
G01 X41.3385 Y13.7335 
G01 X41.2696 Y13.5672 
G01 X41.1696 Y13.4176 
G01 X41.0424 Y13.2904 
G01 X40.8927 Y13.1904 
G01 X40.7265 Y13.1215 
G01 X40.5500 Y13.0864 
G01 X40.3700 Y13.0864 
G01 X40.1935 Y13.1215 
G01 X40.0272 Y13.1904 
G01 X39.8776 Y13.2904 
G01 X39.7504 Y13.4176 
G01 X39.6504 Y13.5672 
G01 X39.5815 Y13.7335 
G01 X39.5464 Y13.9100 
G01 X39.5464 Y14.0900 
G01 X39.5815 Y14.2665 
G01 X39.6504 Y14.4328 
G01 X39.7504 Y14.5824 
G01 X39.8776 Y14.7096 
G01 X39.9782 Y14.7768 
G01 X39.9782 Y17.2232 
G01 X39.8776 Y17.2904 
G01 X39.7504 Y17.4176 
G01 X39.6831 Y17.5182 
G01 X29.3990 Y17.5182 
G01 X29.2886 Y17.3528 
G01 X29.1471 Y17.2114 
G01 X28.9818 Y17.1010 
G01 X28.9818 Y14.9366 
G01 X28.9490 Y14.8140 
G01 X28.8855 Y14.7042 
G01 X22.8855 Y8.7042 
G01 X22.7958 Y8.6145 
G01 X22.6860 Y8.5510 
G01 X22.5634 Y8.5182 
G01 X19.1996 Y8.5182 
G01 X18.3476 Y7.6662 
G01 X18.6144 Y7.3995 
G01 X18.6144 Y6.6005 
G01 X18.0495 Y6.0356 
G01 X17.2505 Y6.0356 
G01 X16.6856 Y6.6005 
G01 X16.6856 Y7.3995 
G01 X17.2505 Y7.9644 
G01 X17.2830 Y7.9644 
G01 X17.3542 Y8.0355 
G01 X18.7042 Y9.3855 
G01 X18.8140 Y9.4490 
G01 X18.9366 Y9.4818 
G01 X22.3004 Y9.4818 
G01 X28.0182 Y15.1996 
G01 X28.0182 Y17.1010 
G01 X27.8528 Y17.2114 
G01 X27.7114 Y17.3528 
G01 X27.6003 Y17.5191 
G01 X27.5238 Y17.7039 
G01 X27.4848 Y17.9000 
G01 X27.4848 Y18.1000 
G01 X27.5238 Y18.2961 
G01 X27.6003 Y18.4809 
G01 X27.7114 Y18.6471 
G01 X27.8528 Y18.7886 
G01 X27.9591 Y18.8595 
G01 X27.3004 Y19.5182 
G01 X19.4366 Y19.5182 
G01 X19.3140 Y19.5510 
G01 X19.2042 Y19.6145 
G01 X18.2042 Y20.6145 
G01 X18.1145 Y20.7042 
G01 X18.0510 Y20.8140 
G01 X18.0182 Y20.9366 
G01 X18.0182 Y22.4904 
G01 X16.4486 Y24.0600 
G01 X16.3300 Y24.0364 
G01 X16.1500 Y24.0364 
G01 X15.9735 Y24.0715 
G01 X15.8072 Y24.1404 
G01 X15.6576 Y24.2404 
G01 X15.5304 Y24.3676 
G01 X15.4899 Y24.4282 
G01 X12.6368 Y24.4282 
G01 X12.5696 Y24.3276 
G01 X12.4424 Y24.2004 
G01 X12.2927 Y24.1004 
G01 X12.1265 Y24.0315 
G01 X11.9500 Y23.9964 
G01 X11.7700 Y23.9964 
G01 X11.5935 Y24.0315 
G01 X11.4272 Y24.1004 
G01 X11.2776 Y24.2004 
G01 X11.1504 Y24.3276 
G01 X11.0631 Y24.4582 
G01 X8.1768 Y24.4582 
G01 X8.1096 Y24.3576 
G01 X7.9824 Y24.2304 
G01 X7.8327 Y24.1304 
G01 X7.6665 Y24.0615 
G01 X7.4900 Y24.0264 
G01 X7.3100 Y24.0264 
G01 X7.1335 Y24.0615 
G01 X6.9672 Y24.1304 
G01 X6.8176 Y24.2304 
G01 X6.6904 Y24.3576 
G01 X6.5904 Y24.5072 
G01 X6.5215 Y24.6735 
G01 X6.4864 Y24.8500 
G01 X6.4864 Y25.0300 
G01 X6.5215 Y25.2065 
G01 X6.5904 Y25.3727 
G01 X6.6904 Y25.5224 
G01 X6.8176 Y25.6496 
G01 X6.9182 Y25.7168 
G01 X6.9182 Y27.7004 
G01 X4.1004 Y30.5182 
G00 Z3.0000 
G00 X3.6184 Y32.6264 
G01 Z-0.1100 F500.00 
G01 X2.8616 Y32.6264 F500.00 
G01 X2.3264 Y33.1616 
G01 X2.3264 Y33.9184 
G01 X2.8616 Y34.4536 
G01 X3.6184 Y34.4536 
G01 X4.1536 Y33.9184 
G01 X4.1536 Y33.1616 
G01 X3.6184 Y32.6264 
G00 Z3.0000 
G00 X3.6184 Y35.1664 
G01 Z-0.1100 F500.00 
G01 X2.8616 Y35.1664 F500.00 
G01 X2.3264 Y35.7016 
G01 X2.3264 Y36.4584 
G01 X2.8616 Y36.9936 
G01 X3.6184 Y36.9936 
G01 X4.1536 Y36.4584 
G01 X4.1536 Y35.7016 
G01 X3.6184 Y35.1664 
G00 Z3.0000 
G00 X11.1462 Y35.4427 
G01 Z-0.1100 F500.00 
G01 X11.6287 Y34.9602 F500.00 
G01 X12.2197 Y34.6190 
G01 X12.8788 Y34.4424 
G01 X13.5612 Y34.4424 
G01 X14.2203 Y34.6190 
G01 X14.8113 Y34.9602 
G01 X15.2938 Y35.4427 
G01 X15.6350 Y36.0337 
G01 X15.8116 Y36.6928 
G01 X15.8116 Y37.3752 
G01 X15.6350 Y38.0343 
G01 X15.2938 Y38.6253 
G01 X14.8113 Y39.1078 
G01 X14.2203 Y39.4490 
G01 X13.5612 Y39.6256 
G01 X12.8788 Y39.6256 
G01 X12.2197 Y39.4490 
G01 X11.6287 Y39.1078 
G01 X11.1462 Y38.6253 
G01 X10.8050 Y38.0343 
G01 X10.6284 Y37.3752 
G01 X10.6284 Y36.6928 
G01 X10.8050 Y36.0337 
G01 X11.1462 Y35.4427 
G00 Z3.0000 
G00 X20.3528 Y34.3286 
G01 Z-0.1100 F500.00 
G01 X20.5191 Y34.4397 F500.00 
G01 X20.7039 Y34.5162 
G01 X20.9000 Y34.5552 
G01 X21.1000 Y34.5552 
G01 X21.2961 Y34.5162 
G01 X21.4809 Y34.4397 
G01 X21.6471 Y34.3286 
G01 X21.7886 Y34.1872 
G01 X21.8990 Y34.0218 
G01 X23.3404 Y34.0218 
G01 X24.6145 Y35.2958 
G01 X24.7042 Y35.3855 
G01 X24.8140 Y35.4490 
G01 X24.9366 Y35.4818 
G01 X26.0057 Y35.4818 
G01 X26.0211 Y35.4921 
G01 X26.1550 Y35.5475 
G01 X26.2971 Y35.5758 
G01 X27.7629 Y35.5758 
G01 X27.9050 Y35.5475 
G01 X28.0389 Y35.4921 
G01 X28.1594 Y35.4115 
G01 X28.2619 Y35.3090 
G01 X28.3425 Y35.1885 
G01 X28.3979 Y35.0546 
G01 X28.4262 Y34.9125 
G01 X28.4262 Y34.7675 
G01 X28.3979 Y34.6254 
G01 X28.3425 Y34.4915 
G01 X28.2619 Y34.3710 
G01 X28.1594 Y34.2685 
G01 X28.0389 Y34.1879 
G01 X27.9050 Y34.1325 
G01 X27.7629 Y34.1042 
G01 X26.2971 Y34.1042 
G01 X26.1550 Y34.1325 
G01 X26.0211 Y34.1879 
G01 X25.9006 Y34.2685 
G01 X25.7981 Y34.3710 
G01 X25.7175 Y34.4915 
G01 X25.7065 Y34.5182 
G01 X25.1996 Y34.5182 
G01 X23.8358 Y33.1545 
G01 X23.7260 Y33.0910 
G01 X23.6034 Y33.0582 
G01 X21.8990 Y33.0582 
G01 X21.7886 Y32.8928 
G01 X21.6471 Y32.7514 
G01 X21.4809 Y32.6403 
G01 X21.2961 Y32.5638 
G01 X21.1000 Y32.5248 
G01 X20.9000 Y32.5248 
G01 X20.7039 Y32.5638 
G01 X20.5191 Y32.6403 
G01 X20.3528 Y32.7514 
G01 X20.2114 Y32.8928 
G01 X20.1003 Y33.0591 
G01 X20.0238 Y33.2439 
G01 X19.9848 Y33.4400 
G01 X19.9848 Y33.6400 
G01 X20.0238 Y33.8361 
G01 X20.1003 Y34.0209 
G01 X20.2114 Y34.1872 
G01 X20.3528 Y34.3286 
G00 Z3.0000 
G00 X25.7014 Y32.7465 
G01 Z-0.1100 F500.00 
G01 X25.5814 Y32.4568 F500.00 
G01 X25.5814 Y32.1432 
G01 X25.7014 Y31.8535 
G01 X25.9231 Y31.6318 
G01 X26.2128 Y31.5118 
G01 X27.8472 Y31.5118 
G01 X28.1369 Y31.6318 
G01 X28.1633 Y31.6583 
G01 X28.2152 Y31.7101 
G01 X28.2787 Y31.7468 
G01 X28.3496 Y31.7658 
G01 X32.7657 Y31.7658 
G01 X32.8365 Y31.7468 
G01 X32.9000 Y31.7101 
G01 X33.2153 Y31.3949 
G01 X33.6076 Y31.2324 
G01 X34.0324 Y31.2324 
G01 X34.4247 Y31.3949 
G01 X34.7251 Y31.6953 
G01 X34.8876 Y32.0876 
G01 X34.8876 Y32.5124 
G01 X34.7251 Y32.9047 
G01 X34.4247 Y33.2051 
G01 X34.0324 Y33.3676 
G01 X33.6076 Y33.3676 
G01 X33.2153 Y33.2051 
G01 X32.9519 Y32.9417 
G01 X32.9000 Y32.8899 
G01 X32.8365 Y32.8532 
G01 X32.7657 Y32.8342 
G01 X28.3496 Y32.8342 
G01 X28.2787 Y32.8532 
G01 X28.2152 Y32.8899 
G01 X28.1369 Y32.9682 
G01 X27.8472 Y33.0882 
G01 X26.2128 Y33.0882 
G01 X25.9231 Y32.9682 
G01 X25.7014 Y32.7465 
G00 Z3.0000 
G00 X25.7175 Y32.6485 
G01 Z-0.1100 F500.00 
G01 X25.7981 Y32.7690 F500.00 
G01 X25.9006 Y32.8715 
G01 X26.0211 Y32.9521 
G01 X26.1550 Y33.0075 
G01 X26.2971 Y33.0358 
G01 X27.7629 Y33.0358 
G01 X27.9050 Y33.0075 
G01 X28.0389 Y32.9521 
G01 X28.1594 Y32.8715 
G01 X28.2492 Y32.7818 
G01 X32.9210 Y32.7818 
G01 X33.0314 Y32.9472 
G01 X33.1728 Y33.0886 
G01 X33.3391 Y33.1997 
G01 X33.5239 Y33.2762 
G01 X33.7200 Y33.3152 
G01 X33.9200 Y33.3152 
G01 X34.1161 Y33.2762 
G01 X34.3009 Y33.1997 
G01 X34.4671 Y33.0886 
G01 X34.6086 Y32.9472 
G01 X34.7197 Y32.7809 
G01 X34.7962 Y32.5961 
G01 X34.8352 Y32.4000 
G01 X34.8352 Y32.2000 
G01 X34.7962 Y32.0039 
G01 X34.7197 Y31.8191 
G01 X34.6086 Y31.6528 
G01 X34.4671 Y31.5114 
G01 X34.3009 Y31.4003 
G01 X34.1161 Y31.3238 
G01 X33.9200 Y31.2848 
G01 X33.7200 Y31.2848 
G01 X33.5239 Y31.3238 
G01 X33.3391 Y31.4003 
G01 X33.1728 Y31.5114 
G01 X33.0314 Y31.6528 
G01 X32.9210 Y31.8182 
G01 X28.2492 Y31.8182 
G01 X28.1594 Y31.7285 
G01 X28.0389 Y31.6479 
G01 X27.9050 Y31.5925 
G01 X27.7629 Y31.5642 
G01 X26.2971 Y31.5642 
G01 X26.1550 Y31.5925 
G01 X26.0211 Y31.6479 
G01 X25.9006 Y31.7285 
G01 X25.7981 Y31.8310 
G01 X25.7175 Y31.9515 
G01 X25.6621 Y32.0854 
G01 X25.6338 Y32.2275 
G01 X25.6338 Y32.3725 
G01 X25.6621 Y32.5146 
G01 X25.7175 Y32.6485 
G00 Z3.0000 
G00 X25.7296 Y30.3066 
G01 Z-0.1100 F500.00 
G01 X25.6520 Y30.1997 F500.00 
G01 X25.5921 Y30.0821 
G01 X25.5779 Y30.0386 
G01 X25.6886 Y30.0386 
G01 X25.7175 Y30.1085 
G01 X25.7981 Y30.2290 
G01 X25.9006 Y30.3315 
G01 X26.0211 Y30.4121 
G01 X26.1550 Y30.4675 
G01 X26.2971 Y30.4958 
G01 X26.7514 Y30.4958 
G01 X26.7514 Y30.5990 
G01 X26.3036 Y30.5990 
G01 X26.1731 Y30.5783 
G01 X26.0475 Y30.5375 
G01 X25.9299 Y30.4776 
G01 X25.8230 Y30.4000 
G01 X25.7296 Y30.3066 
G00 Z3.0000 
G00 X25.6886 Y29.4814 
G01 Z-0.1100 F500.00 
G01 X25.5779 Y29.4814 F500.00 
G01 X25.5921 Y29.4379 
G01 X25.6520 Y29.3203 
G01 X25.7296 Y29.2134 
G01 X25.8230 Y29.1200 
G01 X25.9299 Y29.0424 
G01 X26.0475 Y28.9825 
G01 X26.1731 Y28.9417 
G01 X26.3036 Y28.9210 
G01 X26.4038 Y28.9210 
G01 X26.4184 Y28.9233 
G01 X26.4403 Y28.9210 
G01 X26.4624 Y28.9210 
G01 X26.4766 Y28.9172 
G01 X26.4913 Y28.9156 
G01 X26.5119 Y28.9077 
G01 X26.5332 Y28.9020 
G01 X26.5460 Y28.8946 
G01 X26.5598 Y28.8893 
G01 X26.5776 Y28.8764 
G01 X26.5968 Y28.8653 
G01 X26.6072 Y28.8549 
G01 X26.6191 Y28.8462 
G01 X26.6330 Y28.8291 
G01 X26.6486 Y28.8135 
G01 X26.6560 Y28.8007 
G01 X26.6653 Y28.7892 
G01 X26.6743 Y28.7691 
G01 X26.6853 Y28.7499 
G01 X26.6891 Y28.7357 
G01 X26.6951 Y28.7222 
G01 X26.6986 Y28.7004 
G01 X26.7043 Y28.6791 
G01 X26.7043 Y28.6643 
G01 X26.7066 Y28.6497 
G01 X26.7043 Y28.6278 
G01 X26.7043 Y28.6057 
G01 X26.7005 Y28.5915 
G01 X26.6989 Y28.5768 
G01 X26.6910 Y28.5562 
G01 X26.6853 Y28.5349 
G01 X26.6779 Y28.5221 
G01 X26.6727 Y28.5083 
G01 X26.6597 Y28.4905 
G01 X26.6486 Y28.4713 
G01 X26.6382 Y28.4609 
G01 X26.6295 Y28.4490 
G01 X26.6124 Y28.4351 
G01 X26.5968 Y28.4195 
G01 X26.5840 Y28.4121 
G01 X26.5725 Y28.4028 
G01 X26.5524 Y28.3938 
G01 X26.5332 Y28.3828 
G01 X26.5190 Y28.3790 
G01 X26.5055 Y28.3730 
G01 X26.4837 Y28.3695 
G01 X26.4624 Y28.3638 
G01 X26.4476 Y28.3638 
G01 X26.4131 Y28.3583 
G01 X26.2875 Y28.3175 
G01 X26.1699 Y28.2576 
G01 X26.0630 Y28.1800 
G01 X25.9696 Y28.0866 
G01 X25.8920 Y27.9797 
G01 X25.8321 Y27.8621 
G01 X25.8179 Y27.8186 
G01 X25.9286 Y27.8186 
G01 X25.9575 Y27.8885 
G01 X26.0381 Y28.0090 
G01 X26.1406 Y28.1115 
G01 X26.2611 Y28.1921 
G01 X26.3950 Y28.2475 
G01 X26.5371 Y28.2758 
G01 X28.0029 Y28.2758 
G01 X28.1450 Y28.2475 
G01 X28.2789 Y28.1921 
G01 X28.3994 Y28.1115 
G01 X28.5019 Y28.0090 
G01 X28.5825 Y27.8885 
G01 X28.6114 Y27.8186 
G01 X28.7220 Y27.8186 
G01 X28.7079 Y27.8621 
G01 X28.6480 Y27.9797 
G01 X28.5704 Y28.0866 
G01 X28.4770 Y28.1800 
G01 X28.3701 Y28.2576 
G01 X28.2525 Y28.3175 
G01 X28.1269 Y28.3583 
G01 X27.9964 Y28.3790 
G01 X27.8962 Y28.3790 
G01 X27.8816 Y28.3767 
G01 X27.8597 Y28.3790 
G01 X27.8376 Y28.3790 
G01 X27.8234 Y28.3828 
G01 X27.8087 Y28.3844 
G01 X27.7881 Y28.3923 
G01 X27.7668 Y28.3980 
G01 X27.7540 Y28.4054 
G01 X27.7402 Y28.4107 
G01 X27.7223 Y28.4236 
G01 X27.7032 Y28.4347 
G01 X27.6928 Y28.4451 
G01 X27.6809 Y28.4538 
G01 X27.6670 Y28.4709 
G01 X27.6514 Y28.4865 
G01 X27.6440 Y28.4993 
G01 X27.6347 Y28.5108 
G01 X27.6257 Y28.5309 
G01 X27.6147 Y28.5501 
G01 X27.6109 Y28.5643 
G01 X27.6049 Y28.5778 
G01 X27.6014 Y28.5996 
G01 X27.5957 Y28.6209 
G01 X27.5957 Y28.6357 
G01 X27.5934 Y28.6502 
G01 X27.5957 Y28.6722 
G01 X27.5957 Y28.6943 
G01 X27.5995 Y28.7085 
G01 X27.6011 Y28.7232 
G01 X27.6090 Y28.7438 
G01 X27.6147 Y28.7651 
G01 X27.6221 Y28.7779 
G01 X27.6273 Y28.7917 
G01 X27.6403 Y28.8095 
G01 X27.6514 Y28.8287 
G01 X27.6618 Y28.8391 
G01 X27.6705 Y28.8510 
G01 X27.6876 Y28.8649 
G01 X27.7032 Y28.8805 
G01 X27.7160 Y28.8879 
G01 X27.7275 Y28.8972 
G01 X27.7476 Y28.9062 
G01 X27.7668 Y28.9172 
G01 X27.7810 Y28.9210 
G01 X27.7945 Y28.9270 
G01 X27.8163 Y28.9305 
G01 X27.8376 Y28.9362 
G01 X27.8524 Y28.9362 
G01 X27.8869 Y28.9417 
G01 X28.0125 Y28.9825 
G01 X28.1301 Y29.0424 
G01 X28.2370 Y29.1200 
G01 X28.3304 Y29.2134 
G01 X28.4080 Y29.3203 
G01 X28.4679 Y29.4379 
G01 X28.4820 Y29.4814 
G01 X28.3714 Y29.4814 
G01 X28.3425 Y29.4115 
G01 X28.2619 Y29.2910 
G01 X28.1594 Y29.1885 
G01 X28.0389 Y29.1079 
G01 X27.9050 Y29.0525 
G01 X27.7629 Y29.0242 
G01 X26.2971 Y29.0242 
G01 X26.1550 Y29.0525 
G01 X26.0211 Y29.1079 
G01 X25.9006 Y29.1885 
G01 X25.7981 Y29.2910 
G01 X25.7175 Y29.4115 
G01 X25.6886 Y29.4814 
G00 Z3.0000 
G00 X25.8179 Y27.2614 
G01 Z-0.1100 F500.00 
G01 X25.8321 Y27.2179 F500.00 
G01 X25.8920 Y27.1003 
G01 X25.9696 Y26.9934 
G01 X26.0630 Y26.9000 
G01 X26.1699 Y26.8224 
G01 X26.2875 Y26.7625 
G01 X26.4131 Y26.7217 
G01 X26.5436 Y26.7010 
G01 X26.9914 Y26.7010 
G01 X26.9914 Y26.8042 
G01 X26.5371 Y26.8042 
G01 X26.3950 Y26.8325 
G01 X26.2611 Y26.8879 
G01 X26.1406 Y26.9685 
G01 X26.0381 Y27.0710 
G01 X25.9575 Y27.1915 
G01 X25.9286 Y27.2614 
G01 X25.8179 Y27.2614 
G00 Z3.0000 
G00 X25.9414 Y25.4465 
G01 Z-0.1100 F500.00 
G01 X25.8214 Y25.1568 F500.00 
G01 X25.8214 Y24.8432 
G01 X25.9414 Y24.5535 
G01 X26.1631 Y24.3318 
G01 X26.4528 Y24.2118 
G01 X28.0872 Y24.2118 
G01 X28.3769 Y24.3318 
G01 X28.4033 Y24.3583 
G01 X28.4552 Y24.4101 
G01 X28.5187 Y24.4468 
G01 X28.5896 Y24.4658 
G01 X31.1063 Y24.4658 
G01 X31.3026 Y24.5471 
G01 X34.2375 Y27.4820 
G01 X34.4529 Y27.6974 
G01 X34.5342 Y27.8937 
G01 X34.5342 Y28.6523 
G01 X34.5342 Y28.7257 
G01 X34.5532 Y28.7965 
G01 X34.5899 Y28.8600 
G01 X34.7251 Y28.9953 
G01 X34.8876 Y29.3876 
G01 X34.8876 Y29.8124 
G01 X34.7251 Y30.2047 
G01 X34.4247 Y30.5051 
G01 X34.0324 Y30.6676 
G01 X33.6076 Y30.6676 
G01 X33.2153 Y30.5051 
G01 X32.9149 Y30.2047 
G01 X32.7524 Y29.8124 
G01 X32.7524 Y29.3876 
G01 X32.9149 Y28.9953 
G01 X33.2153 Y28.6949 
G01 X33.2769 Y28.6694 
G01 X33.2947 Y28.6646 
G01 X33.3107 Y28.6554 
G01 X33.3277 Y28.6484 
G01 X33.3423 Y28.6371 
G01 X33.3583 Y28.6279 
G01 X33.3713 Y28.6149 
G01 X33.3859 Y28.6037 
G01 X33.3971 Y28.5891 
G01 X33.4101 Y28.5761 
G01 X33.4194 Y28.5601 
G01 X33.4306 Y28.5455 
G01 X33.4376 Y28.5285 
G01 X33.4468 Y28.5125 
G01 X33.4516 Y28.4947 
G01 X33.4586 Y28.4777 
G01 X33.4610 Y28.4595 
G01 X33.4658 Y28.4417 
G01 X33.4658 Y28.4232 
G01 X33.4682 Y28.4050 
G01 X33.4658 Y28.3867 
G01 X33.4658 Y28.3000 
G01 X33.4468 Y28.2291 
G01 X33.4101 Y28.1656 
G01 X30.8344 Y25.5899 
G01 X30.7709 Y25.5532 
G01 X30.7000 Y25.5342 
G01 X28.5896 Y25.5342 
G01 X28.5187 Y25.5532 
G01 X28.4552 Y25.5899 
G01 X28.3769 Y25.6682 
G01 X28.0872 Y25.7882 
G01 X26.4528 Y25.7882 
G01 X26.1631 Y25.6682 
G01 X25.9414 Y25.4465 
G00 Z3.0000 
G00 X25.9575 Y25.3485 
G01 Z-0.1100 F500.00 
G01 X26.0381 Y25.4690 F500.00 
G01 X26.1406 Y25.5715 
G01 X26.2611 Y25.6521 
G01 X26.3950 Y25.7075 
G01 X26.5371 Y25.7358 
G01 X28.0029 Y25.7358 
G01 X28.1450 Y25.7075 
G01 X28.2789 Y25.6521 
G01 X28.3994 Y25.5715 
G01 X28.4892 Y25.4818 
G01 X30.8004 Y25.4818 
G01 X33.5182 Y28.1996 
G01 X33.5182 Y28.6262 
G01 X33.3391 Y28.7003 
G01 X33.1728 Y28.8114 
G01 X33.0314 Y28.9528 
G01 X32.9203 Y29.1191 
G01 X32.8438 Y29.3039 
G01 X32.8048 Y29.5000 
G01 X32.8048 Y29.7000 
G01 X32.8438 Y29.8961 
G01 X32.9203 Y30.0809 
G01 X33.0314 Y30.2472 
G01 X33.1728 Y30.3886 
G01 X33.3391 Y30.4997 
G01 X33.5239 Y30.5762 
G01 X33.7200 Y30.6152 
G01 X33.9200 Y30.6152 
G01 X34.1161 Y30.5762 
G01 X34.3009 Y30.4997 
G01 X34.4671 Y30.3886 
G01 X34.6086 Y30.2472 
G01 X34.7197 Y30.0809 
G01 X34.7962 Y29.8961 
G01 X34.8352 Y29.7000 
G01 X34.8352 Y29.5000 
G01 X34.7962 Y29.3039 
G01 X34.7197 Y29.1191 
G01 X34.6086 Y28.9528 
G01 X34.4818 Y28.8261 
G01 X34.4818 Y27.9366 
G01 X34.4490 Y27.8140 
G01 X34.3855 Y27.7042 
G01 X34.2958 Y27.6145 
G01 X31.2958 Y24.6145 
G01 X31.1860 Y24.5510 
G01 X31.0634 Y24.5182 
G01 X28.4892 Y24.5182 
G01 X28.3994 Y24.4285 
G01 X28.2789 Y24.3479 
G01 X28.1450 Y24.2925 
G01 X28.0029 Y24.2642 
G01 X26.5371 Y24.2642 
G01 X26.3950 Y24.2925 
G01 X26.2611 Y24.3479 
G01 X26.1406 Y24.4285 
G01 X26.0381 Y24.5310 
G01 X25.9575 Y24.6515 
G01 X25.9021 Y24.7854 
G01 X25.8738 Y24.9275 
G01 X25.8738 Y25.0725 
G01 X25.9021 Y25.2146 
G01 X25.9575 Y25.3485 
G00 Z3.0000 
G00 X26.1406 Y23.0315 
G01 Z-0.1100 F500.00 
G01 X26.2611 Y23.1121 F500.00 
G01 X26.3950 Y23.1675 
G01 X26.5371 Y23.1958 
G01 X28.0029 Y23.1958 
G01 X28.1450 Y23.1675 
G01 X28.2789 Y23.1121 
G01 X28.3994 Y23.0315 
G01 X28.5019 Y22.9290 
G01 X28.5825 Y22.8085 
G01 X28.6379 Y22.6746 
G01 X28.6662 Y22.5325 
G01 X28.6662 Y22.3875 
G01 X28.6379 Y22.2454 
G01 X28.5825 Y22.1115 
G01 X28.5019 Y21.9910 
G01 X28.3994 Y21.8885 
G01 X28.2789 Y21.8079 
G01 X28.1450 Y21.7525 
G01 X28.0029 Y21.7242 
G01 X26.5371 Y21.7242 
G01 X26.3950 Y21.7525 
G01 X26.2611 Y21.8079 
G01 X26.1406 Y21.8885 
G01 X26.0508 Y21.9782 
G01 X21.8990 Y21.9782 
G01 X21.7886 Y21.8128 
G01 X21.6471 Y21.6714 
G01 X21.4809 Y21.5603 
G01 X21.2961 Y21.4838 
G01 X21.1000 Y21.4448 
G01 X20.9000 Y21.4448 
G01 X20.7039 Y21.4838 
G01 X20.5191 Y21.5603 
G01 X20.3528 Y21.6714 
G01 X20.2114 Y21.8128 
G01 X20.1003 Y21.9791 
G01 X20.0238 Y22.1639 
G01 X19.9848 Y22.3600 
G01 X19.9848 Y22.5600 
G01 X20.0238 Y22.7561 
G01 X20.1003 Y22.9409 
G01 X20.2114 Y23.1072 
G01 X20.3528 Y23.2486 
G01 X20.5191 Y23.3597 
G01 X20.7039 Y23.4362 
G01 X20.9000 Y23.4752 
G01 X21.1000 Y23.4752 
G01 X21.2961 Y23.4362 
G01 X21.4809 Y23.3597 
G01 X21.6471 Y23.2486 
G01 X21.7886 Y23.1072 
G01 X21.8990 Y22.9418 
G01 X26.0508 Y22.9418 
G01 X26.1406 Y23.0315 
G00 Z3.0000 
G00 X26.0600 Y19.0152 
G01 Z-0.1100 F500.00 
G01 X26.2561 Y18.9762 F500.00 
G01 X26.4409 Y18.8997 
G01 X26.6072 Y18.7886 
G01 X26.7486 Y18.6471 
G01 X26.8597 Y18.4809 
G01 X26.9362 Y18.2961 
G01 X26.9752 Y18.1000 
G01 X26.9752 Y17.9000 
G01 X26.9362 Y17.7039 
G01 X26.8597 Y17.5191 
G01 X26.7486 Y17.3528 
G01 X26.6072 Y17.2114 
G01 X26.4409 Y17.1003 
G01 X26.2561 Y17.0238 
G01 X26.0600 Y16.9848 
G01 X25.8600 Y16.9848 
G01 X25.6639 Y17.0238 
G01 X25.4791 Y17.1003 
G01 X25.3128 Y17.2114 
G01 X25.1714 Y17.3528 
G01 X25.0610 Y17.5182 
G01 X23.1996 Y17.5182 
G01 X22.7518 Y17.0704 
G01 X22.7518 Y14.9292 
G01 X22.8415 Y14.8394 
G01 X22.9221 Y14.7189 
G01 X22.9775 Y14.5850 
G01 X23.0058 Y14.4429 
G01 X23.0058 Y12.9771 
G01 X22.9775 Y12.8350 
G01 X22.9221 Y12.7011 
G01 X22.8415 Y12.5806 
G01 X22.7390 Y12.4781 
G01 X22.6185 Y12.3975 
G01 X22.4846 Y12.3421 
G01 X22.3425 Y12.3138 
G01 X22.1975 Y12.3138 
G01 X22.0554 Y12.3421 
G01 X21.9215 Y12.3975 
G01 X21.8010 Y12.4781 
G01 X21.6985 Y12.5806 
G01 X21.6179 Y12.7011 
G01 X21.5625 Y12.8350 
G01 X21.5342 Y12.9771 
G01 X21.5342 Y14.4429 
G01 X21.5625 Y14.5850 
G01 X21.6179 Y14.7189 
G01 X21.6985 Y14.8394 
G01 X21.7882 Y14.9292 
G01 X21.7882 Y17.3334 
G01 X21.8210 Y17.4560 
G01 X21.8845 Y17.5658 
G01 X22.6145 Y18.2958 
G01 X22.7042 Y18.3855 
G01 X22.8140 Y18.4490 
G01 X22.9366 Y18.4818 
G01 X25.0610 Y18.4818 
G01 X25.1714 Y18.6471 
G01 X25.3128 Y18.7886 
G01 X25.4791 Y18.8997 
G01 X25.6639 Y18.9762 
G01 X25.8600 Y19.0152 
G01 X26.0600 Y19.0152 
G00 Z3.0000 
G00 X27.5486 Y26.7010 
G01 Z-0.1100 F500.00 
G01 X27.9964 Y26.7010 F500.00 
G01 X28.1269 Y26.7217 
G01 X28.2525 Y26.7625 
G01 X28.3701 Y26.8224 
G01 X28.4770 Y26.9000 
G01 X28.5704 Y26.9934 
G01 X28.6480 Y27.1003 
G01 X28.7079 Y27.2179 
G01 X28.7220 Y27.2614 
G01 X28.6114 Y27.2614 
G01 X28.5825 Y27.1915 
G01 X28.5019 Y27.0710 
G01 X28.3994 Y26.9685 
G01 X28.2789 Y26.8879 
G01 X28.1450 Y26.8325 
G01 X28.0029 Y26.8042 
G01 X27.5486 Y26.8042 
G01 X27.5486 Y26.7010 
G00 Z3.0000 
G00 X27.7629 Y30.4958 
G01 Z-0.1100 F500.00 
G01 X27.9050 Y30.4675 F500.00 
G01 X28.0389 Y30.4121 
G01 X28.1594 Y30.3315 
G01 X28.2619 Y30.2290 
G01 X28.3425 Y30.1085 
G01 X28.3714 Y30.0386 
G01 X28.4821 Y30.0386 
G01 X28.4679 Y30.0821 
G01 X28.4080 Y30.1997 
G01 X28.3304 Y30.3066 
G01 X28.2370 Y30.4000 
G01 X28.1301 Y30.4776 
G01 X28.0125 Y30.5375 
G01 X27.8869 Y30.5783 
G01 X27.7564 Y30.5990 
G01 X27.3086 Y30.5990 
G01 X27.3086 Y30.4958 
G01 X27.7629 Y30.4958 
G00 Z3.0000 
G00 X43.0749 Y30.2047 
G01 Z-0.1100 F500.00 
G01 X42.9124 Y29.8124 F500.00 
G01 X42.9124 Y29.3876 
G01 X43.0749 Y28.9953 
G01 X43.3753 Y28.6949 
G01 X43.7676 Y28.5324 
G01 X44.1924 Y28.5324 
G01 X44.5847 Y28.6949 
G01 X44.8481 Y28.9583 
G01 X44.8999 Y29.0101 
G01 X44.9635 Y29.0468 
G01 X45.0343 Y29.0658 
G01 X45.7000 Y29.0658 
G01 X45.7709 Y29.0468 
G01 X45.8344 Y29.0101 
G01 X47.8534 Y26.9911 
G01 X48.0497 Y26.9098 
G01 X50.5894 Y26.9098 
G01 X50.6602 Y26.8908 
G01 X50.7237 Y26.8541 
G01 X50.7756 Y26.8023 
G01 X51.0999 Y26.4780 
G01 X51.9001 Y26.4780 
G01 X52.4660 Y27.0439 
G01 X52.4660 Y27.8441 
G01 X51.9001 Y28.4100 
G01 X51.0999 Y28.4100 
G01 X50.7756 Y28.0857 
G01 X50.7237 Y28.0339 
G01 X50.6602 Y27.9972 
G01 X50.5894 Y27.9782 
G01 X48.4560 Y27.9782 
G01 X48.3851 Y27.9972 
G01 X48.3216 Y28.0339 
G01 X46.5180 Y29.8375 
G01 X46.3026 Y30.0529 
G01 X46.1063 Y30.1342 
G01 X45.0343 Y30.1342 
G01 X44.9635 Y30.1532 
G01 X44.8999 Y30.1899 
G01 X44.8481 Y30.2417 
G01 X44.5847 Y30.5051 
G01 X44.1924 Y30.6676 
G01 X43.7676 Y30.6676 
G01 X43.3753 Y30.5051 
G01 X43.0749 Y30.2047 
G00 Z3.0000 
G00 X43.0803 Y30.0809 
G01 Z-0.1100 F500.00 
G01 X43.1914 Y30.2472 F500.00 
G01 X43.3328 Y30.3886 
G01 X43.4991 Y30.4997 
G01 X43.6839 Y30.5762 
G01 X43.8800 Y30.6152 
G01 X44.0800 Y30.6152 
G01 X44.2761 Y30.5762 
G01 X44.4609 Y30.4997 
G01 X44.6272 Y30.3886 
G01 X44.7686 Y30.2472 
G01 X44.8790 Y30.0818 
G01 X46.0634 Y30.0818 
G01 X46.1860 Y30.0490 
G01 X46.2958 Y29.9855 
G01 X46.3855 Y29.8958 
G01 X48.3556 Y27.9258 
G01 X50.6898 Y27.9258 
G01 X51.1216 Y28.3576 
G01 X51.8784 Y28.3576 
G01 X52.4136 Y27.8224 
G01 X52.4136 Y27.0656 
G01 X51.8784 Y26.5304 
G01 X51.1216 Y26.5304 
G01 X50.6898 Y26.9622 
G01 X48.0926 Y26.9622 
G01 X47.9700 Y26.9950 
G01 X47.8602 Y27.0585 
G01 X45.8004 Y29.1182 
G01 X44.8790 Y29.1182 
G01 X44.7686 Y28.9528 
G01 X44.6272 Y28.8114 
G01 X44.4609 Y28.7003 
G01 X44.2761 Y28.6238 
G01 X44.0800 Y28.5848 
G01 X43.8800 Y28.5848 
G01 X43.6839 Y28.6238 
G01 X43.4991 Y28.7003 
G01 X43.3328 Y28.8114 
G01 X43.1914 Y28.9528 
G01 X43.0803 Y29.1191 
G01 X43.0038 Y29.3039 
G01 X42.9648 Y29.5000 
G01 X42.9648 Y29.7000 
G01 X43.0038 Y29.8961 
G01 X43.0803 Y30.0809 
G00 Z3.0000 
G00 X43.3753 Y31.3949 
G01 Z-0.1100 F500.00 
G01 X43.7676 Y31.2324 F500.00 
G01 X44.1924 Y31.2324 
G01 X44.5847 Y31.3949 
G01 X44.8481 Y31.6583 
G01 X44.8999 Y31.7101 
G01 X44.9635 Y31.7468 
G01 X45.0343 Y31.7658 
G01 X45.5000 Y31.7658 
G01 X45.5709 Y31.7468 
G01 X45.6344 Y31.7101 
G01 X47.8134 Y29.5311 
G01 X48.0097 Y29.4498 
G01 X50.5894 Y29.4498 
G01 X50.6602 Y29.4308 
G01 X50.7237 Y29.3941 
G01 X50.7756 Y29.3423 
G01 X51.0999 Y29.0180 
G01 X51.9001 Y29.0180 
G01 X52.4660 Y29.5839 
G01 X52.4660 Y30.3841 
G01 X51.9001 Y30.9500 
G01 X51.0999 Y30.9500 
G01 X50.7756 Y30.6257 
G01 X50.7237 Y30.5739 
G01 X50.6602 Y30.5372 
G01 X50.5894 Y30.5182 
G01 X48.4160 Y30.5182 
G01 X48.3451 Y30.5372 
G01 X48.2816 Y30.5739 
G01 X46.3180 Y32.5375 
G01 X46.1026 Y32.7529 
G01 X45.9063 Y32.8342 
G01 X45.0343 Y32.8342 
G01 X44.9635 Y32.8532 
G01 X44.8999 Y32.8899 
G01 X44.5847 Y33.2051 
G01 X44.1924 Y33.3676 
G01 X43.7676 Y33.3676 
G01 X43.3753 Y33.2051 
G01 X43.0749 Y32.9047 
G01 X42.9124 Y32.5124 
G01 X42.9124 Y32.0876 
G01 X43.0749 Y31.6953 
G01 X43.3753 Y31.3949 
G00 Z3.0000 
G00 X43.4991 Y31.4003 
G01 Z-0.1100 F500.00 
G01 X43.3328 Y31.5114 F500.00 
G01 X43.1914 Y31.6528 
G01 X43.0803 Y31.8191 
G01 X43.0038 Y32.0039 
G01 X42.9648 Y32.2000 
G01 X42.9648 Y32.4000 
G01 X43.0038 Y32.5961 
G01 X43.0803 Y32.7809 
G01 X43.1914 Y32.9472 
G01 X43.3328 Y33.0886 
G01 X43.4991 Y33.1997 
G01 X43.6839 Y33.2762 
G01 X43.8800 Y33.3152 
G01 X44.0800 Y33.3152 
G01 X44.2761 Y33.2762 
G01 X44.4609 Y33.1997 
G01 X44.6272 Y33.0886 
G01 X44.7686 Y32.9472 
G01 X44.8790 Y32.7818 
G01 X45.8634 Y32.7818 
G01 X45.9860 Y32.7490 
G01 X46.0958 Y32.6855 
G01 X46.1855 Y32.5958 
G01 X48.3156 Y30.4658 
G01 X50.6898 Y30.4658 
G01 X51.1216 Y30.8976 
G01 X51.8784 Y30.8976 
G01 X52.4136 Y30.3624 
G01 X52.4136 Y29.6056 
G01 X51.8784 Y29.0704 
G01 X51.1216 Y29.0704 
G01 X50.6898 Y29.5022 
G01 X48.0526 Y29.5022 
G01 X47.9300 Y29.5350 
G01 X47.8202 Y29.5985 
G01 X45.6004 Y31.8182 
G01 X44.8790 Y31.8182 
G01 X44.7686 Y31.6528 
G01 X44.6272 Y31.5114 
G01 X44.4609 Y31.4003 
G01 X44.2761 Y31.3238 
G01 X44.0800 Y31.2848 
G01 X43.8800 Y31.2848 
G01 X43.6839 Y31.3238 
G01 X43.4991 Y31.4003 
G00 Z3.0000 
G00 X43.5472 Y26.8189 
G01 Z-0.1100 F500.00 
G01 X43.1921 Y26.9660 F500.00 
G01 X42.8078 Y26.9660 
G01 X42.4528 Y26.8189 
G01 X42.1811 Y26.5472 
G01 X42.0340 Y26.1922 
G01 X42.0340 Y25.8078 
G01 X42.1811 Y25.4528 
G01 X42.4528 Y25.1811 
G01 X42.8078 Y25.0340 
G01 X43.1318 Y25.0340 
G01 X43.2027 Y25.0150 
G01 X43.2662 Y24.9783 
G01 X44.6974 Y23.5471 
G01 X44.8937 Y23.4658 
G01 X44.9874 Y23.4658 
G01 X44.9946 Y23.4673 
G01 X45.0239 Y23.4658 
G01 X45.0533 Y23.4658 
G01 X45.0605 Y23.4639 
G01 X45.0679 Y23.4635 
G01 X45.0958 Y23.4544 
G01 X45.1242 Y23.4468 
G01 X45.1306 Y23.4431 
G01 X45.1376 Y23.4408 
G01 X45.1622 Y23.4248 
G01 X45.1877 Y23.4101 
G01 X45.1930 Y23.4049 
G01 X45.1992 Y23.4009 
G01 X45.2188 Y23.3791 
G01 X45.2396 Y23.3583 
G01 X45.2433 Y23.3518 
G01 X45.2482 Y23.3464 
G01 X45.2616 Y23.3202 
G01 X45.2763 Y23.2947 
G01 X45.2782 Y23.2876 
G01 X45.2815 Y23.2810 
G01 X45.2876 Y23.2523 
G01 X45.2953 Y23.2239 
G01 X45.2953 Y23.2165 
G01 X45.2968 Y23.2092 
G01 X45.2953 Y23.1799 
G01 X45.2953 Y23.1505 
G01 X45.2933 Y23.1434 
G01 X45.2929 Y23.1360 
G01 X45.2839 Y23.1081 
G01 X45.2763 Y23.0797 
G01 X45.2726 Y23.0733 
G01 X45.2703 Y23.0662 
G01 X45.2543 Y23.0416 
G01 X45.2396 Y23.0161 
G01 X45.2343 Y23.0109 
G01 X45.2303 Y23.0047 
G01 X45.2085 Y22.9851 
G01 X45.1877 Y22.9643 
G01 X45.1813 Y22.9606 
G01 X45.1758 Y22.9556 
G01 X45.1497 Y22.9423 
G01 X45.1242 Y22.9276 
G01 X45.1170 Y22.9257 
G01 X45.0071 Y22.8696 
G01 X44.8776 Y22.7756 
G01 X44.7644 Y22.6624 
G01 X44.6704 Y22.5329 
G01 X44.5977 Y22.3903 
G01 X44.5779 Y22.3294 
G01 X44.6876 Y22.3294 
G01 X44.7304 Y22.4327 
G01 X44.8304 Y22.5824 
G01 X44.9576 Y22.7096 
G01 X45.1072 Y22.8096 
G01 X45.2735 Y22.8785 
G01 X45.4500 Y22.9136 
G01 X45.6300 Y22.9136 
G01 X45.8065 Y22.8785 
G01 X45.9727 Y22.8096 
G01 X46.1224 Y22.7096 
G01 X46.2496 Y22.5824 
G01 X46.3496 Y22.4327 
G01 X46.3924 Y22.3294 
G01 X46.5021 Y22.3294 
G01 X46.4823 Y22.3903 
G01 X46.4096 Y22.5329 
G01 X46.3156 Y22.6624 
G01 X46.2024 Y22.7756 
G01 X46.0729 Y22.8696 
G01 X45.9630 Y22.9257 
G01 X45.9558 Y22.9276 
G01 X45.9303 Y22.9423 
G01 X45.9042 Y22.9556 
G01 X45.8987 Y22.9606 
G01 X45.8923 Y22.9643 
G01 X45.8715 Y22.9851 
G01 X45.8497 Y23.0047 
G01 X45.8456 Y23.0109 
G01 X45.8404 Y23.0161 
G01 X45.8257 Y23.0416 
G01 X45.8097 Y23.0662 
G01 X45.8074 Y23.0733 
G01 X45.8037 Y23.0797 
G01 X45.7961 Y23.1081 
G01 X45.7870 Y23.1360 
G01 X45.7867 Y23.1434 
G01 X45.7847 Y23.1505 
G01 X45.7847 Y23.1799 
G01 X45.7832 Y23.2092 
G01 X45.7847 Y23.2165 
G01 X45.7847 Y23.2239 
G01 X45.7923 Y23.2523 
G01 X45.7985 Y23.2810 
G01 X45.8018 Y23.2876 
G01 X45.8037 Y23.2947 
G01 X45.8184 Y23.3202 
G01 X45.8318 Y23.3464 
G01 X45.8367 Y23.3518 
G01 X45.8404 Y23.3583 
G01 X45.8612 Y23.3791 
G01 X45.8808 Y23.4009 
G01 X45.8870 Y23.4049 
G01 X45.8923 Y23.4101 
G01 X45.9177 Y23.4248 
G01 X45.9424 Y23.4408 
G01 X45.9494 Y23.4431 
G01 X45.9558 Y23.4468 
G01 X45.9842 Y23.4544 
G01 X46.0121 Y23.4635 
G01 X46.0195 Y23.4639 
G01 X46.0267 Y23.4658 
G01 X46.0561 Y23.4658 
G01 X46.0854 Y23.4673 
G01 X46.0926 Y23.4658 
G01 X46.7000 Y23.4658 
G01 X46.7709 Y23.4468 
G01 X46.8344 Y23.4101 
G01 X47.3174 Y22.9271 
G01 X47.5137 Y22.8458 
G01 X50.5894 Y22.8458 
G01 X50.6602 Y22.8268 
G01 X50.7237 Y22.7901 
G01 X50.7756 Y22.7383 
G01 X51.0999 Y22.4140 
G01 X51.9001 Y22.4140 
G01 X52.4660 Y22.9799 
G01 X52.4660 Y23.7801 
G01 X51.9001 Y24.3460 
G01 X51.0999 Y24.3460 
G01 X50.7756 Y24.0217 
G01 X50.7237 Y23.9699 
G01 X50.6602 Y23.9332 
G01 X50.5894 Y23.9142 
G01 X47.9200 Y23.9142 
G01 X47.8491 Y23.9332 
G01 X47.7856 Y23.9699 
G01 X47.5180 Y24.2375 
G01 X47.3026 Y24.4529 
G01 X47.1063 Y24.5342 
G01 X46.0926 Y24.5342 
G01 X46.0854 Y24.5327 
G01 X46.0560 Y24.5342 
G01 X46.0267 Y24.5342 
G01 X46.0195 Y24.5361 
G01 X46.0121 Y24.5365 
G01 X45.9842 Y24.5456 
G01 X45.9558 Y24.5532 
G01 X45.9494 Y24.5569 
G01 X45.9424 Y24.5592 
G01 X45.9177 Y24.5752 
G01 X45.8923 Y24.5899 
G01 X45.8870 Y24.5951 
G01 X45.8808 Y24.5991 
G01 X45.8612 Y24.6210 
G01 X45.8404 Y24.6417 
G01 X45.8367 Y24.6481 
G01 X45.8317 Y24.6536 
G01 X45.8184 Y24.6798 
G01 X45.8037 Y24.7053 
G01 X45.8018 Y24.7124 
G01 X45.7985 Y24.7190 
G01 X45.7923 Y24.7477 
G01 X45.7847 Y24.7761 
G01 X45.7847 Y24.7835 
G01 X45.7832 Y24.7908 
G01 X45.7847 Y24.8201 
G01 X45.7847 Y24.8495 
G01 X45.7867 Y24.8566 
G01 X45.7870 Y24.8640 
G01 X45.7961 Y24.8919 
G01 X45.8037 Y24.9203 
G01 X45.8074 Y24.9267 
G01 X45.8097 Y24.9338 
G01 X45.8257 Y24.9584 
G01 X45.8404 Y24.9839 
G01 X45.8456 Y24.9891 
G01 X45.8497 Y24.9953 
G01 X45.8715 Y25.0150 
G01 X45.8923 Y25.0357 
G01 X45.8987 Y25.0394 
G01 X45.9042 Y25.0444 
G01 X45.9303 Y25.0577 
G01 X45.9558 Y25.0724 
G01 X45.9630 Y25.0743 
G01 X46.0729 Y25.1303 
G01 X46.2024 Y25.2244 
G01 X46.3156 Y25.3376 
G01 X46.4096 Y25.4671 
G01 X46.4823 Y25.6097 
G01 X46.5021 Y25.6706 
G01 X46.3924 Y25.6706 
G01 X46.3496 Y25.5672 
G01 X46.2496 Y25.4176 
G01 X46.1224 Y25.2904 
G01 X45.9727 Y25.1904 
G01 X45.8065 Y25.1215 
G01 X45.6300 Y25.0864 
G01 X45.4500 Y25.0864 
G01 X45.2735 Y25.1215 
G01 X45.1072 Y25.1904 
G01 X44.9576 Y25.2904 
G01 X44.8304 Y25.4176 
G01 X44.7304 Y25.5672 
G01 X44.6876 Y25.6706 
G01 X44.3990 Y25.6706 
G01 X44.3767 Y25.6594 
G01 X44.3521 Y25.6453 
G01 X44.3440 Y25.6431 
G01 X44.3364 Y25.6393 
G01 X44.3086 Y25.6336 
G01 X44.2813 Y25.6263 
G01 X44.2728 Y25.6263 
G01 X44.2645 Y25.6246 
G01 X44.2362 Y25.6263 
G01 X44.2079 Y25.6263 
G01 X44.1997 Y25.6285 
G01 X44.1913 Y25.6290 
G01 X44.1644 Y25.6379 
G01 X44.1371 Y25.6453 
G01 X44.1297 Y25.6495 
G01 X44.1217 Y25.6522 
G01 X44.0981 Y25.6678 
G01 X44.0735 Y25.6819 
G01 X44.0675 Y25.6879 
G01 X44.0605 Y25.6926 
G01 X44.0417 Y25.7138 
G01 X44.0217 Y25.7338 
G01 X44.0174 Y25.7411 
G01 X44.0118 Y25.7475 
G01 X43.9992 Y25.7728 
G01 X43.9850 Y25.7973 
G01 X43.9828 Y25.8055 
G01 X43.9790 Y25.8131 
G01 X43.9733 Y25.8408 
G01 X43.9660 Y25.8682 
G01 X43.9660 Y25.8767 
G01 X43.9643 Y25.8849 
G01 X43.9660 Y25.9132 
G01 X43.9660 Y26.0874 
G01 X43.9637 Y26.1093 
G01 X43.9660 Y26.1238 
G01 X43.9660 Y26.1922 
G01 X43.8189 Y26.5472 
G01 X43.5472 Y26.8189 
G00 Z3.0000 
G00 X43.4327 Y26.8096 
G01 Z-0.1100 F500.00 
G01 X43.5824 Y26.7096 F500.00 
G01 X43.7096 Y26.5824 
G01 X43.8096 Y26.4327 
G01 X43.8785 Y26.2665 
G01 X43.9136 Y26.0900 
G01 X43.9136 Y25.9100 
G01 X43.8900 Y25.7914 
G01 X45.1996 Y24.4818 
G01 X47.0634 Y24.4818 
G01 X47.1860 Y24.4490 
G01 X47.2958 Y24.3855 
G01 X47.3855 Y24.2958 
G01 X47.8196 Y23.8618 
G01 X50.6898 Y23.8618 
G01 X51.1216 Y24.2936 
G01 X51.8784 Y24.2936 
G01 X52.4136 Y23.7584 
G01 X52.4136 Y23.0016 
G01 X51.8784 Y22.4664 
G01 X51.1216 Y22.4664 
G01 X50.6898 Y22.8982 
G01 X47.5566 Y22.8982 
G01 X47.4340 Y22.9310 
G01 X47.3242 Y22.9945 
G01 X46.8004 Y23.5182 
G01 X44.9366 Y23.5182 
G01 X44.8140 Y23.5510 
G01 X44.7042 Y23.6145 
G01 X43.2086 Y25.1100 
G01 X43.0900 Y25.0864 
G01 X42.9100 Y25.0864 
G01 X42.7335 Y25.1215 
G01 X42.5672 Y25.1904 
G01 X42.4176 Y25.2904 
G01 X42.2904 Y25.4176 
G01 X42.1904 Y25.5672 
G01 X42.1215 Y25.7335 
G01 X42.0864 Y25.9100 
G01 X42.0864 Y26.0900 
G01 X42.1215 Y26.2665 
G01 X42.1904 Y26.4327 
G01 X42.2904 Y26.5824 
G01 X42.4176 Y26.7096 
G01 X42.5672 Y26.8096 
G01 X42.7335 Y26.8785 
G01 X42.9100 Y26.9136 
G01 X43.0900 Y26.9136 
G01 X43.2665 Y26.8785 
G01 X43.4327 Y26.8096 
G00 Z3.0000 
G00 X44.8776 Y26.7756 
G01 Z-0.1100 F500.00 
G01 X44.7644 Y26.6624 F500.00 
G01 X44.6704 Y26.5329 
G01 X44.5977 Y26.3903 
G01 X44.5779 Y26.3294 
G01 X44.6876 Y26.3294 
G01 X44.7304 Y26.4327 
G01 X44.8304 Y26.5824 
G01 X44.9576 Y26.7096 
G01 X45.1072 Y26.8096 
G01 X45.2106 Y26.8524 
G01 X45.2106 Y26.9621 
G01 X45.1497 Y26.9423 
G01 X45.0071 Y26.8696 
G01 X44.8776 Y26.7756 
G00 Z3.0000 
G00 X45.8694 Y26.8524 
G01 Z-0.1100 F500.00 
G01 X45.9727 Y26.8096 F500.00 
G01 X46.1224 Y26.7096 
G01 X46.2496 Y26.5824 
G01 X46.3496 Y26.4327 
G01 X46.3924 Y26.3294 
G01 X46.5021 Y26.3294 
G01 X46.4823 Y26.3903 
G01 X46.4096 Y26.5329 
G01 X46.3156 Y26.6624 
G01 X46.2024 Y26.7756 
G01 X46.0729 Y26.8696 
G01 X45.9303 Y26.9423 
G01 X45.8694 Y26.9621 
G01 X45.8694 Y26.8524 
G00 Z3.0000 
G00 X46.3924 Y21.6706 
G01 Z-0.1100 F500.00 
G01 X46.3496 Y21.5672 F500.00 
G01 X46.2496 Y21.4176 
G01 X46.1224 Y21.2904 
G01 X45.9727 Y21.1904 
G01 X45.8065 Y21.1215 
G01 X45.6300 Y21.0864 
G01 X45.4500 Y21.0864 
G01 X45.2735 Y21.1215 
G01 X45.1072 Y21.1904 
G01 X44.9576 Y21.2904 
G01 X44.8304 Y21.4176 
G01 X44.7304 Y21.5672 
G01 X44.6876 Y21.6706 
G01 X44.3990 Y21.6706 
G01 X44.3767 Y21.6594 
G01 X44.3521 Y21.6453 
G01 X44.3440 Y21.6431 
G01 X44.3364 Y21.6393 
G01 X44.3086 Y21.6336 
G01 X44.2813 Y21.6263 
G01 X44.2728 Y21.6263 
G01 X44.2645 Y21.6246 
G01 X44.2362 Y21.6263 
G01 X44.2079 Y21.6263 
G01 X44.1997 Y21.6285 
G01 X44.1913 Y21.6290 
G01 X44.1644 Y21.6379 
G01 X44.1371 Y21.6453 
G01 X44.1297 Y21.6495 
G01 X44.1217 Y21.6522 
G01 X44.0981 Y21.6678 
G01 X44.0735 Y21.6819 
G01 X44.0675 Y21.6879 
G01 X44.0605 Y21.6926 
G01 X44.0417 Y21.7138 
G01 X44.0217 Y21.7338 
G01 X44.0174 Y21.7411 
G01 X44.0118 Y21.7475 
G01 X43.9992 Y21.7728 
G01 X43.9850 Y21.7973 
G01 X43.9828 Y21.8055 
G01 X43.9790 Y21.8131 
G01 X43.9733 Y21.8408 
G01 X43.9660 Y21.8682 
G01 X43.9660 Y21.8767 
G01 X43.9643 Y21.8849 
G01 X43.9660 Y21.9132 
G01 X43.9660 Y22.0874 
G01 X43.9637 Y22.1093 
G01 X43.9660 Y22.1238 
G01 X43.9660 Y22.1922 
G01 X43.8189 Y22.5472 
G01 X43.5472 Y22.8189 
G01 X43.1921 Y22.9660 
G01 X42.8078 Y22.9660 
G01 X42.4528 Y22.8189 
G01 X42.1811 Y22.5472 
G01 X42.0340 Y22.1922 
G01 X42.0340 Y21.8078 
G01 X42.1811 Y21.4528 
G01 X42.4528 Y21.1811 
G01 X42.8078 Y21.0340 
G01 X43.1318 Y21.0340 
G01 X43.2027 Y21.0150 
G01 X43.2662 Y20.9783 
G01 X44.6974 Y19.5471 
G01 X44.8937 Y19.4658 
G01 X44.9874 Y19.4658 
G01 X44.9946 Y19.4673 
G01 X45.0239 Y19.4658 
G01 X45.0533 Y19.4658 
G01 X45.0605 Y19.4639 
G01 X45.0679 Y19.4635 
G01 X45.0958 Y19.4544 
G01 X45.1242 Y19.4468 
G01 X45.1306 Y19.4431 
G01 X45.1376 Y19.4408 
G01 X45.1622 Y19.4248 
G01 X45.1877 Y19.4101 
G01 X45.1930 Y19.4049 
G01 X45.1992 Y19.4009 
G01 X45.2188 Y19.3791 
G01 X45.2396 Y19.3583 
G01 X45.2433 Y19.3518 
G01 X45.2482 Y19.3464 
G01 X45.2616 Y19.3202 
G01 X45.2763 Y19.2947 
G01 X45.2782 Y19.2876 
G01 X45.2815 Y19.2810 
G01 X45.2876 Y19.2523 
G01 X45.2953 Y19.2239 
G01 X45.2953 Y19.2165 
G01 X45.2968 Y19.2092 
G01 X45.2953 Y19.1799 
G01 X45.2953 Y19.1505 
G01 X45.2933 Y19.1434 
G01 X45.2929 Y19.1360 
G01 X45.2839 Y19.1081 
G01 X45.2763 Y19.0797 
G01 X45.2726 Y19.0733 
G01 X45.2703 Y19.0662 
G01 X45.2543 Y19.0416 
G01 X45.2396 Y19.0161 
G01 X45.2343 Y19.0109 
G01 X45.2303 Y19.0047 
G01 X45.2085 Y18.9851 
G01 X45.1877 Y18.9643 
G01 X45.1813 Y18.9606 
G01 X45.1758 Y18.9556 
G01 X45.1497 Y18.9423 
G01 X45.1242 Y18.9276 
G01 X45.1170 Y18.9257 
G01 X45.0071 Y18.8696 
G01 X44.8776 Y18.7756 
G01 X44.7644 Y18.6624 
G01 X44.6704 Y18.5329 
G01 X44.5977 Y18.3903 
G01 X44.5779 Y18.3294 
G01 X44.6876 Y18.3294 
G01 X44.7304 Y18.4327 
G01 X44.8304 Y18.5824 
G01 X44.9576 Y18.7096 
G01 X45.1072 Y18.8096 
G01 X45.2735 Y18.8785 
G01 X45.4500 Y18.9136 
G01 X45.6300 Y18.9136 
G01 X45.8065 Y18.8785 
G01 X45.9727 Y18.8096 
G01 X46.1224 Y18.7096 
G01 X46.2496 Y18.5824 
G01 X46.3496 Y18.4327 
G01 X46.3924 Y18.3294 
G01 X46.5021 Y18.3294 
G01 X46.4823 Y18.3903 
G01 X46.4096 Y18.5329 
G01 X46.3156 Y18.6624 
G01 X46.2024 Y18.7756 
G01 X46.0729 Y18.8696 
G01 X45.9630 Y18.9257 
G01 X45.9558 Y18.9276 
G01 X45.9303 Y18.9423 
G01 X45.9042 Y18.9556 
G01 X45.8987 Y18.9606 
G01 X45.8923 Y18.9643 
G01 X45.8715 Y18.9851 
G01 X45.8497 Y19.0047 
G01 X45.8456 Y19.0109 
G01 X45.8404 Y19.0161 
G01 X45.8257 Y19.0416 
G01 X45.8097 Y19.0662 
G01 X45.8074 Y19.0733 
G01 X45.8037 Y19.0797 
G01 X45.7961 Y19.1081 
G01 X45.7870 Y19.1360 
G01 X45.7867 Y19.1434 
G01 X45.7847 Y19.1505 
G01 X45.7847 Y19.1799 
G01 X45.7832 Y19.2092 
G01 X45.7847 Y19.2165 
G01 X45.7847 Y19.2239 
G01 X45.7923 Y19.2523 
G01 X45.7985 Y19.2810 
G01 X45.8018 Y19.2876 
G01 X45.8037 Y19.2947 
G01 X45.8184 Y19.3202 
G01 X45.8318 Y19.3464 
G01 X45.8367 Y19.3518 
G01 X45.8404 Y19.3583 
G01 X45.8612 Y19.3791 
G01 X45.8808 Y19.4009 
G01 X45.8870 Y19.4049 
G01 X45.8923 Y19.4101 
G01 X45.9177 Y19.4248 
G01 X45.9424 Y19.4408 
G01 X45.9494 Y19.4431 
G01 X45.9558 Y19.4468 
G01 X45.9842 Y19.4544 
G01 X46.0121 Y19.4635 
G01 X46.0195 Y19.4639 
G01 X46.0267 Y19.4658 
G01 X46.0561 Y19.4658 
G01 X46.0854 Y19.4673 
G01 X46.0926 Y19.4658 
G01 X47.1063 Y19.4658 
G01 X47.3026 Y19.5471 
G01 X47.4661 Y19.7106 
G01 X47.9537 Y20.1983 
G01 X48.0056 Y20.2501 
G01 X48.0691 Y20.2868 
G01 X48.1400 Y20.3058 
G01 X50.5894 Y20.3058 
G01 X50.6602 Y20.2868 
G01 X50.7237 Y20.2501 
G01 X50.7756 Y20.1983 
G01 X51.0999 Y19.8740 
G01 X51.9001 Y19.8740 
G01 X52.4660 Y20.4399 
G01 X52.4660 Y21.2401 
G01 X51.9001 Y21.8060 
G01 X51.0999 Y21.8060 
G01 X50.7756 Y21.4817 
G01 X50.7237 Y21.4299 
G01 X50.6602 Y21.3932 
G01 X50.5894 Y21.3742 
G01 X47.7337 Y21.3742 
G01 X47.5374 Y21.2929 
G01 X46.8863 Y20.6417 
G01 X46.8344 Y20.5899 
G01 X46.7709 Y20.5532 
G01 X46.7000 Y20.5342 
G01 X46.0926 Y20.5342 
G01 X46.0854 Y20.5327 
G01 X46.0561 Y20.5342 
G01 X46.0267 Y20.5342 
G01 X46.0195 Y20.5361 
G01 X46.0121 Y20.5365 
G01 X45.9842 Y20.5456 
G01 X45.9558 Y20.5532 
G01 X45.9494 Y20.5569 
G01 X45.9424 Y20.5592 
G01 X45.9177 Y20.5752 
G01 X45.8923 Y20.5899 
G01 X45.8870 Y20.5951 
G01 X45.8808 Y20.5991 
G01 X45.8612 Y20.6209 
G01 X45.8404 Y20.6417 
G01 X45.8367 Y20.6482 
G01 X45.8318 Y20.6536 
G01 X45.8184 Y20.6798 
G01 X45.8037 Y20.7053 
G01 X45.8018 Y20.7124 
G01 X45.7985 Y20.7190 
G01 X45.7923 Y20.7477 
G01 X45.7847 Y20.7761 
G01 X45.7847 Y20.7835 
G01 X45.7832 Y20.7907 
G01 X45.7847 Y20.8201 
G01 X45.7847 Y20.8495 
G01 X45.7867 Y20.8566 
G01 X45.7870 Y20.8640 
G01 X45.7961 Y20.8919 
G01 X45.8037 Y20.9203 
G01 X45.8074 Y20.9267 
G01 X45.8097 Y20.9338 
G01 X45.8257 Y20.9584 
G01 X45.8404 Y20.9839 
G01 X45.8456 Y20.9891 
G01 X45.8497 Y20.9953 
G01 X45.8715 Y21.0149 
G01 X45.8923 Y21.0357 
G01 X45.8987 Y21.0394 
G01 X45.9042 Y21.0444 
G01 X45.9303 Y21.0577 
G01 X45.9558 Y21.0724 
G01 X45.9630 Y21.0743 
G01 X46.0729 Y21.1303 
G01 X46.2024 Y21.2244 
G01 X46.3156 Y21.3376 
G01 X46.4096 Y21.4671 
G01 X46.4823 Y21.6097 
G01 X46.5021 Y21.6706 
G01 X46.3924 Y21.6706 
G00 Z3.0000 
G00 X47.5442 Y21.2255 
G01 Z-0.1100 F500.00 
G01 X47.6540 Y21.2890 F500.00 
G01 X47.7766 Y21.3218 
G01 X50.6898 Y21.3218 
G01 X51.1216 Y21.7536 
G01 X51.8784 Y21.7536 
G01 X52.4136 Y21.2184 
G01 X52.4136 Y20.4616 
G01 X51.8784 Y19.9264 
G01 X51.1216 Y19.9264 
G01 X50.6898 Y20.3582 
G01 X48.0396 Y20.3582 
G01 X47.3855 Y19.7042 
G01 X47.2958 Y19.6145 
G01 X47.1860 Y19.5510 
G01 X47.0634 Y19.5182 
G01 X44.9366 Y19.5182 
G01 X44.8140 Y19.5510 
G01 X44.7042 Y19.6145 
G01 X43.2086 Y21.1100 
G01 X43.0900 Y21.0864 
G01 X42.9100 Y21.0864 
G01 X42.7335 Y21.1215 
G01 X42.5672 Y21.1904 
G01 X42.4176 Y21.2904 
G01 X42.2904 Y21.4176 
G01 X42.1904 Y21.5672 
G01 X42.1215 Y21.7335 
G01 X42.0864 Y21.9100 
G01 X42.0864 Y22.0900 
G01 X42.1215 Y22.2665 
G01 X42.1904 Y22.4327 
G01 X42.2904 Y22.5824 
G01 X42.4176 Y22.7096 
G01 X42.5672 Y22.8096 
G01 X42.7335 Y22.8785 
G01 X42.9100 Y22.9136 
G01 X43.0900 Y22.9136 
G01 X43.2665 Y22.8785 
G01 X43.4327 Y22.8096 
G01 X43.5824 Y22.7096 
G01 X43.7096 Y22.5824 
G01 X43.8096 Y22.4327 
G01 X43.8785 Y22.2665 
G01 X43.9136 Y22.0900 
G01 X43.9136 Y21.9100 
G01 X43.8900 Y21.7914 
G01 X45.1996 Y20.4818 
G01 X46.8004 Y20.4818 
G01 X47.5442 Y21.2255 
G00 Z3.0000 
G00 X46.5021 Y17.6706 
G01 Z-0.1100 F500.00 
G01 X46.3924 Y17.6706 F500.00 
G01 X46.3496 Y17.5672 
G01 X46.2496 Y17.4176 
G01 X46.1224 Y17.2904 
G01 X45.9727 Y17.1904 
G01 X45.8065 Y17.1215 
G01 X45.6300 Y17.0864 
G01 X45.4500 Y17.0864 
G01 X45.2735 Y17.1215 
G01 X45.1072 Y17.1904 
G01 X44.9576 Y17.2904 
G01 X44.8304 Y17.4176 
G01 X44.7304 Y17.5672 
G01 X44.6876 Y17.6706 
G01 X44.5779 Y17.6706 
G01 X44.5977 Y17.6097 
G01 X44.6704 Y17.4671 
G01 X44.7644 Y17.3376 
G01 X44.8776 Y17.2244 
G01 X45.0071 Y17.1303 
G01 X45.1170 Y17.0743 
G01 X45.1242 Y17.0724 
G01 X45.1497 Y17.0577 
G01 X45.1758 Y17.0444 
G01 X45.1813 Y17.0394 
G01 X45.1877 Y17.0357 
G01 X45.2085 Y17.0149 
G01 X45.2303 Y16.9953 
G01 X45.2343 Y16.9891 
G01 X45.2396 Y16.9839 
G01 X45.2543 Y16.9584 
G01 X45.2703 Y16.9338 
G01 X45.2726 Y16.9267 
G01 X45.2763 Y16.9203 
G01 X45.2839 Y16.8919 
G01 X45.2929 Y16.8640 
G01 X45.2933 Y16.8566 
G01 X45.2953 Y16.8495 
G01 X45.2953 Y16.8201 
G01 X45.2968 Y16.7907 
G01 X45.2953 Y16.7835 
G01 X45.2953 Y16.7761 
G01 X45.2876 Y16.7477 
G01 X45.2815 Y16.7190 
G01 X45.2782 Y16.7124 
G01 X45.2763 Y16.7053 
G01 X45.2616 Y16.6798 
G01 X45.2482 Y16.6536 
G01 X45.2433 Y16.6482 
G01 X45.2396 Y16.6417 
G01 X45.2188 Y16.6209 
G01 X45.1992 Y16.5991 
G01 X45.1930 Y16.5951 
G01 X45.1877 Y16.5899 
G01 X45.1622 Y16.5752 
G01 X45.1376 Y16.5592 
G01 X45.1306 Y16.5569 
G01 X45.1242 Y16.5532 
G01 X45.0958 Y16.5456 
G01 X45.0679 Y16.5365 
G01 X45.0605 Y16.5361 
G01 X45.0533 Y16.5342 
G01 X45.0239 Y16.5342 
G01 X44.9946 Y16.5327 
G01 X44.9874 Y16.5342 
G01 X44.3000 Y16.5342 
G01 X44.2291 Y16.5532 
G01 X44.1656 Y16.5899 
G01 X43.7837 Y16.9717 
G01 X43.7319 Y17.0236 
G01 X43.6952 Y17.0871 
G01 X43.6762 Y17.1580 
G01 X43.6762 Y17.2314 
G01 X43.6815 Y17.2511 
G01 X43.6952 Y17.3022 
G01 X43.7319 Y17.3657 
G01 X43.7837 Y17.4176 
G01 X43.8189 Y17.4528 
G01 X43.9660 Y17.8078 
G01 X43.9660 Y17.8761 
G01 X43.9637 Y17.8907 
G01 X43.9660 Y17.9126 
G01 X43.9660 Y18.0874 
G01 X43.9637 Y18.1093 
G01 X43.9660 Y18.1239 
G01 X43.9660 Y18.1922 
G01 X43.8189 Y18.5472 
G01 X43.5472 Y18.8189 
G01 X43.1921 Y18.9660 
G01 X42.8078 Y18.9660 
G01 X42.4528 Y18.8189 
G01 X42.1811 Y18.5472 
G01 X42.0340 Y18.1922 
G01 X42.0340 Y17.8078 
G01 X42.1811 Y17.4528 
G01 X42.3583 Y17.2756 
G01 X42.4101 Y17.2237 
G01 X42.4468 Y17.1602 
G01 X42.4609 Y17.1075 
G01 X42.4658 Y17.0894 
G01 X42.4658 Y16.8937 
G01 X42.5471 Y16.6974 
G01 X42.7106 Y16.5339 
G01 X43.6974 Y15.5471 
G01 X43.8937 Y15.4658 
G01 X44.9874 Y15.4658 
G01 X44.9946 Y15.4673 
G01 X45.0239 Y15.4658 
G01 X45.0533 Y15.4658 
G01 X45.0605 Y15.4639 
G01 X45.0679 Y15.4635 
G01 X45.0958 Y15.4544 
G01 X45.1242 Y15.4468 
G01 X45.1306 Y15.4431 
G01 X45.1376 Y15.4408 
G01 X45.1622 Y15.4248 
G01 X45.1877 Y15.4101 
G01 X45.1930 Y15.4049 
G01 X45.1992 Y15.4009 
G01 X45.2188 Y15.3791 
G01 X45.2396 Y15.3583 
G01 X45.2433 Y15.3518 
G01 X45.2482 Y15.3464 
G01 X45.2616 Y15.3202 
G01 X45.2763 Y15.2947 
G01 X45.2782 Y15.2876 
G01 X45.2815 Y15.2810 
G01 X45.2876 Y15.2523 
G01 X45.2953 Y15.2239 
G01 X45.2953 Y15.2165 
G01 X45.2968 Y15.2092 
G01 X45.2953 Y15.1799 
G01 X45.2953 Y15.1505 
G01 X45.2933 Y15.1434 
G01 X45.2929 Y15.1360 
G01 X45.2839 Y15.1081 
G01 X45.2763 Y15.0797 
G01 X45.2726 Y15.0732 
G01 X45.2703 Y15.0662 
G01 X45.2543 Y15.0416 
G01 X45.2396 Y15.0161 
G01 X45.2343 Y15.0109 
G01 X45.2303 Y15.0047 
G01 X45.2085 Y14.9851 
G01 X45.1877 Y14.9643 
G01 X45.1813 Y14.9606 
G01 X45.1758 Y14.9556 
G01 X45.1497 Y14.9423 
G01 X45.1242 Y14.9276 
G01 X45.1170 Y14.9257 
G01 X45.0071 Y14.8696 
G01 X44.8776 Y14.7756 
G01 X44.7644 Y14.6624 
G01 X44.6703 Y14.5329 
G01 X44.5977 Y14.3903 
G01 X44.5779 Y14.3294 
G01 X44.6876 Y14.3294 
G01 X44.7304 Y14.4328 
G01 X44.8304 Y14.5824 
G01 X44.9576 Y14.7096 
G01 X45.1072 Y14.8096 
G01 X45.2735 Y14.8785 
G01 X45.4500 Y14.9136 
G01 X45.6300 Y14.9136 
G01 X45.8065 Y14.8785 
G01 X45.9727 Y14.8096 
G01 X46.1224 Y14.7096 
G01 X46.2496 Y14.5824 
G01 X46.3496 Y14.4328 
G01 X46.3924 Y14.3294 
G01 X46.5021 Y14.3294 
G01 X46.4823 Y14.3903 
G01 X46.4096 Y14.5329 
